/* XPM */
static char *east_wall[] = {
/* columns rows colors chars-per-pixel */
"64 64 4 1 ",
"  c #2F4F4F",
". c #696969",
"X c #808080",
"o c #C0C0C0",
/* pixels */
"ooooXXXX....ooooXXXX....ooooXXXX....ooooXXXX....ooooXXXX....oooo",
"ooooXXXX....ooooXXXX....ooooXXXX....ooooXXXX....ooooXXXX....oooo",
"ooooXXXX....ooooXXXX....ooooXXXX....ooooXXXX....ooooXXXX....oooo",
"ooooXXXX....ooooXXXX....ooooXXXX....ooooXXXX....ooooXXXX....oooo",
"XXXX....ooooXXXX....ooooXXXX....ooooXXXX....ooooXXXX....ooooXXXX",
"XXXX....ooooXXXX....ooooXXXX....ooooXXXX....ooooXXXX....ooooXXXX",
"XXXX....ooooXXXX....ooooXXXX....ooooXXXX....ooooXXXX....ooooXXXX",
"XXXX....ooooXXXX....ooooXXXX....ooooXXXX....ooooXXXX....ooooXXXX",
"....ooooXXXX....ooooXXXX....ooooXXXX....ooooXXXX....ooooXXXX....",
"....ooooXXXX....ooooXXXX....ooooXXXX....ooooXXXX....ooooXXXX....",
"....ooooXXXX....ooooXXXX....ooooXXXX....ooooXXXX....ooooXXXX....",
"....ooooXXXX....ooooXXXX....ooooXXXX....ooooXXXX....ooooXXXX....",
"ooooXXXX....ooooXXXX....ooooXXXX....ooooXXXX....ooooXXXX....oooo",
"ooooXXXX....ooooXXXX....ooooXXXX....ooooXXXX....ooooXXXX....oooo",
"ooooXXXX....ooooXXXX....ooooXXXX....ooooXXXX....ooooXXXX....oooo",
"ooooXXXX....ooooXXXX....ooooXXXX....ooooXXXX....ooooXXXX....oooo",
"XXXX....ooooXXXX....ooooXXXX....ooooXXXX....ooooXXXX....ooooXXXX",
"XXXX....ooooXXXX....ooooXXXX....ooooXXXX....ooooXXXX....ooooXXXX",
"XXXX....ooooXXXX....ooooXXXX....ooooXXXX....ooooXXXX....ooooXXXX",
"XXXX....ooooXXXX....ooooXXXX....ooooXXXX....ooooXXXX....ooooXXXX",
"....ooooXXXX....ooooXXXX....ooooXXXX....ooooXXXX....ooooXXXX....",
"....ooooXXXX....ooooXXXX....ooooXXXX....ooooXXXX....ooooXXXX....",
"....ooooXXXX....ooooXXXX....ooooXXXX....ooooXXXX....ooooXXXX....",
"....ooooXXXX....ooooXXXX....ooooXXXX....ooooXXXX....ooooXXXX....",
"ooooXXXX....ooooXXXX....ooooXXXX....ooooXXXX....ooooXXXX....oooo",
"ooooXXXX....ooooXXXX....ooooXXXX....ooooXXXX....ooooXXXX....oooo",
"ooooXXXX....ooooXXXX....ooooXXXX....ooooXXXX....ooooXXXX....oooo",
"ooooXXXX....ooooXXXX....ooooXXXX....ooooXXXX....ooooXXXX....oooo",
"XXXX....ooooXXXX....ooooXXXX....ooooXXXX....ooooXXXX....ooooXXXX",
"XXXX....ooooXXXX....ooooXXXX....ooooXXXX....ooooXXXX....ooooXXXX",
"XXXX....ooooXXXX....ooooXXXX....ooooXXXX....ooooXXXX....ooooXXXX",
"XXXX....ooooXXXX....ooooXXXX....ooooXXXX....ooooXXXX....ooooXXXX",
"....ooooXXXX....ooooXXXX....ooooXXXX....ooooXXXX....ooooXXXX....",
"....ooooXXXX....ooooXXXX....ooooXXXX....ooooXXXX....ooooXXXX....",
"....ooooXXXX....ooooXXXX....ooooXXXX....ooooXXXX....ooooXXXX....",
"....ooooXXXX....ooooXXXX....ooooXXXX....ooooXXXX....ooooXXXX....",
"ooooXXXX....ooooXXXX....ooooXXXX....ooooXXXX....ooooXXXX....oooo",
"ooooXXXX....ooooXXXX....ooooXXXX....ooooXXXX....ooooXXXX....oooo",
"ooooXXXX....ooooXXXX....ooooXXXX....ooooXXXX....ooooXXXX....oooo",
"ooooXXXX....ooooXXXX....ooooXXXX....ooooXXXX....ooooXXXX....oooo",
"XXXX....ooooXXXX....ooooXXXX....ooooXXXX....ooooXXXX....ooooXXXX",
"XXXX....ooooXXXX....ooooXXXX....ooooXXXX....ooooXXXX....ooooXXXX",
"XXXX....ooooXXXX....ooooXXXX....ooooXXXX....ooooXXXX....ooooXXXX",
"XXXX....ooooXXXX....ooooXXXX....ooooXXXX....ooooXXXX....ooooXXXX",
"....ooooXXXX....ooooXXXX....ooooXXXX....ooooXXXX....ooooXXXX....",
"....ooooXXXX....ooooXXXX....ooooXXXX....ooooXXXX....ooooXXXX....",
"....ooooXXXX....ooooXXXX....ooooXXXX....ooooXXXX....ooooXXXX....",
"....ooooXXXX....ooooXXXX....ooooXXXX....ooooXXXX....ooooXXXX....",
"ooooXXXX....ooooXXXX....ooooXXXX....ooooXXXX....ooooXXXX....oooo",
"ooooXXXX....ooooXXXX....ooooXXXX....ooooXXXX....ooooXXXX....oooo",
"ooooXXXX....ooooXXXX....ooooXXXX....ooooXXXX....ooooXXXX....oooo",
"ooooXXXX....ooooXXXX....ooooXXXX....ooooXXXX....ooooXXXX....oooo",
"XXXX....ooooXXXX....ooooXXXX....ooooXXXX....ooooXXXX....ooooXXXX",
"XXXX....ooooXXXX....ooooXXXX....ooooXXXX....ooooXXXX....ooooXXXX",
"XXXX....ooooXXXX....ooooXXXX....ooooXXXX....ooooXXXX....ooooXXXX",
"XXXX....ooooXXXX....ooooXXXX....ooooXXXX....ooooXXXX....ooooXXXX",
"....ooooXXXX....ooooXXXX....ooooXXXX....ooooXXXX....ooooXXXX....",
"....ooooXXXX....ooooXXXX....ooooXXXX....ooooXXXX....ooooXXXX....",
"....ooooXXXX....ooooXXXX....ooooXXXX....ooooXXXX....ooooXXXX....",
"....ooooXXXX....ooooXXXX....ooooXXXX....ooooXXXX....ooooXXXX....",
"ooooXXXX....ooooXXXX....ooooXXXX....ooooXXXX....ooooXXXX....oooo",
"ooooXXXX....ooooXXXX....ooooXXXX....ooooXXXX....ooooXXXX....oooo",
"ooooXXXX....ooooXXXX....ooooXXXX....ooooXXXX....ooooXXXX....oooo",
"ooooXXXX....ooooXXXX....ooooXXXX....ooooXXXX....ooooXXXX....oooo"
};