/* XPM */
static char *c09f3f4a016d4d3ca35c1868645e9c08VnGeTFTJQmtEv6Cc[] = {
/* columns rows colors chars-per-pixel */
"177 180 256 2 ",
"   c #040405",
".  c #03040B",
"X  c #080808",
"o  c #0A0A0B",
"O  c #040613",
"+  c #050815",
"@  c #0C0B13",
"#  c #060A1B",
"$  c #090C1D",
"%  c #110F12",
"&  c #131314",
"*  c #171619",
"=  c #1C1B1C",
"-  c #271716",
";  c #1E201E",
":  c #2C231D",
">  c #070C24",
",  c #090E22",
"<  c #0A0D2F",
"1  c #0A1125",
"2  c #0A1428",
"3  c #0C142C",
"4  c #15162A",
"5  c #191A29",
"6  c #0E1631",
"7  c #0E1833",
"8  c #131A34",
"9  c #121937",
"0  c #191A33",
"q  c #1D1E3D",
"w  c #221E24",
"e  c #1D222A",
"r  c #19223A",
"t  c #232224",
"y  c #29272A",
"u  c #342B28",
"i  c #39322F",
"p  c #292936",
"a  c #342D34",
"s  c #393538",
"d  c #500E06",
"f  c #682E1E",
"g  c #4E362B",
"h  c #463A3A",
"j  c #52433A",
"k  c #724D36",
"l  c #161C4A",
"z  c #182549",
"x  c #2B304D",
"c  c #3A3945",
"v  c #121D6E",
"b  c #212F6D",
"n  c #453C45",
"m  c #354465",
"M  c #494547",
"N  c #564847",
"B  c #4F4A54",
"V  c #595558",
"C  c #70554F",
"Z  c #665758",
"A  c #776459",
"S  c #53556A",
"D  c #6B5C66",
"F  c #5C6371",
"G  c #696569",
"H  c #786767",
"J  c #716B75",
"K  c #797479",
"L  c #892E0D",
"P  c #934F2D",
"I  c #AA582A",
"U  c #B86730",
"Y  c #C66D30",
"T  c #CA7637",
"R  c #D47C38",
"E  c #885A49",
"W  c #995C53",
"Q  c #916C54",
"!  c #AC7453",
"~  c #886967",
"^  c #8B6F6E",
"/  c #997867",
"(  c #877778",
")  c #977878",
"_  c #A57C6B",
"`  c #CA7B48",
"'  c #D9823B",
"]  c #9D8371",
"[  c #A88469",
"{  c #B38A6C",
"}  c #A98778",
"|  c #B48C75",
" . c #B99479",
".. c #D98747",
"X. c #D88A52",
"o. c #E4914D",
"O. c #E79656",
"+. c #C79477",
"@. c #EA9B68",
"#. c #CDA179",
"$. c #F3A975",
"%. c #F6AA76",
"&. c #122191",
"*. c #1427AC",
"=. c #0E23B2",
"-. c #222FA0",
";. c #463F97",
":. c #335196",
">. c #3C6CB4",
",. c #3B6CB8",
"<. c #5B669A",
"1. c #72758D",
"2. c #4D73B4",
"3. c #3964C4",
"4. c #467BC6",
"5. c #5178CB",
"6. c #6774CF",
"7. c #8B7C86",
"8. c #9F7C88",
"9. c #6F82A6",
"0. c #7186B2",
"q. c #5288D0",
"w. c #5993DA",
"e. c #7095D1",
"r. c #78A2DB",
"t. c #5C9AE5",
"y. c #639CE6",
"u. c #5EA2EC",
"i. c #66A4EB",
"p. c #75ABED",
"a. c #66A8F3",
"s. c #6BACF4",
"d. c #6EB2FA",
"f. c #73B5FC",
"g. c #76B8FC",
"h. c #7BBCFE",
"j. c #79C2FF",
"k. c #7DC2FE",
"l. c #888589",
"z. c #988889",
"x. c #948F96",
"c. c #A78788",
"v. c #BA9787",
"b. c #AD8E90",
"n. c #A89798",
"m. c #B7969A",
"M. c #B9A397",
"N. c #9195AC",
"B. c #A89AA5",
"V. c #BB9BA3",
"C. c #9CA2B7",
"Z. c #B9A5A8",
"A. c #B0ACB6",
"S. c #C49C86",
"D. c #CB9893",
"F. c #C9A48A",
"G. c #C8A798",
"H. c #D5AF96",
"J. c #FCB785",
"K. c #EEB492",
"L. c #C49DA7",
"P. c #E69FAC",
"I. c #C4A5AA",
"U. c #CFB1A8",
"Y. c #D8B9A7",
"T. c #C7AAB4",
"R. c #C9B5B8",
"E. c #D8B9B7",
"W. c #E9BAAE",
"Q. c #F4C198",
"!. c #DCC3B5",
"~. c #E6C4AA",
"^. c #E8C7B7",
"/. c #F0CCB3",
"(. c #F5CBB7",
"). c #F5D4BB",
"_. c #859ACC",
"`. c #90A9D4",
"'. c #AFB5CE",
"]. c #BCBBC5",
"[. c #B9BBC8",
"{. c #A7B9D8",
"}. c #ABBDDB",
"|. c #91B4E8",
" X c #84BCFB",
".X c #A8BCE3",
"XX c #C5BBC8",
"oX c #D3BAC6",
"OX c #E8BAC5",
"+X c #BDC1CB",
"@X c #ADC1DE",
"#X c #B6C3DB",
"$X c #9FC0EB",
"%X c #83C4FE",
"&X c #88C7FE",
"*X c #8BCCFE",
"=X c #96C9FE",
"-X c #8ED2FE",
";X c #94D4FE",
":X c #99D6FE",
">X c #ADC3E3",
",X c #ACC5E9",
"<X c #B2C5E3",
"1X c #B5C9E5",
"2X c #B7C9E8",
"3X c #BACCEA",
"4X c #BDD1ED",
"5X c #A6CAFB",
"6X c #B5CCF6",
"7X c #A8D4FE",
"8X c #B8D7FC",
"9X c #BDE2FF",
"0X c #C4C2CB",
"qX c #DAC6C8",
"wX c #C6C8D6",
"eX c #D9C9D6",
"rX c #D4D2DB",
"tX c #E8C9C7",
"yX c #F6CBC5",
"uX c #EBD3C8",
"iX c #F8D6C7",
"pX c #FDDBCC",
"aX c #E6CDD8",
"sX c #F9CCD6",
"dX c #E9D5DA",
"fX c #FEDDD3",
"gX c #F8D9D7",
"hX c #FDE3CB",
"jX c #FDE3D4",
"kX c #FAE6D6",
"lX c #FDE4DC",
"zX c #FEEBDC",
"xX c #FBEFDD",
"cX c #C7D0E9",
"vX c #D6D9E6",
"bX c #C4D9F7",
"nX c #E5CFE1",
"mX c #ECD6E2",
"MX c #F4DAE5",
"NX c #D2EAFB",
"BX c #D8E8FB",
"VX c #FAE6E6",
"CX c #FEEBE3",
"ZX c #F1E8EC",
"AX c #FEECEB",
"SX c #FEF3E4",
"DX c #FEF9E6",
"FX c #FEF4EB",
"GX c #FEFAEC",
"HX c #E6EAF8",
"JX c #EBF6FE",
"KX c #FEF5F3",
"LX c #FEFBF4",
"PX c #F7F5FA",
"IX c #F4FBFE",
"UX c #FEFEFE",
/* pixels */
"5 5 5 5 5 5 5 5 5 5 v =.=.=.=.=.=.v + + + + + + + O O O . . . . . . . . . . . . . . . . . . . . . . O O O O O + O O O + O O + + O O # # # # > # > > > , 1 1 < 3 3 3 3 6 8 8 8 z z z z z b m :.:.>.2.q.w.i.s.f.g.h.k.%X%X%Xk.k.j.j.k.k.k.k.g.f.d.s.a.i.t.u.i.a.d.g.h.%X&X*X-X;X;X;X;X5.=.=.=.=.=.=.v q q q q q q q q q q q q q q q q q q q q q q q q q q q q q q q ",
"5 5 5 5 5 5 5 5 5 v =.=.=.=.=.&.l + + + O O O O . . . . . . O . . . . . . O O . .   . . . . .   . . . O O + # # # # $ , , , , , , $ $ , > > , > > > # # > > > > , > , 2 6 8 8 8 9 z z z b m :.:.>.2.q.w.i.d.f.g.h.k.%X%X%Xk.k.k.k.k.k.k.h.g.f.d.s.a.i.u.u.u.a.d.g.h.%X&X*X*X;X;X*X*X;Xp.-.=.=.=.=.=.&.q q q q q q q q q q q q q q q q q q q q q q q q q q q q q q ",
"5 5 5 5 5 5 5 q &.=.=.=.=.=.v # + + + + O O . O . . . . . . . O O O O O . . O . .       . . . . . . . O # $ > , 2 2 2 3 3 3 3 3 3 2 2 3 3 3 3 3 3 3 3 3 6 6 6 6 6 6 6 7 8 8 8 8 r z z z b m :.>.>.q.w.y.s.d.f.h.k.k.%X%Xk.k.k.k.k.k.k.k.h.h.f.d.s.a.i.t.t.u.a.s.g. X%X&X*X*X;X;X;X*X;X;X*X5.=.=.=.=.=.&.l q q q q q q q q q q q q q q q q q q q q q q q q q q q q ",
"5 5 5 5 5 5 l *.=.=.=.=.=.l + + O O O O O . . . . . . . . . O O + + + O O . . .             . . . . O # # , 1 2 2 2 2 1 1 3 3 3 3 3 3 6 7 7 7 8 8 8 8 8 8 8 8 8 8 8 8 8 8 r z z z z z z b :.:.>.2.q.w.i.s.d.g.h.k.k.%X%Xk.k.k.k.k.k.%Xk.k.k.g.f.s.a.i.u.t.u.a.d.g. X%X&X*X*X;X;X;X-X-X;X;X;Xw.=.=.=.=.=.*.l q q q q q q q q q q q q q q q q q q q q q q q q q q q ",
"5 5 5 5 5 v =.=.=.=.=.&.< + + O . . . . . . . . O O O + + # # # # # O O O . .             . . . O + # $ , 2 1 2 2 2 2 3 3 3 3 3 3 3 3 6 7 7 8 8 8 7 7 8 8 8 8 8 8 8 8 7 8 8 r r r z z z m :.:.>.2.q.w.i.s.d.g.h.%X%X%X%Xk.j.h.k.k.%X%Xk.h.h.g.f.d.a.i.u.u.u.a.s.f.h.%X&X&X*X-X;X*X;X*X;X;X:X;Xp.3.=.=.=.=.=.v q q q q q q q q q q q q q q q q q q q q q q q q q q ",
"5 5 5 5 v =.=.=.=.=.v # + + O O . . . . O O O + # # $ $ # # # # # # + . . . .             . . O + # $ $ 2 1 1 2 2 2 2 2 3 3 6 6 6 6 8 8 8 8 8 8 8 7 8 9 8 8 9 7 7 7 6 6 6 6 7 7 8 r z z m :.:.>.2.q.w.i.s.f.g.h.%X%X%Xk.j.h.h.k.k.k.k.k.h.h.g.f.d.s.a.u.u.u.a.s.f.h.%X&X&X*X;X;X-X-X-X;X;X:X;X-X;X3.=.=.=.=.=.v q q q q q q q q q q q q q q q q q q q q q q q q q ",
"5 5 5 v =.=.=.=.=.v # + + O O O O O + + # # # > , , , , , $ # # + + O . . . .             . O O + # $ $ 2 2 2 2 2 2 1 1 2 2 3 3 8 8 8 8 8 8 8 8 8 8 9 9 9 9 l 9 8 8 8 7 7 7 7 7 7 8 z z m :.:.>.2.q.w.i.a.d.g.k.k.%Xk.k.k.j.g.h.h.h.k.k.%Xk.h.g.d.s.a.u.t.u.i.a.d.g.%X%X&X*X;X;X-X-X;X;X:X;X;X;X;X:X5.=.=.=.=.=.&.q q q q q q q q q q q q q q q q q q q q q q q q ",
"5 5 &.=.=.=.=.=.l + + + + + + O + # $ $ $ , , 2 2 > 2 > $ # # + + O . . .         . . .   . O O O + + # # # # # # # # > , , 2 3 3 3 7 7 8 8 8 8 8 r 9 9 9 z z z z r r r r 8 8 8 8 r z x m :.:.>.2.q.w.y.s.f.g.k.k.%Xk.k.j.j.h.h.h.h.k.k.%X%Xh.g.d.s.i.u.t.t.i.a.s.g.k.%X&X*X;X-X*X*X;X;X;X;X;X;X:X:X:Xy.=.=.=.=.=.&.q q q q q q q q q q q q q q q q q q q q q q q ",
"0 &.=.=.=.=.*.< O + + + + # # # # $ , 1 1 , 2 1 1 , , > # + O . . . . . . .     . . . . . . . O O O O O O O O O O O O O # # , 1 , , 2 , 1 3 8 8 8 r r r r r r r z z z z z z r r z z z b m :.:.>.2.q.w.i.s.f.g.j.k.k.%Xk.j.j.j.h.h.j.j.k.k.k.h.g.d.s.i.t.t.t.i.a.s.g.h.%X&X*X-X-X;X;X;X;X;X;X;X;X:X:X:X:Xp.*.=.=.=.=.&.z q q q q q q q q q q q q q q q q q q q q q ",
"&.=.=.=.=.&.< + # # # # # $ $ , 1 1 1 1 1 , 1 1 $ $ # # + O . . . . . . . . . . .     . . . . . . . . . . . O O O O O . O O + # # # # # $ , 3 7 8 8 8 8 8 r 8 8 8 l z z z r r r r z z b m :.:.2.2.q.w.i.s.g.g.j.%X%Xk.j.j.j.h.h.g.g.h.h.k.h.h.g.f.s.i.t.t.t.i.a.s.g.h.k.&X*X-X;X-X-X-X;X;X;X;X:X:X:X:X:X;Xp.*.=.=.=.=.&.l q q q q q q q q q q q q q q q q q q q q ",
"=.=.=.=.&.> # # > > > > , , 2 2 2 1 2 1 1 1 , # # # # + O O . . . O O O . . . . .   . . . . .   . . . . . . . . . O O O O O O # , $ $ $ , 2 6 8 8 8 8 r r 8 0 8 8 8 r r 8 8 r r z z z x m m :.2.2.q.w.t.s.g.h.%X&X&X%Xk.j.g.g.g.g.g.g.h.h.k.h.g.f.s.i.t.u.u.i.i.s.f.h.%X&X*X;X;X-X-X-X;X;X;X;X:X:X:X:X:X:X*Xh.3.=.=.=.=.&.l q q q q q q q q q q q q q q q q q q q ",
"=.=.=.&., > > > 2 1 > 1 2 2 2 2 2 2 2 2 , , # # + + O O . . O O O O O + + O O . .                   . . . O O O # # , $ # # # $ 5 5 2 2 4 8 r r z z r x x r 0 r r r r r 8 r r r z x x x b b :.:.2.q.w.i.s.g.h.%X&X&Xk.k.j.g.g.g.g.h.h.h.h.k.h.g.f.s.i.t.t.u.i.a.s.f.h.%X&X*X-X-X-X-X;X;X;X;X;X:X:X:X:X;X;X*X&X X3.=.=.=.=.&.l q q q q q q q q q q q q q q q q q q ",
"=.=.&., , 2 1 , 1 2 , 2 2 , 2 2 , 1 , $ # # O O + O + O O O + + # + + O O O . . .               . . O + # $ , , 2 1 1 1 2 2 1 2 r r 5 r e r r p x x p p p p r r e e e e 5 5 p p p p x x x m m :.>.q.w.t.s.g.k.&X&X&Xj.j.j.g.g.g.g.h.h.h.h.k.k.h.f.d.a.u.u.i.i.a.s.f.h.%X&X*X-X;X;X;X;X;X;X;X;X:X:X:X:X:X;X*X&X%X X3.=.=.=.=.&.z q q q q q q q q q q q q q q q q q ",
"=.&.2 2 2 1 2 , 2 2 , , , , 2 , , $ # # # + O O O + + + # # # # # # + O O O . .           . . O + $ 1 1 4 4 4 3 3 6 6 8 r r 0 5 r p e e p y y p p y e 5 e 5 * & & * = = = = t y y p p x x x m <.0.e.r.p.s.f.k.&X&X&X&Xj.j.j.g.g.g.g.g.h.h.k.k.h.g.f.a.u.u.i.i.i.a.f.h.%X&X*X;X;X;X;X;X:X;X:X:X:X:X;X:X;X;X*X&X%X X X3.=.=.=.=.&.q q q q q q q q q q q q q q q q q ",
"&.1 2 2 2 2 2 2 2 2 2 2 , , , , # # # # # # # # # # # $ $ $ # # # O + O . . .     . . . . O # , 2 6 8 8 8 8 0 8 6 8 r r p x p t p t 5 = 5 5 5 t 5 * & & & @ . . . o & & & = = = 5 t y y p p c m m S <.e.|.=X*X&X&X&X&Xk.k.j.g.g.g.g.g.h.h.k.k.k.g.f.s.u.u.a.i.a.s.d.g.%X&X*X;X;X;X;X;X;X:X:X:X:X:X:X;X;X;X*X&X%X X X|.3.=.=.=.=.&.q q q q q q q q q q q q q q q q ",
"2 2 1 2 1 2 , , 1 2 2 2 , , > > # # # # # $ , , , , , $ , $ # # # O O . . .     . . . O $ , 4 0 0 r r r 0 0 0 0 8 r p p p p 5 5 * @ o o % & * = * @ o o o o o . o @ @ o o & & & & * = = = 5 t 5 5 O O < b <.|.7X*X%Xk.k.k.g.g.f.f.f.g.h.h.k.k.j.g.g.s.a.a.a.a.a.s.d.g.k.&X*X*X;X;X-X;X;X;X:X:X:X:X:X;X;X;X*X&X%X X X|.|.3.=.=.=.=.&.q q q q q q q q q q q q q q q ",
"2 2 , 2 2 2 2 2 2 2 , , > $ $ # > , , , , , , , > , 1 $ $ # # + + O . . . . .   o % * 5 w t p a x x x r r r r q r p p p 5 = & @ o o o . o & & & o o . . . . o o % o o o o o o % % % & & & * = = 5 * @ + + # l 2.5X=X%Xj.h.g.g.f.g.f.g.g.h.k.k.k.j.g.d.a.a.a.a.a.s.s.g.k.&X*X;X;X;X;X;X;X;X:X:X:X:X:X;X;X;X*X&X%X X X|.|.`.-.=.=.=.=.v q q q q q q q q q q q q q q ",
"2 2 , 1 2 2 2 2 2 , # $ > , > > > 2 , , 2 2 2 2 , 2 , $ # # # O O O . . . o @ & t u i h h n M n n c x x z z z z r p 5 * & & o o o o o o o % o X o o X X o X o % & o o o o o o X o o o & * & = = = * & & * & # < :.|.=X*Xk.g.g.f.f.f.g.g.g.h.k.%Xk.g.d.s.a.a.a.a.a.s.g.k.%X*X;X;X;X;X;X;X:X:X;X;X;X;X;X;X*X&X%X%X X X|.|.{.`.-.=.=.=.=.v q q q q q q q q q q q q q ",
"2 1 1 1 1 1 1 , 1 > > > , , , , 2 2 1 2 2 2 1 2 , , , # # # # + O O o o @ = t i j N N Z Z Z Z V B B n x x z z r r 1 @ @ o o o o o o o o o o o X o o o X X X o % & o o o o o X X X o o o & & * = 5 5 * * & @ * 1 , x :.e.=Xh.f.d.d.d.f.f.g.h.k.%Xk.g.f.s.a.i.a.a.a.s.g.h.&X*X;X;X;X;X;X;X;X;X;X;X;X;X;X;X*X&X%X%X X X|.|.{.'._.*.=.=.=.=.l q q q q q q q q q q q q ",
"1 1 2 1 1 1 , 1 1 , 2 , , 2 , 2 2 1 1 1 2 , 1 , # > $ # # # O O O O @ * t i h N C A Q Q A A A Z Z B M c x p p e 4 @ o o o X o o o o o o o o o X o o X   o & o o o o o o o o X     o o o o & & & = 5 = = & % @ & 5 5 8 l 2.=Xg.a.s.f.f.g.g.j.k.%Xk.g.f.s.a.a.a.a.a.s.f.h.&X*X;X;X;X;X;X;X;X:X;X;X;X;X;X;X*X*X&X%X%X X|.|.{.{.'.0.=.=.=.=.*.l q q q q q q q q q q q ",
"1 2 1 1 1 1 , 2 2 2 1 1 1 , 2 2 2 2 1 , 2 , , , $ $ # + + O O @ @ * ; i j N C E Q Q / / / ~ ~ A A Z B c p t 5 * o . o o X X X X X X o o o o X X X X     o @ o o o o o X o o o       X X o o % % @ & t a t % & & = y y 0 < <.r. Xf.s.d.f.g.h.k.%Xk.g.f.s.a.a.a.a.a.s.f.k.&X*X;X;X;X;X;X;X;X;X:X:X:X;X;X*X=X=X&X%X%X X X|.|.{.'.C.<.=.=.=.=.&.q q q q q q q q q q q ",
"1 1 1 , , , , 1 2 2 2 1 1 2 2 2 , , 1 1 , , , , $ $ # + @ @ @ * w u h j C A Q Q / _ [ [ / / / ~ A Z N h p w * o o   o o X   X o X o o o o o X X           X X X o o o o o o o     X X X X o o o o % t y y * @ & & = w y p 6 x 2.|. Xf.d.g.h.k.%Xk.h.f.s.a.a.a.a.a.a.d.h.%X*X;X;X;X;X;X;X;X;X:X:X:X;X;X*X*X*X&X%X X X X|.|.`.`.C.x.;.=.=.=.=.&.q q q q q q q q q q ",
"1 1 , 1 1 1 1 , , 1 1 1 1 1 2 2 , , 1 , , , $ , $ # @ @ & = w i h N C A Q / / _ [ | | | } } / ~ ^ ^ N a t = @ X         X o o o X o o X X X X           X X X X o . o o o o o     X X o o o X X o o & = t = @ @ @ & = w y a p 8 z 2. Xg.d.g.k.%Xk.g.f.s.a.a.a.a.a.s.d.h.%X*X-X-X;X;X;X;X;X;X;X;X;X;X-X*X%X%X X Xh.g. X|.|.`.`.C.x.l.;.=.=.=.=.v q q q q q q q q q ",
", , , 1 1 2 2 , , , 1 1 1 2 2 , , , , > , $ $ $ $ & * 5 u i j N C E Q Q _ [ [ |  . . . . .| } c.] h - t ; % X           o & o o X X X X X X X X   X o X X X   o o o o o o o X     X X o o o   X o o o & = = & @ & o & 5 y a s c 0 < <.|.p.f.k.%X%Xh.g.s.s.a.a.a.a.s.d.h.%X*X-X-X-X;X;X;X;X;X;X:X;X;X;X*X%X Xh.h.g.g.p.|.`.`.`.C.x.l.K -.=.=.=.=.l q q q q q q q q ",
"> , , 1 , 2 2 2 1 1 2 2 , , , , , 1 , $ $ $ $ * 5 y i h N C A Q Q / / [ [ | |  . . .#.#. . .M.^ : o = = % o o o o o o t y * o o X X X X X o X o     o X o o o o X X X o o o o   X o o o o o o X o o o o * = = = & & & & 5 y a s a 0 < <.5X X%X%X%Xk.g.d.d.s.a.a.a.s.d.g.%X*X-X;X;X;X;X;X;X;X;X;X;X;X*X&X%Xh.g.g.g.p.p.p.`.`.`.C.N.l.( J =.=.=.=.&.q q q q q q q q ",
"$ $ , , , , , 2 , , , , , , , , 1 $ $ * = t u h j N C C A Q Q Q / [ [ [ |  . . . .F.F.F.F.G./ - & y t = o o o o & = t B i % o X X X X X o o o           . o o o o X X o o o o o X X X o o o X X o o o o & = t t t & & & & 5 y u y y 0 7 0.=X X%X%X%Xh.f.d.s.a.a.s.s.d.g.%X&X*X;X;X;X;X;X;X;X;X;X;X;X*X&X Xg.g.f.p.p.p.r.r._._.N.N.7.( ^ <.=.=.=.=.v q q q q q q q ",
"# $ $ , > , , , , , $ 1 , , , * 5 t u i h N C C A A Q Q Q / / _ [ [ | |  .v.+.#.F.F.F.F.H.} - * y ; ; & & * = ; t t y u o o o X X o X o o o X           o o o o o o o o o o o o X X X o o o o o o o o o % = t y y t = * & * t u y t p < m |. Xk.&X%Xh.g.d.s.a.a.s.s.f.g.%X&X*X;X;X;X;X;X;X;X;X;X;X;X*X&X Xf.p.p.s.p.r.r.r._._.N.N.1.K K ( -.=.=.=.=.v q q q q q q ",
"O # # # $ $ , $ $ $ & * = t u h M N Z A A Q Q Q Q / / / _ [ [ } | |  . .S.F.F.F.F.F.F.Y.G.g * t = * & % = w a M y y t & o o o X o o o o o o X           o & & & o o o o o o o o o . . o o o o o @ o o o o & = t y y t = = = t y y y p p l _.=X X&X&Xk.g.f.f.s.s.s.s.f.g.%X&X-X;X;X;X;X;X;X:X:X;X;X;X*X&X Xf.p.s.i.i.i.r.r.r._.N.N.1.K K G K 3.=.=.=.*.l q q q q q ",
"+ $ $ $ $ @ @ & = t u i j N C A A ~ ~ Q Q Q / / / _ [ [ [ } |  . . .v.S.F.F.F.F.F.F.H.U.j % t * & * * = & a V M a y 5 & & & o o X o & & o o o     X o o o & * = & & % o o o o & & o o o o o & & % @ . o o o * t y y t = = = = t y y a p 3 S 5X=X&X&X%Xh.f.f.s.s.s.d.f.g.k.&X-X-X;X;X;X;X:X:X:X;X;X;X*X&Xh.p.s.a.i.i.i.r.r._._.N.9.1.1.J D XX2X=.=.=.=.&.q q q q q ",
". . o @ & t u h N Z A ~ ~ ~ Q ~ / / / / / / _ [ [ [ | | | |  . .S.S.S.F.F.F.F.F.F.H.U.j % t & o & t y t s G V B s y 5 = = & o X o o * @ o o o o X . o o o * = w w = @ o o o o & & o o o o o o & % @ . o O o & t t t t = * & & t t w y s 5 > <.5X7X&X&X%Xg.f.d.s.s.s.f.f.h.&X-X-X;X-X;X;X;X;X;X;X;X;X*X%Xf.s.a.i.i.i.i.r.r._._._.N.l.1.D x.UXUXe.=.=.=.=.v q q q q ",
"* t i N Z A A ~ ~ ~ / Q / / / / / [ [ [ [ [ [ | |  . . . . .+.S.F.F.F.F.F.F.F.F.H.Y.j o ; * o o s h s s B V B M s y = = = & o o o = y o o o o o o o . o o * ; t u w % o o . . o o o o o o o & = % o . o . o o * t y t ; = & @ = t t t a s , > <.5X=X&X%Xg.f.d.s.a.s.d.f.h.%X-X-X-X;X;X;X;X;X:X:X;X-X&Xk.d.s.a.i.i.i.i.r.r.`._._.N.l.J J vXUXUXUX3.=.=.=.*.q q q q ",
"( ( ) / / / / / / / _ / / [ [ [ [ | | |  . . . . .S.S.S.F.F.F.F.F.H.H.G.F.F.F.F.Y.C o t = & . s B M M n M B V M a y = w w % O o o y s o o & & & o o . o % = y u s i o o o o o o o o o o o @ * = @ . . . o o o & t y t & = = & * t t t t s t , z |.7X&Xk.j.g.f.s.s.d.d.d.g.%X*X-X-X;X;X;X:X:X:X;X;X*X%Xg.d.s.i.i.i.i.i.r.r.r._._.N.l.J A.UXUXUXUX2X=.=.=.=.v q q q ",
") / / / / / / _ [ [ [ [ } | | |  . .v.v.v.S.S.S.S.F.F.F.F.F.F.F.H.H.H.H.F.F.F.U.) - : : - % y V B M s s a M V M s 5 = u ; o o o o = t o & t y = o o o o % = y h s M ; & @ o o % o % o o o & = * o . . o o @ @ @ * y c = @ y 5 & = t y w = * @ 6 N.8X;X&Xj.h.f.d.s.s.a.d.g.k.&X-X;X-X;X;X;X;X;X;X;X*X%Xg.s.s.i.i.i.i.p.p.r.r._._.N.1.N.UXUXUXUXUXUXe.=.=.=.=.l q q ",
"_ _ _ _ [ [ [ [ | | | | |  .v.v.v.S.S.S.S.S.S.F.F.F.F.F.F.F.F.H.H.H.H.H.H.G.G.b.: - u : - u M B M n s s s G S G s @ a s & o o o o & * * = t 5 @ . o o @ . & y V c s y & & @ & = = * o o @ * ; * o . o o % & & @ & 5 s M o t y & = = t t = & * $ x e.7X*X%Xh.f.d.s.s.s.d.f.k.&X-X;X-X-X;X;X;X;X;X;X*Xk.g.p.p.s.i.i.i.p.p.p.|._._.0.9.HXUXUXUXUXUXUXPX-.=.=.=.&.q q ",
"} } } } | | |  . . . .v.v.v.S.S.S.S.S.S.S.S.S.F.F.F.F.F.F.F.F.F.F.F.F.F. . .v.j - i y t u j j s c c s a G 1.1.S . 5 y & o o . o o & = = = = * % o @ % o o & s G V p t 5 & * 5 t w = % @ & ; y = @ o o & @ @ * @ @ * 5 V s t M = t t t = = = = 4 0 m `.=Xh.h.g.f.s.s.s.s.d.g.&X*X;X;X;X;X;X;X;X;X;X*Xh.f.d.p.p.p.p.i.p.p.|.|.`.e.1.vXUXUXUXUXUXUXUXUX.X=.=.=.=.v q ",
"| | | |  . .v.v.v.S.S.S.S.S.S.S.S.S.S.S.S.S.F.F.F.F.F.F.F.F.F.F.F.F.F.+.| v.~ - u u u i j j M M n B M G l.G B $ 5 a & o o o @ * % & y ; = = % & & & = & o o B l.G c t t * t y t = & & * = t y * @ % & * & o % & % * @ 5 M y M t t y = = t t 5 5 5 r <.7X%Xg.g.d.s.a.a.a.s.g.%X*X-X;X;X;X;X;X;X;X-X&Xk.f.d.p.s.s.p.p.p.p.|.|._.0.#XUXUXUXUXUXUXUXUXUXUX3.=.=.=.&.q ",
"| | |  . .v.S.S.S.S.S.S.S.S.S.S.S.S.S.S.S.S.F.F.F.F.F.F.F.F.F.F.F.F.#. . .} u % t y u h M M M M n h G K M c c s p 5 & o o % = = & s s = = = % * = = = w = & V l.V c * c a y t = & % * 5 t y y & 5 5 t = & o o & & & * @ * & V M t t = = y y t 5 1 $ 3 <.=X&Xf.d.s.a.a.a.s.f.j.&X-X;X;X:X;X;X;X;X-X&Xh.f.d.d.d.s.s.s.p.p.|.|.e.@XUXUXUXUXUXUXUXUXUXUXUXcX=.=.=.=.v ",
" . . . . . .S.S.S.S.S.v.S.v. .S.+.+.S.S.S.S.S.F.F.F.F.F.F.#.#.#.#.#.+.{ | C - = t y y i M N M M h Z G a a M M s t & & & & & & & = V y o = = & & * * u u o y K l.V e t M a y y t & & 5 5 y s s e t t t = & o o & * = = * * & M V y t = t y y t * % 5 4 > <.|.p.a.a.a.i.a.a.d.h.&X*X;X;X;X;X;X;X;X-X&Xh.f.d.d.d.d.s.s.d. X|.e.>XUXUXUXUXUXUXUXUXUXUXUXUXUX6.=.=.=.*.",
"| | | |  . . . . . . . . . . . . . . .+.+.S.+.S.S.S.#.+.+.+.+.+. . . . .] g & = t u t h V M M s Z G s u c M c a y = & & & & ; t u G & & = w = = * = y s t M l.G J *   s s p a a = w t = y c M t y y t = & o o o * = = & & = t s s u ; = y a w @ @ * 5 , x 0.p.a.a.a.a.a.a.f.h.%X*X-X;X:X:X;X;X;X-X&Xh.g.f.d.f.d.s.d.f. Xr.,XIXUXUXUXUXUXUXUXUXUXUXUXUXUXHX=.=.=.=.",
"| | | | | | | | | | | | |  . .|  . . . . . . . . .+. . . . . . .{ { [ / C - % * t u u Z Z N M V G s i s M M s a y ; = = * & t a V M o = = t w = * = t y t M l.V V G y y n s s t y M t = y s s y s y y t = o o o = = = = & ; t s s a M = t a 5 @ o & * 4 x 0.|.p.a.a.i.i.a.f.h.%X*X-X;X;X;X;X;X;X*X%Xh.g.g.g.f.f.d.d.h. X,XJXIXIXUXUXUXUXUXUXUXUXUXUXUXUXUXe.=.=.=.",
"[ [ } | { { { { { { | { { | { { { { { { { { { { { { { { { { { { [ [ Q Q g - * * y u M G Z N V J M s j M M s s s y t & t t = y s M & = t & = y w - - : s a s K J & y M M G V y & V B = * a s s B M t y y t % o % = t t 5 * = u i y t G B y a t & @ % & 5 > S `.p.a.a.u.u.i.d.g.k.&X*X-X;X;X;X;X;X*X%X%Xh.g.g.g.g.f.f. X=X9XNXJXUXUXUXUXUXUXUXUXUXUXUXUXUXUXJX*.=.=.",
"_ _ [ [ [ { { { { { { { { { [ [ [ [ [ [ [ [ [ [ [ [ [ [ ! ! [ [ ! ! Q Q g & & = y u Z G N N N N h h j M j h V s y = s K V V B s a   s u % & s u : : - a B B J l.B = = * s x.V M K t p @ s V s V c 5 a u y = = = t y y 5 = = s M a = a B s s y * & % & 5 4 1 <.|.i.i.u.u.u.s.f.k.&X*X-X;X;X;X;X;X*X&X%Xh.h.g.g.g.g.h. X=X9XNXJXIXUXUXUXUXUXUXUXUXUXUXUXUXUXUX_.=.=.",
"/ / / / _ [ [ ! ! ! _ _ _ _ ! ! ! ! ! ! ! ! ! ! ! Q ! ! Q Q Q Q Q Q Q k : * & - : h G Z N M M j h j h j h Z V a t M K G V V N M y o V s o = u i u u = u B V G K K M a t o B n.x.V % B o s J s S s s M i t t t t y i a = & t s B Z y y y i s i t & & = = 5 + x `.i.i.u.u.i.s.f.h.%X*X-X;X;X;X;X;X*X&X%Xk. Xh.h.h.g.h.&X=X9XNXJXIXUXUXUXUXUXUXUXUXUXUXUXUXUXUXPX*.=.",
"Q Q Q Q Q ! Q Q Q Q Q Q Q Q Q Q Q Q Q Q Q Q Q Q Q E E E E E E E A A j u : * * - : V G G N M M j h h j j N K M a s J G Z V M M B y t V s = t u i u i w y G V M n V G V M @ o V x.V = G @ c l.a S c c G y t w t y s M s w % & B M G B w a y u i t & = ; t 5 1 8 0.r.y.i.u.i.a.f.h.%X*X-X;X;X;X;X-X*X%X%X%X%X%X%X X X X&X7X9XNXJXIXUXUXUXUXUXUXUXUXUXUXUXUXUXUXUX_.=.",
"E E E E E E E E E E E E E E E E E E E k k E E k k k k k k k k k j g g i : - - : i Z G Z h h j M h j N N G J h s B G Z Z N N V V i s n h h s i h h h s u V K V M n M n Z B * 5 M s s l.a a l.B B M G V 5 y w y y M V a c * @ s G s l.s y s u s s & = t s * 1 4 S e.r.y.y.i.a.d.g.%X&X*X;X;X;X;X-X&X&X%X%X%X%X%X X X X&X7XNXNXJXIXUXUXUXUXUXUXUXUXUXUXUXUXUXUXUXHX=.",
"k E k k E E k k k k k k k k k k k k k k k k j g g g g g g g g g g g g i : - : : j G G h h j N N h N C Z A G j i G K Z H H A H N h y n D Z Z N N n N M s G l.G a s s u * h s y s . a B.G s J 9.c B x.B t a y y a V J s M 5 & w 7.s K x.M h u s Z * * y a * * 5 x 1.e.y.y.u.i.d.g.k.&X*X;X;X;X-X-X*X&X%X%X%X%X%X Xh. X X=XNXNXJXIXUXUXUXUXUXUXUXUXUXUXUXUXUXUXUXUX6.",
"k k k k k k k k j j j j j g g g g g g g g g g g g g g g g g j j g g g i : t u : N H N i h N N h N Z C A A H N j ] ( ) c.^ ~ H Z n h ( z.z.z.( ^ V V D M l.x.x.M t y i u y u u t o 5 x.x.K G x.S M x.B p c M a a G x.M M p 5 5 J V V ( K N h u ( B * y u y w 5 x 9.e.y.y.u.i.s.g.k.%X*X*X-X-X-X*X*X%X%X%X%X%X%X Xh. X&X5X9XNXJXIXUXUXUXUXUXUXUXUXUXUXUXUXUXUXUXUXvX",
"j g g g g g g g u u u g g g u u u u u g g g g g g g g j j j j j g g g i u u i h A A h h j Z Z h A A ~ ) H ^ H A M.n.U.G.M.b.] A N Z Z.!.R.Z.n.n.) Z ( Z l.K l.l.B * t s s h i t & @ l.B.l.J 1.l.B l.V a B G V a J B.V c n 5 y V K G J K Z M i K ( y y y y y w x <.r.y.y.u.i.a.f.j.%X&X*X-X-X-X*X&X%X%X%X%X%Xk.g.g. X&X5X9XNXJXIXUXUXUXUXUXUXUXUXUXUXUXUXUXUXUXUXUX",
"g g u u : : : : : : : : : u u u : u u u u g g u i i u u u : : u u u i h g g h j ^ A i h N H Z C ) / b.b.^ l.z.H m.qX^.^.uXU.M.n.H z.ZXAXVXqXR.Z.m.( z.H K K J J K V u h i N s t y @ G x.J K 1.l.J G D M s V l.V 7.B.K s n & a G 7.K K 7.l.V V Z l.M y y y y p z S e.r.y.i.i.a.f.h.%X&X*X-X-X-X*X&X%X%X%X%X%X%Xg.g. X*X5X9XNXJXIXUXUXUXUXUXUXUXUXUXUXUXUXUXUXUXUXUX",
"- - = & % % o o o o o o o o % o o o o o o o o o o o o o o o & = ; y h h h C N j ( Z h h Z H C ) c.v.G.M.z.z.n.H Z.gX^.^.uX!.qXqXn.B.UXUXUXUXdXqXT.n.n.) ( K K G G n.( Z h B K a t % M l.c S N.N.1.S S J M s l.K J B.N.c M s w K 1.l.l.l.n.J V M K V s a p y p x 1.e.e.i.u.i.s.f.h.%X&X*X-X-X*X&X&X%X%X%X%X%X Xg.g. X&X5X9XNXJXIXUXUXUXUXUXUXUXUXUXUXUXUXUXUXUXUXUX",
"                  .               .   .   . . . . . O O O @ & * = y h h Z ^ C C A N h N Z H ~ b.} G.Y.M.c.z.R.( Z.VXuXiXpXtXZXdXV.Z.UXUXUXUXUXMXqXR.M.n.z.H l.K Z ( n.( G B l.K a % s G 4 5 1.].x.S S 1.x.p J x.J x.A.J V K c l.x.l.l.x.B.l.l.c J K s s a p p x <._.y.y.u.a.s.f.g.%X&X*X-X-X*X&X%X%X%X%X%X%X Xg.g. X&X:X9XNXJXIXUXUXUXUXUXUXUXUXUXUXUXUXUXUXUXUXUX",
"                . . . . . . . . . . . O . . O @ @ @ O # @ @ & = = u M M ( H C C H A j g Z H ^ c.} Y.^.G.b.c.R.n.z.AXgXgXgXgXLXAXR.Z.UXUXUXUXUXUXKXMX!.R.Z.z.l.l.G z.z.z.n.( J B.G w a B p p c A.A.K F 1.].V M A.N.x.N.x.c 1.G x.A.x.x.x.A.n.A.G G l.s a a a a c x <.`.i.i.i.a.d.g.%X%X*X*X-X*X&X%X%X%X%X%X%Xh.g.g. X&X7X9XNXJXIXUXUXUXUXUXUXUXUXUXUXUXUXUXUXUXUXUX",
"        . . . . . o . . O + + + @ # # # # # $ # # $ , , $ & 5 w : j j N ( Z N N H A A g j H ^ } } ~.^.U.M.U.m.Z.^ dXCXjXlXAXKXLXaXn.PXUXUXUXUXUXUXUXAXgXqXR.z.x.G n.Z.c.z.B.J B.+XD y M N n c 7.XXB.1.1.A.K s x.].x.K B.V 1.7.x.A.B.B.N.A.A.A.7.D K B a s B a a x S <.r.y.u.i.d.g.%X&X&X*X*X&X%X%X%X%X%X%X%Xh.f.g. X&X5X9XNXNXIXUXUXUXUXUXUXUXUXUXUXUXUXUXUXUXUXUX",
".   . . . O + O + + + # # $ $ $ , , , , , , , , 1 , , 2 1 5 t y y j N Z Z N j j A ~ / k u A / } | Y.^.Y.b.E.!.I.( n.KXlXzXFXUXFXZXn.dXUXUXUXUXUXUXUXUXLXFXZXR.Z.z.( qXaXR.Z.B.l.wX0XG h Z Z D V l.x.1.x.B.( Z J A.B.G l.J l.B.N.A.A.A.B.B.A.0Xl.G K K s y V a a p S :.2.y.y.i.d.g. X%X&X*X&X&X%X%X%X%X%X%X Xg.d.f. X&X5X8XNXBXIXUXUXUXUXUXUXUXUXUXUXUXUXUXUXUXUXUX",
". O O + # # # # $ $ $ , , 1 1 2 1 2 2 2 2 2 2 1 2 3 1 3 4 e y t u j Z C N N N j / [ | / g C / } [ H.).^.v.G.uXuXb.C tXKXlXFXUXZXUXR.0XUXUXUXUXUXUXUXUXUXUXUXKXR.R.n.c.MXUX0X0XB.B.mX0X~ Z H ( x.G K V x.n.J ( l.n.A.l.K J x.A.x.x.B.0XA.B.n.R.n.l.7.7.B w V M s c x S 0.e.y.i.s.g. X%X&X&X&X%X%Xk.k.k.%X%Xh.f.f.g. X&X7X8XNXNXIXUXUXUXUXUXUXUXUXUXUXUXUXUXUXUXUXUX",
"+ + # $ , , , 1 1 1 2 2 2 3 3 3 3 3 3 3 3 3 3 2 6 6 6 8 0 t t u i j N j j k C / [ | F.S.k k Q }  .v.Y.).Y.v.Y.iXtX^ ) VXFXLXUXmXKXZXR.PXUXUXUXUXUXUXUXUXUXUXUXZXqXqXz.8.dXZXR.dXl.A.dXR.c.^ x.A.l.G h D B.H ] x.n.B.n.l.G l.0Xl.l.l.0XR.Z.( n.n.Z.z.( Z w V Z s c S S 2.y.y.i.s.f.h.%X%X%X%X%Xk.k.k.k.%X%Xh.g.g.h. X&X5X8XNXNXIXUXUXUXUXUXUXUXUXUXUXUXUXUXUXUXUXUX",
"$ $ 1 2 2 1 2 1 2 3 3 3 3 3 3 6 6 6 6 6 6 6 6 6 6 8 8 0 0 t y i h j N j g C / v.} F.H.F.[ k E / v.F.F.~.pXG.G.uXpXE.c.m.dXLXUXZXZXUXZXdXUXUXUXUXUXUXUXUXUXUXUXUXZXdXqXb.I.dXn.qXA.V XXdXqXz.n.0XA.B.V s ( ( n.n.M.n.z.x.( K 0X( K K A.0XZ.K z.R.T.n.x.J s M G s c B N.e.w.i.i.s.f.g.k.%X%Xk.k.k.k.k.%X%X%Xh.g.g.h. X X5X8XNXJXIXUXUXUXUXUXUXUXUXUXUXUXUXUXUXUXUXUX",
"2 2 2 2 1 3 3 3 2 3 3 6 3 6 6 6 6 6 6 6 6 7 8 6 8 8 8 0 0 t y i h N N N A } v.F.H.H.H.G.F.H.G.H.Y./.).^.hXpXG.^.iXuXkXaXE.uXKXZXZXUXUXKXZXUXUXUXUXUXUXUXUXUXUXUXUXZXVXqXI.tXT.Z.qXV K MXAXR.Z.A.A.ZXR.Z G K n.R.Z.M.x.z.z.( Z.( ( ( n.R.A.H ( !.R.M.z.K V s B n c x 1.r.y.y.u.a.f.g.h.k.%X X Xh.h.k.k.%X%Xg.g.h.h. X X=X8XNXJXUXUXUXUXUXUXUXUXUXUXUXUXUXUXUXUXUXUX",
"1 2 2 2 3 3 3 3 2 3 3 6 7 6 6 4 6 6 6 6 3 6 8 8 8 8 8 0 p y u h j N V Z ] v.U.~.~.~.~.~./.iXkXhXxXhXkXzXkXxXpXiXzXSXUXUXUXAXKXZXZXUXUXUXZXZXUXUXUXUXUXUXUXUXUXUXUXUXZXZXZXqXZ.n.0X( N qXUXdXA.n.eXdXdXE.^ Z b.E.I.M.z.z.n.( z.^ z.H K B.Z.] ( !.!.!.z.( H N s n c x <._.y.i.t.a.f.g.k.k.%X X Xh.h.k.k.k.h.g.g.g.g.h.&X=X8XNXJXUXUXUXUXUXUXUXUXUXUXUXUXUXUXUXUXUXUX",
"2 2 2 2 2 3 3 2 2 6 6 6 8 6 6 6 6 8 6 6 6 3 6 8 8 8 0 0 p p s j N V Z H c.G.~.~.~./.).).).iXxXkXxXGXSXDXDXDXGXFXFXUXUXUXUXUXUXUXUXUXUXUXUXPXPXUXUXUXUXUXUXUXUXUXUXUXUXZXdXZXkXn.n.R.N Z.LXAXZ.7.dXdXuXuXU.C b.E.U.I.c.c.M.] ^ H ^ H ^ z.z.M.~ !.uXzXM.] H D M s c x B _.r.i.i.a.f.g.j.k.h.h.h.h.h.k.k.k.g.g.g.h.h. X&X=X8XNXJXUXUXUXUXUXUXUXUXUXUXUXUXUXUXUXUXUXUX",
"2 2 2 3 3 3 3 2 2 7 8 6 6 6 4 6 6 6 6 6 6 6 6 8 8 8 r r p a h M V V Z ( v.U.~././.).).hXhXhXxXDXGXLXUXUXUXUXUXUXUXUXUXUXUXUXUXUXUXUXUXUXUXUXUXUXUXUXUXUXUXUXUXUXUXUXUXUXKXdXU.b.( MX^ z.UXUXn.( MXqXZXgXtX) b.!.!.U.} c.b.c.( H H ~ ( ] ] !.) U.gXSXuXn.( D Z s n c x 1.r.i.i.s.f.g.j.j.g.g.h.h.h.j.h.h.g.g.g.h.h. X&X=X8XNXJXUXUXUXUXUXUXUXUXUXUXUXUXUXUXUXUXUXUX",
"1 3 3 3 3 3 3 3 3 6 6 6 6 3 2 3 3 6 6 6 8 8 8 8 8 r r r p a s M Z N Z z.M.Y./.).).).hXhXzXxXDXGXLXUXUXUXUXUXUXUXUXUXUXUXUXUXUXUXUXUXUXUXUXUXUXUXUXUXUXUXUXUXUXUXUXUXUXUXUXUXFXm.( UXn.^ AXUXc.( VXeXUXUXVXI.m.U.^.E.} c.c.] ) A A ~ ) ~ ] tXZ.} U.uXkXZ.n.K V h n c x <._.p.i.a.f.g.h.g.g.g.g.g.h.h.h.h.g.g.g.h. X X&X7X9XNXIXUXUXUXUXUXUXUXUXUXUXUXUXUXUXUXUXUXUX",
"1 3 3 3 3 3 3 6 3 6 3 6 6 3 3 3 3 3 6 6 7 8 8 8 9 9 r r c s h N V h C b.G.^.).).iXhXhXkXxXSXGXLXUXUXUXUXUXUXUXUXUXUXUXUXUXUXUXUXUXUXUXUXUXUXUXUXUXUXUXUXUXUXUXUXUXUXUXUXUXUXKXc.V.UXZ.z.uXVX^ z.VXZXUXUXUXUXVXtXuXE.v.G.} / ^ ~ C b.tX] ~ !.Y.U.b.M.kXR.B.z.G M M n c <.`.p.i.a.f.g.g.g.g.g.g.h.h.h.h.g.g.g.g.g. X%X X7XNXJXIXUXUXUXUXUXUXUXUXUXUXUXUXUXUXUXUXUXUX",
"1 2 3 3 3 2 3 6 3 3 3 3 3 3 3 3 3 3 6 6 7 8 8 8 8 8 9 p c n n N N g A b.U.^.).iXiXhXhXzXxXDXGXLXUXUXUXUXUXUXUXUXUXUXUXUXUXUXUXUXUXUXUXUXUXUXUXUXUXUXUXUXUXUXUXUXUXUXUXUXUXUXaXm.VXUX!.m.^.U.A m.KXPXUXUXUXUXUXCXgXU.E.G.| / ~ ) ~ E.SXuX( R.SX^.Y.b.qX!.Z.n.J Z B B B <._.p.i.s.f.g.g.g.f.g.g.g.g.h.h.h.h.g.g.g.h.%X&X7XNXJXIXUXUXUXUXUXUXUXUXUXUXUXUXUXUXUXUXUXUX",
"2 1 1 1 2 2 2 2 1 1 1 1 2 3 3 3 3 3 6 7 7 8 8 8 8 8 8 r a n M N j j ~ c.U.^.iXiXhXhXkXxXxXGXLXLXUXUXUXUXUXUXUXUXUXUXUXUXUXUXUXUXUXUXUXUXUXUXUXUXUXUXUXUXUXUXUXUXUXUXUXUXUXZXoXZXUXUXVXU.m.c.C I.UXPXUXUXUXUXUXFXgXtX^.c._ / ^ } v.dXkXFXqXz.KXLXCXqXM.R.R.B.l.G V V S <.r.p.p.s.f.g.f.f.f.d.f.g.g.g.g.h.g.g.h.h.h.%X*X7XNXJXJXIXUXUXUXUXUXUXUXUXUXUXUXUXUXUXUXUXUX",
"> , , 1 2 1 1 , 2 2 2 2 2 3 3 3 3 7 8 8 8 8 8 8 8 8 8 0 a n M N N N A ] U.).iXhXhXhXkXxXDXGXLXUXUXUXUXUXUXUXUXUXUXUXUXUXUXUXUXUXUXUXUXUXUXUXUXUXUXUXUXUXUXUXUXUXUXUXUXUXZXaXZXUXUXUXUXVXI.) ) mXUXUXUXUXUXUXUXUXKXdXE.U.E.!.aXtX!.kXkXLXUXT.b.ZXFXLXdXZ.!.n.l.J V D F 0.r.i.s.s.f.f.f.f.f.f.f.g.g.f.g.g.g.g.h.h. X%X=X7XbXJXJXIXUXUXUXUXUXUXUXUXUXUXUXUXUXUXUXUXUX",
", 2 1 2 2 1 1 , 2 2 2 2 1 3 6 6 7 7 8 8 8 8 8 8 8 8 8 0 p s h h N N C v.Y.^.pXhXhXhXxXxXDXGXLXUXUXUXUXUXUXUXUXUXUXUXUXUXUXUXUXUXUXUXUXUXUXUXUXUXUXUXUXUXUXUXUXUXUXUXUXUXKXUXUXUXUXUXUXUXZXqXMXUXUXUXUXUXUXUXUXUXUXUXUXKXUXUXUXUXUXKXxXKXUXUXqXMXCXFXLXdXR.n.l.l.G F 1._.r.p.s.d.d.d.s.s.s.d.d.d.d.d.f.g.h. X X X X%X=X7X8XNXJXIXUXUXUXUXUXUXUXUXUXUXUXUXUXUXUXUXUX",
", 2 2 2 2 1 , , 2 1 2 1 2 6 7 7 7 7 8 8 8 8 8 8 8 8 8 8 p a h j j h C v.U.).hXhXhXkXxXxXDXGXLXUXUXUXUXUXUXUXUXUXUXUXUXUXUXUXUXUXUXUXUXUXUXUXUXUXUXUXUXUXUXUXUXUXUXUXUXUXUXUXUXUXUXUXUXUXUXUXUXUXUXUXUXUXUXUXUXUXUXUXUXUXUXUXUXUXUXUXUXUXUXUXUXUXUXGXLXZXR.B.l.K K F <.`.|.p.s.s.d.s.s.s.s.s.s.d.d.d.f.g. X%X%X%X%X%X=X7X8XbXNXJXUXUXUXUXUXUXUXUXUXUXUXUXUXUXUXUXIX",
"2 2 2 1 1 2 , , 1 3 3 3 3 6 7 7 7 7 6 6 6 6 6 6 6 8 8 0 p s M j j h A b.Y.).iXhXhXxXxXDXDXGXLXUXUXUXUXUXUXUXUXUXUXUXUXUXUXUXUXUXUXUXUXUXUXUXUXUXUXUXUXUXUXUXUXUXUXUXUXUXUXUXUXUXUXUXUXUXUXUXUXUXUXUXUXUXUXUXUXUXUXUXUXUXUXUXUXUXUXUXUXUXUXUXUXUXUXUXLXMXA.B.x.7.1.1.<.e.r.y.i.s.s.s.s.a.s.s.s.s.s.s.f.g.h.%X%X%X%X%X*X8XNXNXJXIXUXUXUXUXUXUXUXUXUXUXUXUXUXUXUXIXIX",
"2 2 2 2 2 2 2 2 1 3 3 3 3 3 6 8 6 6 3 6 3 3 2 2 3 8 8 4 5 M M N j j C c.!./.iXhXkXxXxXDXDXLXLXUXUXUXUXUXUXUXUXUXUXUXUXUXUXUXUXUXUXUXUXUXUXUXUXUXUXUXUXUXUXUXUXUXUXUXUXUXUXUXUXUXUXUXUXUXUXUXUXUXUXUXUXUXUXUXUXUXUXUXUXUXUXUXUXUXUXUXUXUXUXUXUXUXUXUXLXdXZ.n.x.x.7.1.1.2.5.w.i.s.a.a.a.a.a.a.a.s.s.s.f.g.k.%X%X%X&X*X*X8XNXNXJXIXUXUXUXUXUXUXUXUXUXUXUXUXUXUXUXUXIX",
", , , , 2 2 2 2 2 3 3 3 3 3 3 3 3 3 3 3 3 1 1 2 2 2 3 2 t n M N j g C b.Y.^.).hXzXxXxXSXGXLXUXUXUXUXUXUXUXUXUXUXUXUXUXUXUXUXUXUXUXUXUXUXUXUXUXUXUXUXUXUXUXUXUXUXUXUXUXUXUXUXUXUXUXUXUXUXUXUXUXUXUXUXUXUXUXUXUXUXUXUXUXUXUXUXUXUXUXUXUXUXUXUXUXUXUXUXUXdXB.n.x.x.1.1.<.2.q.w.i.i.i.i.i.i.i.a.a.a.a.s.f.h.k.%X%X%X&X*X=X9XNXJXIXUXUXUXUXUXUXUXUXUXUXUXUXUXUXUXUXUXUX",
", , $ , 1 2 1 , 1 2 1 3 3 3 3 3 2 1 3 3 3 1 1 2 2 2 1 1 t s M N h g C } Y.).).hXzXxXSXDXGXLXUXUXUXUXUXUXUXUXUXUXUXUXUXUXUXUXUXUXUXUXUXUXUXUXUXUXUXUXUXUXUXUXUXUXUXUXUXUXUXUXUXUXUXUXUXUXUXUXUXUXUXUXUXUXUXUXUXUXUXUXUXUXUXUXUXUXUXUXUXUXUXUXUXUXUXUXUXdXx.x.x.x.1.1.<.2.q.w.i.i.i.t.t.u.u.i.i.u.i.s.g.h.%X%X%X%X*X*X:X9XNXNXBXBXBXvXcXvXJXUXUXUXUXUXUXUXUXUXUXUXUX",
", , $ $ $ 1 , , 2 2 1 2 1 3 3 3 2 1 2 2 1 2 1 , , 1 < 4 5 i h h h g C c.~.).iXhXzXSXSXGXGXLXUXUXUXUXUXUXUXUXUXUXUXUXUXUXUXUXUXUXUXUXUXUXUXUXUXUXUXUXUXUXUXUXUXUXUXUXUXUXUXUXUXUXUXUXUXUXUXUXUXUXUXUXUXUXUXUXUXUXUXUXUXUXUXUXUXUXUXUXUXUXUXUXUXUXUXUXLXqXz.l.l.x.1.1.<.2.q.w.y.i.t.t.t.t.t.t.t.t.i.s.g. X%X%X&X&X*X;X:X8X8X8XbXNXBXHXHXBXHXIXUXUXUXUXUXUXUXUXUXUXUX",
", , , $ , , , , 2 1 2 1 , 1 1 , , , , , > , $ , > , , 4 5 s h h j g A G.^./.iXhXzXSXDXGXLXLXUXUXUXUXUXUXUXUXUXUXUXUXUXUXUXUXUXUXUXUXUXUXUXUXUXUXUXUXUXUXUXUXUXUXUXUXUXUXUXUXUXUXUXUXUXUXUXUXUXUXUXUXUXUXUXUXUXUXUXUXUXUXUXUXUXUXUXUXUXUXUXUXUXUXUXUXLXuXz.K l.l.l.1.<.q.w.w.y.y.t.w.w.t.t.t.t.t.i.s.h.%X%X&X&X&X*X;X7X8X8X8XbXNXJXJXJXHXHXHXIXUXUXUXUXUXUXUXUXUXUX",
", , $ $ , , , , , , , , $ , , , > > # $ # # $ , , , 1 4 w s h j j g ] Y.~./.iXjXzXSXDXGXLXLXLXUXUXUXUXUXUXUXUXUXUXUXUXUXUXUXUXUXUXUXUXUXUXUXUXUXUXUXUXUXUXUXUXUXUXUXUXUXUXUXUXUXUXUXUXUXUXUXUXUXUXUXUXUXUXUXUXUXUXUXUXUXUXUXUXUXUXUXUXUXUXUXUXUXUXUXFXuX( K l.l.1.1.2.q.w.w.t.w.w.q.w.w.w.w.w.t.i.s.g.%X%X&X&X&X=X:X7X8X8X8X8XbXBXJXJXHXHXHXHXIXUXUXUXUXUXUXUXUXUX",
"$ # # # $ , , $ $ # # $ $ $ $ , , , # # + # # $ 2 < < 4 5 a h j j j M.~.~.(.pXkXzXSXDXDXGXLXLXUXUXUXUXUXUXUXUXUXUXUXUXUXUXUXUXUXUXUXUXUXUXUXUXUXUXUXUXUXUXUXUXUXUXUXUXUXUXUXUXUXUXUXUXUXUXUXUXUXUXUXUXUXUXUXUXUXUXUXUXUXUXUXUXUXUXUXUXUXUXUXUXUXUXUXDXqXH ( x.l.1.<.2.q.w.w.w.w.q.q.q.q.q.q.q.t.i.d.g.k.%X&X&X=X*X:X7X8X8X8X8XbXNXHXJXJXHXHXHXJXIXIXUXUXUXUXUXIXUX",
"# # # # # # # # # + + # $ $ $ $ > > # # # $ > 2 + O @ $ p s h N j C !.~.~./.pXkXzXzXxXSXDXLXUXUXUXUXUXUXUXUXUXUXUXUXUXUXUXUXUXUXUXUXUXUXUXUXUXUXUXUXUXUXUXUXUXUXUXUXUXUXUXUXUXUXUXUXUXUXUXUXUXUXUXUXUXUXUXUXUXUXUXUXUXUXUXUXUXUXUXUXUXUXUXUXUXUXUXUXKXR.Z K x.l.1.<.2.q.w.w.q.q.q.q.q.q.q.q.q.t.i.d.g. X%X&X*X=X;X:X7X8X8X8X8XbXbXBXJXIXJXHXHXHXJXIXIXIXIXUXUXUXUX",
"# # # # # + + + + + + + + + # # # # # # $ , 2 + 5 ( H u = a h C g ~ uX~.~./.pXjXzXzXzXSXDXLXUXUXUXUXUXUXUXUXUXUXUXUXUXUXUXUXUXUXUXUXUXUXUXUXUXUXUXUXUXUXUXUXUXUXUXUXUXUXUXUXUXUXUXUXUXUXUXUXUXUXUXUXUXUXUXUXUXUXUXUXUXUXUXUXUXUXUXUXUXUXUXUXUXUXUXUXCXB.V J l.l.1.<.2.q.q.w.q.q.q.q.q.q.q.q.q.t.i.d.g.%X%X*X*X;X:X7X7X8X8X8X8X8XbXbXBXJXJXHXHXHXHXJXIXIXIXIXIXIXUX",
"+ + + + + O + O + O + + + + # # # # $ > 2 4 2 @ z.tXD.~ g g h N g } yX~.~.(.pXjXzXzXzXAXFXFXLXUXUXUXUXUXUXUXUXUXUXUXUXUXUXUXUXUXUXUXUXUXUXUXUXUXUXUXUXUXUXUXUXUXUXUXUXUXUXUXUXUXUXUXUXUXUXUXUXUXUXUXUXUXUXUXUXUXUXUXUXUXUXUXUXUXUXUXUXUXUXUXUXUXUXUXdXz.Z K 7.1.1.2.q.q.q.q.q.q.4.4.4.4.q.q.q.t.a.d.g.%X%X&X*X;X:X7X8X8X8X8X8X4XcXcXvXBXHXHXHXHXHXJXJXIXIXIXIXIXUX",
"O O + O + O O + O O O + + # # # $ , 2 1 3 8 $ a tXW.K.| k g g g g M.).Y.^.).pXjXkXzXzXCXCXAXFXLXUXUXUXUXUXUXUXUXUXUXUXUXUXUXUXUXUXUXUXUXUXUXUXUXUXUXUXUXUXUXUXUXUXUXUXUXUXUXUXUXUXUXUXUXUXUXUXUXUXUXUXUXUXUXUXUXUXUXUXUXUXUXUXUXUXUXUXUXUXUXUXUXUXUXdX^ N 7.l.l.<.2.q.q.q.q.q.4.4.4.4.4.5.q.w.t.a.f.g.%X&X*X-X;X:X7X7X8X8X8X4X4XcXcXrXvXvXHXHXHXHXHXHXJXJXIXIXIXUX",
"+ + + O O O + O O + + # # # , , 2 2 2 3 3 8 , y tXyXW.D.E f j g g U.).~.^.yXpXjXjXlXlXlXiXgXVXFXLXUXUXUXUXUXUXUXUXUXUXUXUXUXUXUXUXUXUXUXUXUXUXUXUXUXUXUXUXUXUXUXUXUXUXUXUXUXUXUXUXUXUXUXUXUXUXUXUXUXUXUXUXUXUXUXUXUXUXUXUXUXUXUXUXUXUXUXUXUXUXUXUXUXuX^ Z l.l.N.<.2.q.q.q.q.q.5.4.4.4.4.4.q.q.y.s.f.h.%X&X*X;X:X7X7X7X8X8X6X3X3XwXwXwXrXvXvXHXHXHXHXHXHXJXJXJXIXUX",
"+ + O O O O + O + # # > > , 2 1 3 6 6 8 8 8 0 @ V.lX(.W.! f k g j ^./.~.^.yXpXpXjXjXiXE.U.^.yXlXAXLXUXUXUXUXUXUXUXUXUXUXUXUXUXUXUXUXUXUXUXUXUXUXUXUXUXUXUXUXUXUXUXUXUXUXUXUXUXUXUXUXUXUXUXUXUXUXUXUXUXUXUXUXUXUXUXUXUXUXUXUXUXUXUXUXUXUXUXUXUXUXUXUXdXH H l.l.1.<.2.q.q.q.q.q.5.2.2.4.4.q.q.w.t.s.f.g.%X&X*X:X:X7X7X8X8X6X6X3X3XwXwXwXwXwXrXvXvXBXHXHXHXHXHXHXJXUX",
"O O O + O + + # # , , , 1 3 3 6 6 7 8 8 8 8 0 . ^ AXpX(.D.C g g ~ uX^.^.(.yXiXjXfXE.U.U.E.E.^.tXuXtXuXdXaXqXdXMXZXKXPXUXUXUXUXUXUXUXUXUXUXUXUXUXUXUXUXUXUXUXUXUXUXUXUXUXUXUXUXUXUXUXUXUXUXUXUXUXUXUXUXUXUXUXUXUXUXUXUXUXUXUXUXUXUXUXUXUXUXUXUXUXUXLXVXH J 7.l.1.2.q.w.w.q.q.q.4.2.2.2.4.4.q.w.t.s.f.g.%X&X*X:X7X7X7X8X8X6X3X3XcXwXwXwXwXwXwXrXvXvXvXvXBXBXHXHXHXUX",
"O O + + + # $ # , , 2 2 3 3 7 6 6 7 8 8 6 6 8   H FXfXpX(._ g g } iX^./.yXiXiXpXU.G.Y.Y.Y.Y.!.^.E.G.m.m.b.b.c.c.m.Z.T.qXZXLXUXUXUXUXUXUXUXUXUXUXUXUXUXUXUXUXUXUXUXUXUXUXUXUXUXUXUXUXUXUXUXUXUXUXUXUXUXUXUXUXUXUXUXUXUXUXUXUXUXUXUXUXUXUXUXUXUXUXUXLXVXH K 7.7.1.0.q.w.w.q.q.q.2.2.,.,.4.4.q.w.u.s.g.h.%X*X*X:X7X7X5X8X8X6X3X3XcXwXwXwXrXwXwXwXrXvXvXvXvXvXvXBXHXUX",
"+ # # + # $ > , , 1 2 1 2 3 6 6 6 6 6 6 4 6 8   ) CXgXpXpXH.g g G.pX^.).iXiXiXY.D.G.U.Y.Y.W.tXE.U.G.m.b.c.b.m.m.I.E.E.oXtXMXKXUXUXUXUXUXUXUXUXUXUXUXUXUXUXUXUXUXUXUXUXUXUXUXUXUXUXUXUXUXUXUXUXUXUXUXUXUXUXUXUXUXUXUXUXUXUXUXUXUXUXUXUXUXUXUXUXUXLXLXmXH ( 7.1.0.e.e.w.w.q.q.q.4.2.,.,.4.4.q.w.i.s.g. X&X*X=X7X7X7X7X6X6X6X2X1XwXwXwXwXrXrXwXwXrXrXvXvXvXvXvXvXHXUX",
"O # # # # $ $ $ > 1 1 1 1 2 2 3 3 6 6 3 3 8 0   ( yXgXfXfX^.g g !.iX/.).iXpX^.v.v.m.G.G.G.G.I.L.L.m.b.c.) ) c.b.m.M.!.uXuXgXVXLXUXUXUXUXUXUXUXUXUXUXUXUXUXUXUXUXUXUXUXUXUXUXUXUXUXUXUXUXUXUXUXUXUXUXUXUXUXUXUXUXUXUXUXUXUXUXUXUXUXUXUXUXUXUXUXUXLXUXdXH 7.1.1.0.e.0.q.e.q.q.q.4.,.,.,.4.4.q.t.i.s.g.h.&X=X=X7X8X7X7X6X6X6X2X2XwXwXwXwXwXwXwXwXwXrXvXvXvXvXvXvXJXUX",
"# # # + # # # # > , 1 1 1 2 2 1 1 3 3 3 3 6 9 + H ^.W.jXfXtXj C uXiX).iXpXyXS.v.tXgXgXtX!.E.R.E.oXaXdXtXT.b.z.) 8.c.c.U.tXuXAXKXUXUXUXUXUXUXUXUXUXUXUXUXUXUXUXUXUXUXUXUXUXUXUXUXUXUXUXUXUXUXUXUXUXUXUXUXUXUXUXUXUXUXUXUXUXUXUXUXUXUXUXUXUXUXUXUXGXUXqXH 7.1.1.<.1.`.N.<.q.q.4.2.,.,.,.4.4.q.t.i.s.g.h.&X=X=X7X8X7X7X6X6X3X2XwXwXwXwX0X0X0XwXwXwXrXvXvXvXvXvXBXIXIX",
"# # + # # $ > > > > > 1 2 1 2 2 1 1 1 3 2 3 9 , N yXD.iXfXyXC c.gXyXiXiXiX^.Y.^.gXVXCXUXUXUXUXUXUXUXLXUXUXKXAXkXuXE.I.v.G.U.tXVXAXKXUXUXUXUXUXUXUXUXUXUXUXUXUXUXUXUXUXUXUXUXUXUXUXUXUXUXUXLXAXVXZXZXZXPXUXUXUXUXUXUXUXUXUXUXUXUXUXUXUXUXUXUXUXUXGXUX0XH 7.1.1.x.eXKXPXC.<.q.4.2.,.,.,.4.4.q.t.i.s.g. X&X=X5X7X8X8X6X6X3X3XwXcXwXwX0X0X0X+X+X+X0XwXrXvXvXvXvXHXIXIX",
"# # # $ $ , , , 2 2 1 2 2 2 2 2 2 2 2 3 3 7 q < n tXD.W.pX^.C G.fXiXpXpXpXyXiXfXlXCXFXLXUXUXUXUXUXUXUXUXUXKXAXVXgXgXgXyXE.tXyXgXgXgXKXUXUXUXUXUXUXUXUXUXUXUXUXUXUXUXUXUXUXUXUXUXUXUXUXKXAXgXtXE.I.I.Z.Z.T.qXaXaXMXAXKXLXUXUXUXUXUXUXUXUXUXUXUXUXLXUX0XH 7.K 7.E.KXPXUXrX<.2.4.2.,.,.,.,.4.q.t.i.s.g. X&X=X5X7X8X8X6X6X3X2XwXwXwXwXwX0X0X+X[.+XwXwXrXvXvXvXvXHXIXIX",
"> , > > > > , > > , , , 2 < 1 2 3 3 2 6 8 8 q < p oXH.W.yX^.Q ^.pXiXpXpXfXjXfXlXCXAXLXUXUXUXUXUXUXKXMXdXtXE.U.I.m.c._ ) ) v.E.iXfXfXlXFXUXUXUXUXUXUXUXUXUXUXUXUXUXUXUXUXUXUXUXUXUXUXAXVXgXtX!.U.U.U.G.L.I.T.qXqXtXgXVXVXKXKXUXUXUXUXUXUXUXUXUXUXLXUX0XK K ~ I.FXUXUXUXrX<.2.5.2.,.,.,.4.q.w.t.i.d.g. X*X=X7X7X8X6X6X6X2X2X#XwXwX0X0X0X0X[.[.0XwXrXvXvXvXvXHXHXJXIX",
", , , , , > > > > > > , , < 3 6 6 7 7 8 8 8 8 8 0 T.yXW.iXG./ iXpXpXpXfXjXzXzXCXAXKXLXLXUXUXUXdX!.E.E.gXgXVXAXFXAXfXtXU.b.) / } Y.yXfXzXFXLXUXUXUXUXUXUXUXUXUXUXUXUXUXUXUXUXUXUXUXKXAXlXuXtXE.U.G.v.v.b.c.m.I.qXtXaXdXlXVXAXAXAXKXKXKXUXUXUXUXUXLXUXqX( ( b.ZXUXUXUXUX'.<.2.2.2.,.,.,.4.q.w.t.a.d.h.%X*X=X7X7X8X6X6X3X2X#X#X+X0X0X[.[.0X[.[.wXrXvXvXvXBXHXHXJXJXIX",
", > > > > , , > , , > 1 1 3 3 7 8 8 7 7 8 8 8 r , V.fX(.jXv.} fXiXpXjXjXzXCXSXSXFXFXFXFXLXdXI.D.E.gXCXdXE.V.b.B.Z.Z.R.aXlXtXU.c.} D.Y.^.jXSXLXUXUXUXUXUXUXUXUXUXUXUXUXUXUXUXUXUXKXAXCXgXtX^.tXW.U.E.E.U.m.m.m.Z.T.R.qXtXaXgXVXVXVXVXAXVXLXUXUXUXLXUXrX( 7.MXUXUXUXUXHX1.2.2.2.2.,.,.,.4.q.w.t.a.f.h.&X=X=X7X7X6X6X6X3X2X#X#X+X0X+X[.[.[.[.[.wXrXvXvXBXHXHXHXJXJXIX",
"$ $ $ $ , , , , , , 2 1 1 3 3 8 8 8 8 8 8 8 8 r + z.VXyXjXv.v.fXpXjXzXzXSXSXDXDXDXDXSXCXuXG.U.tXtXqXI.z.D N D n S 7.J K A.qXaXtXG.D.G.U.W.iXSXUXUXUXUXUXUXUXUXUXUXUXUXUXUXUXUXFXlXgXyX^.U.I.D.b.b.m.L.E.gXAXFXZXZXdXqXqXqXtXgXMXgXfXfXgXVXUXUXUXUXUXZX( B.UXUXUXUXUX[.<.5.4.2.,.,.,.,.4.q.w.t.a.f. X&X=X=X5X7X6X6X6X3X2X#XwX+X+X[.[.[.[.[.+XwXvXvXBXHXHXHXJXJXJXIX",
"$ $ $ , , , > 2 1 1 2 3 3 6 6 6 6 8 8 0 8 8 8 q O H KXpXjXc.G.fXfXlXCXSXDXDXDXGXGXDXSXlXpXiX^.I.) z.R.eXK 7.mXB F PXvXJ 0XZXqXaXtXU.G.U.Y.W.iXFXUXUXUXUXUXUXUXUXUXUXUXUXUXUXAXlXgXgXuXE.E.E.E.E.E.tXtXOXE.E.aXAXUXUXUXUXKXAXVXAXVXlXVXCXVXUXUXUXUXUXZX7.A.UXUXUXUXUXN.<.5.2.2.,.,.,.,.4.q.t.u.s.g. X=X X=X5X5X6X6X2X2X2XwX0X0X0X[.[.[.[.].[.wXvXBXHXHXJXJXJXJXIXIX",
"$ $ , , , > 1 2 1 1 2 3 3 6 7 8 8 8 8 8 8 8 8 q O 7.LXfXfX} E.fXfXlXAXFXLXLXGXGXGXDXAXlXfXU.} ) m.ZXUXUXx.z.qXV x N.B.7.PXUXPXqXR.gXtXU.E.W.^.jXLXUXUXUXUXUXUXUXUXUXUXUXUXKXCXVXlXgXtXtXyXgXVXFXUXUXUXUXUXZXdXtXtXVXUXUXUXUXPXUXLXKXKXKXKXUXUXUXUXUXPXx.qXUXUXUXUXUXN.<.2.2.,.,.,.,.,.4.q.t.i.s.h.&X=X=X=X5X5X6X6X2X2XwXwXwX0XXXXX[.[.].].[.wXrXvXHXJXJXJXJXJXJXIX",
"$ , 1 1 2 1 2 2 1 2 2 3 3 6 8 8 8 8 8 8 0 8 8 q O n.UXlXgX_ tXfXjXzXFXLXUXUXLXLXFXFXAXlX^.G.Y.E.tXKXUXUX0X7.V.n.c.B.7.A.UXUXUXPXR.L.gXuXE.W.yXpXFXUXUXUXUXUXUXUXUXUXUXUXUXKXAXAXVXsXsXgXVXAXLXmXeXeXdXZXUXUXUXUXMXOXaXUXUXUXUXUXUXUXUXUXUXUXUXUXUXUXPXZ.ZXUXUXPXPXZX1.2.2.2.,.,.,.,.,.4.w.t.i.d. X=X=X X=X5X5X6X6X3X2XwXwXwXwXXX[.[.[.].].0XwXrXvXHXJXJXIXIXJXJXJX",
", 1 1 1 1 2 2 2 2 1 3 3 6 6 6 8 8 8 6 8 8 8 8 q + n.UXVXgX8.yXfXjXzXDXUXUXUXUXUXLXKXFXCXlXfXiXlXVXKXUXUXPXA.z.z.z.8.x.ZXUXUXUXPXMXT.tXCX^.^.^.iXAXUXUXUXUXUXUXUXUXUXUXUXUXLXKXVXgXfXgXtXoXdXoXJ D S 1.N.C.A.ZXUXUXKXOXE.KXUXUXUXUXUXUXUXUXUXUXUXUXUXPXA.PXUXUXUXUX[.<.2.2.>.>.>.,.,.,.4.w.t.a.f. X=X5X|.|.5X5X6X3X2XwXwXwX0X0X+X[.[.].].].wXrXvXHXHXJXIXIXIXIXJXIX",
", 1 1 1 1 2 2 2 3 3 3 6 6 6 6 6 6 6 6 8 8 8 8 q O n.FXVXuXc.iXfXlXCXFXUXUXUXUXUXUXUXUXLXGXCXuXyXfXAXUXUXUXUX0XB.B.A.PXUXUXUXUXZXaXOXE.^.iX^.^.iXlXLXUXUXUXUXUXUXUXUXUXUXUXUXKXVXVXgXtXaXPXUXA.XX].S vXZXN.1.A.eXPXUXUXtXE.KXUXUXUXUXUXUXUXUXUXUXUXUXKXR.LXUXUXUXPX9.<.2.2.>.>.,.,.,.4.q.w.t.a.g.=X5X5X|.|.5X,X2X3X2XwXwX0X0X+X+X[.].].].XXrXvXHXHXJXJXIXIXIXIXJXIX",
", , , 1 , , 2 2 1 1 3 6 6 3 2 3 3 6 6 8 8 8 8 q O z.LXlXE.} iXpXlXAXLXUXUXUXUXUXUXUXUXUXUXLXVXiXtXyXVXAXKXKXUXUXUXUXUXUXUXUXKXMXsXOXU.^.iXyX(.yXlXLXUXUXUXUXUXUXUXUXUXUXUXUXUXUXVXgXVXUXUXUXA.eXXXx '.HXC.7.eXoXZ.mXUXUXtXuXUXUXUXUXUXUXUXUXUXUXUXUXKX0XPXUXUXUXA.<.2.2.2.>.>.,.,.,.4.q.t.i.s. X=X5X5X|.|.5X,X1X2X2XwXwXwX0X+X[.].A.].[.0XvXvXHXHXJXIXIXIXIXJXJXIX",
"# $ $ $ , , , 2 2 1 3 3 3 3 3 3 3 6 6 6 7 7 8 q . z.LXpXU.v.pXpXjXCXLXUXUXUXUXUXUXUXUXUXUXUXLXCXfXpXfXfXgXgXVXVXCXAXAXAXAXAXVXgXgXgXgXgXiXiXyXpXlXLXUXUXUXUXUXUXUXUXUXUXUXUXUXUXAXMXAXUXUXUX].B.Z.K N.[.7.N.UXUXeXn.aXUXUXgXKXUXUXUXUXUXUXUXUXUXUXUXPX0XPXUXUXmX1.<.2.2.2.>.>.,.,.,.4.q.t.i.p. X=X5X5X`.|.,X,X1X1X#XwX0XwX0X+X].].].].].wXvXHXHXJXIXIXIXIXIXJXIXIX",
"# $ $ $ $ $ , > 2 2 1 3 3 3 3 3 3 3 6 6 8 8 8 0 O z.AXiXY.v.gXiXjXCXFXUXUXUXUXUXUXUXUXUXUXUXUXFXCXlXlXlXVXCXVXVXVXVXVXMXMXgXgXsXsXgXgXiXiXyXyXpXVXLXUXUXUXUXUXUXUXUXUXUXUXUXZXMXVXMXMXKXUXUXZXB.Z.Z.oXXXx.rXUXUXUXeXb.qXUXUXUXUXUXUXUXUXUXUXUXUXUXUXKXqXPXUXUX0X<.2.2.>.>.,.,.,.,.,.4.w.t.i.p.=X7X7X5X_.|..X>X1X2XwXwXwX0X0X+X].].A.].].wXvXHXHXIXIXIXIXIXIXJXIXUX",
"# # # # , , $ , , , 1 1 1 3 3 3 2 2 3 6 8 8 8 r O z.fXiXE.D.iXiXjXCXDXLXUXUXUXUXUXUXUXUXUXUXUXUXLXGXDXFXKXFXAXAXAXAXVXMXgXgXgXsXyXyXiXuXyXyXyXgXAXUXUXUXUXUXUXUXUXUXUXUXUXUXUXUXLXKXVXVXKXLXUXeXB.n.x.B.eXUXUXUXUXUXdXT.qXKXUXUXUXUXUXUXUXUXUXUXUXUXKXdXUXUXUXwX<.2.2.2.2.,.,.,.,.4.q.t.u.s.p.=X7X8X.Xr.|..X>X<X#XwXwXwX0X0X+X].A.A.A.].[.vXvXHXJXIXIXIXIXIXIXIXUX",
"# # # $ , $ > , 1 1 2 2 1 3 3 3 2 2 3 6 8 8 8 q . 7.iXiXY.G.yXiXjXCXFXLXUXUXUXUXUXUXUXUXUXUXUXUXUXUXUXUXUXUXLXKXKXAXAXVXgXgXsXyXtXtX^.yXyXyXiXfXKXUXUXUXUXUXUXUXUXUXUXUXUXUXUXUXUXKXAXVXVXAXKXUXPXZXZXUXUXUXUXUXUXKXKXKXVXKXUXUXUXUXUXUXUXUXUXUXUXUXZXdXUXPXUXwX<.2.2.2.2.,.,.,.,.4.q.t.i.s.p.5X7X8X|.e.|..X.X<X#XwX0XwX0X[.].].A.A.A.].[.rXvXHXHXIXIXIXIXIXIXIXUX",
"# $ $ $ $ > , , , 1 1 3 3 3 3 3 3 3 6 8 8 8 8 q + H gXpXY.D.yXyXfXzXSXGXLXUXUXUXUXUXUXUXUXUXUXUXUXUXUXUXUXUXUXUXLXFXAXfXgXgXsXyXyX^.^.(.yXyXpXVXLXUXUXUXUXUXUXUXUXUXUXUXUXUXUXUXUXPXAXVXMXVXAXAXKXUXUXUXUXUXUXUXLXKXKXUXUXUXUXUXUXUXUXUXUXUXUXUXUXUXZXdXUXUXUXwX<.2.2.2.>.,.,.,.,.4.w.t.a.s. X5X8XbX`.e.|..X.X#X#XwX0X0X[.[.].].].A.A.].0XrXvXHXJXIXIXIXIXIXUXUXUX",
"$ $ $ , > > > > 1 1 1 2 3 3 3 3 3 6 6 8 8 8 8 q , n uXfXY.v.yXyXfXlXAXFXLXUXUXUXUXUXUXUXUXUXUXUXUXUXUXUXUXUXUXUXKXAXVXMXgXgXgXiXyXtX^.yXyXiXgXVXUXUXUXUXUXUXUXUXUXUXUXUXUXUXUXUXUXUXLXAXVXVXAXKXLXUXUXUXUXUXUXUXPXUXUXUXUXUXUXUXUXUXUXUXUXUXUXUXUXUXZXdXUXUXUXC.<.2.2.>.>.,.,.,.4.5.w.t.i.g.=X8X8XbX_.r.|.{.}.#X#X+X0X[.].].[.[.].].[.[.wXrXvXHXIXIXIXIXIXUXUXUXUX",
", , , , > > 1 1 1 3 1 1 1 1 3 3 3 6 6 6 6 8 8 0 0 $ n.fXG.v.uXyXfXlXCXFXLXUXUXUXUXUXUXUXUXUXUXUXUXUXUXUXUXUXUXUXKXKXAXVXVXfXgXsXiXiXyXyXiXpXfXCXUXUXUXUXUXUXUXUXUXUXUXUXUXUXUXUXUXUXUXUXLXKXLXUXUXUXUXUXUXUXUXUXUXUXUXUXUXUXUXUXUXUXUXUXUXUXUXUXUXUXZXmXUXUXUXN.<.<.>.>.>.,.,.,.4.q.t.u.s. X=X8X9X8Xe._.`.{.}.#X+X+X[.+X[.[.].].[.[.[.0X0XrXBXJXIXIXUXIXIXUXUXUXUX",
"> > 1 , > > , 1 1 1 1 1 2 2 2 3 3 6 6 7 8 8 8 8 q + z.lXG.b.tXuXpXlXCXAXKXUXUXUXUXUXUXUXUXUXUXUXUXUXUXUXUXUXUXUXKXKXKXAXCXlXfXfXpXpXiXiXpXpXfXVXUXUXUXUXUXUXUXUXUXUXUXUXUXUXUXUXUXUXUXUXUXUXUXUXUXUXUXUXUXUXUXUXUXUXUXUXUXUXUXUXUXUXUXUXUXUXUXUXUXUXZXZXUXUXPX'.N.<.:.>.>.,.,.4.4.q.t.i.p. X7X8XNX8X0._.`.{.}.[.+X+X0X+X+X[.[.].[.[.+X+X+XrXHXIXIXUXIXIXIXUXUXUXUX",
"1 1 2 1 > > , 1 1 1 2 2 1 1 1 1 3 3 3 6 6 7 8 8 q $ n.LXG.} ^.uXpXjXCXAXKXUXUXUXUXUXUXUXUXUXUXUXUXUXUXUXUXUXUXUXUXUXUXKXFXAXzXlXfXpXpXpXpXfXfXVXUXUXUXUXUXUXUXUXUXUXUXUXUXUXUXUXUXUXUXUXUXUXUXUXUXUXUXUXUXUXUXUXUXUXUXUXUXUXUXUXUXUXUXUXUXUXUXUXUXUXZXdXUXUXZX[.'.0.<.2.>.,.2.4.q.w.t.i.p.=X7X8XNX4X0._.`.{.'.[.+X+X0X+X+X[.[.[.[.[.[.[.[.rXHXIXUXUXIXIXIXUXUXUXUX",
"3 3 1 3 3 3 3 3 3 3 3 3 3 3 3 3 3 3 3 6 6 8 8 8 q + x.UXU.} ^.yXiXfXlXAXKXLXUXUXUXUXUXUXUXUXUXUXUXUXUXUXUXUXUXUXUXUXUXUXLXFXSXCXjXpXpXpXfXfXfXVXUXUXUXUXUXUXUXUXUXUXUXUXUXUXUXUXUXUXUXUXUXUXUXUXUXUXUXUXUXUXUXUXUXUXUXUXUXUXUXUXUXUXUXUXUXUXUXUXUXUXmXdXUXUXvX#X{._.2.2.2.4.4.5.q.w.t.s. X5X8XbXNXbX0.e.{.{.'.[.+X+X0X0X0X[.].[.].].].].[.rXHXIXUXUXUXIXIXUXUXUXUX",
"> 6 6 6 6 6 7 6 3 6 6 6 3 6 6 6 3 3 3 3 6 6 8 8 r # B KXE.} ^.yXiXfXlXAXKXLXUXUXUXUXUXUXUXUXUXUXUXUXUXUXUXUXUXUXUXUXUXUXUXLXDXCXfXfXfXfXfXfXlXCXUXUXUXUXUXUXUXUXUXUXUXUXUXUXUXUXUXUXUXUXUXUXUXUXUXUXUXUXUXUXUXUXUXUXUXUXUXUXUXUXUXUXUXUXUXUXUXUXUXUXdXdXUXUXvX2X}._.0.2.2.4.4.q.q.t.i.s. X5X8XbXNXbX9.0.{.'.'.[.+X+X0X+X0X].].].].A.].].[.vXHXIXUXUXUXIXIXUXUXUXUX",
"x z < < < < 6 8 8 8 7 7 7 6 6 3 3 3 3 3 3 2 6 8 8 4 5 qXtX/ Y.yXiXfXlXAXKXKXUXUXUXUXUXUXUXUXUXUXUXUXUXUXUXUXUXUXUXUXUXUXUXUXFXCXjXfXjXjXfXfXlXAXLXUXUXUXUXUXUXUXUXUXUXUXUXUXUXUXUXUXUXUXUXUXUXUXUXUXUXUXUXUXUXUXUXUXUXUXUXUXUXUXUXUXUXUXUXUXUXUXUXUXdXZXUXUXvXcX>X`.0.2.2.4.4.q.q.t.i.p. X7XbXbXJX<X9.0.`.'.'.[.].+X].].].].].].].A.A.].wXvXHXIXUXUXIXIXIXUXUXUXUX",
"N.1.<.S m z 6 < < < < 6 < 6 8 8 8 8 8 8 7 6 6 8 8 q O z.uX/ U.yXyXfXlXCXFXKXLXUXUXUXUXUXUXUXUXUXUXUXUXUXUXUXUXUXUXUXUXUXUXUXSXzXjXjXjXfXfXjXlXAXUXUXUXUXUXUXUXUXUXUXUXUXUXUXUXUXUXUXUXUXUXUXUXUXUXUXUXUXUXUXUXUXUXUXUXUXUXUXUXUXUXUXUXUXUXUXUXUXUXUXaXPXUXPXcXcX@X`.e.2.2.4.5.q.w.t.i.p.=X7X8XNXJX`.1.0.C.'.'.[.[.].].].].].].].].A.A.].wXvXHXIXUXUXIXIXUXUXUXUXUX",
"`.`.`._.N.0.1.<.m x l 8 < < < > > > > > 6 6 6 8 8 r , V qX~ G.yXyXpXlXCXFXFXLXUXUXUXUXUXUXUXUXUXUXUXUXUXUXUXUXUXUXUXUXUXUXLXSXzXlXjXfXpXfXfXlXFXUXUXUXUXUXUXUXUXUXUXUXUXUXUXUXUXUXUXUXUXUXUXUXUXUXUXUXUXUXUXUXUXUXUXUXUXUXUXUXUXUXUXUXUXUXUXUXUXUXPXqXPXUXZXcX3X{.`.e.2.2.4.5.q.t.y.p. X=X7X8XNXJX`.1.9.C.A.'.[.[.[.].].].].].].].].].].wXHXJXIXUXUXIXIXUXUXUXUXUX",
"{.{.}.>X<X<X<X2X<X{.`._.N.9.<.<.<.S m m x z 8 l l z q p Z.^ G.tXyXpXjXzXSXFXUXUXUXUXUXUXUXUXUXUXUXUXUXUXUXUXUXUXUXUXUXUXUXLXDXzXlXjXpXpXfXjXzXFXUXUXUXUXUXUXUXUXUXUXUXUXUXUXUXUXUXUXUXUXUXUXUXUXUXUXUXUXUXUXUXUXUXUXUXUXUXUXUXUXUXUXUXUXUXUXUXUXUXZXoXUXPXrXcX3X{.`.e.2.4.4.q.w.t.y.p. X5X8XbXBXJX`.1.9.C.'.'.[.[.[.[.[.].].].].].].].XXrXHXJXIXUXUXIXIXUXUXUXUXUX",
"{.}.@X>X1X1X1X1X3XbXbXbXbXbXbXbXcX2X}.{._.0.1.<.m z 7 > 1.z.G.^.yXpXfXlXAXFXUXUXUXUXUXUXUXUXUXUXUXUXUXUXUXUXUXUXUXUXUXUXUXLXSXzXjXfXpXfXfXlXAXLXUXUXUXUXUXUXUXUXUXUXUXUXUXUXUXUXUXUXUXUXUXUXUXUXUXUXUXUXUXUXUXUXUXUXUXUXUXUXUXUXUXUXUXUXUXUXUXUXUXZXqXUXZXwXcX3X{.`.e.2.5.q.q.w.t.i.p. X7X8XNXBXJX`.1.1.C.'.'.'.[.[.].].].].].].].[.[.0XvXHXIXUXUXUXUXIXUXUXUXUXUX",
"}.@X>X<X1X1X3X3X1X3X3XcX4X4X3X<X}.{.`.`.C.0.9.<.<.m b x G ( M.tXyXpXfXlXCXFXUXUXUXUXUXUXUXUXUXUXUXUXUXUXUXUXUXUXUXUXUXUXUXLXSXzXfXpXpXfXfXlXAXKXUXUXUXUXUXUXUXUXUXUXUXUXUXUXUXUXUXUXUXUXUXUXUXUXUXUXUXUXUXUXUXUXUXUXUXUXUXUXUXUXUXUXUXUXUXUXUXUXUXZXdXUXZX#XcX3X}.`.e.q.q.q.q.t.t.i.p.5X8XbXNXBXJXN.1.1.C.[.[.[.[.[.0X0X0X0X].[.].[.[.wXvXHXIXUXUXUXIXIXUXUXUXUXUX",
"}.@X@X<X1X3X3X3X4X4X4X4X4X3X3X1X<X>X<X<X@X}.}.{.{.{.{.`.N.7.c.tXyXpXfXlXCXFXLXUXUXUXUXUXUXUXUXUXUXUXUXUXUXUXUXUXUXUXUXUXUXLXSXjXpXpXpXpXfXlXAXKXUXUXUXUXUXUXUXUXUXUXUXUXUXUXUXUXUXUXUXUXUXUXUXUXUXUXUXUXUXUXUXUXUXUXUXUXUXUXUXUXUXUXUXUXUXUXUXUXUXdXaXUXvXwXcX2X.X`.e.q.q.q.w.t.y.p. X5X8XbXBXHXJXN.1.1.C.+X'.+X[.[.].0X+X[.].[.[.[.0XwXvXHXIXUXUXUXIXIXUXUXUXUXUX",
"}.@X<X<X2X3X3X3X4XcXcXcXcX4X4X4X3X3X4X4X4XbXbXbXbXbXbXbXcXx.( E.yXpXfXlXCXFXKXUXUXUXUXUXUXUXUXUXUXUXUXUXUXUXUXUXUXUXUXUXUXLXzXpXyXiXpXfXlXCXAXKXUXUXUXUXUXUXUXUXUXUXUXUXUXUXUXUXUXUXUXUXUXUXUXUXUXUXUXUXUXUXUXUXUXUXUXUXUXUXUXUXUXUXUXUXUXUXUXLXKXqXaXPXwXcX3X2X.X`.e.q.q.q.w.t.i.p.=X5X8XNXBXJXIXN.1.F C.+X[.+X+X+X[.+X+X+X[.[.[.[.0XrXvXHXIXUXUXUXUXUXUXUXUXUXUX",
"}.@X@X<X1X3X3X3X4X4X4X4XcXbXbX4X3X4X4X4X4X4X4X4X4X4X8XbXBXB.H E.iXpXjXzXAXAXKXKXUXUXUXUXUXUXUXUXUXUXUXUXUXUXUXUXUXUXUXUXUXDXpXiXiXiXpXfXlXCXAXKXUXUXUXUXUXUXUXUXUXUXUXUXUXUXUXUXUXUXUXUXUXUXUXUXUXUXUXUXUXUXUXUXUXUXUXUXUXUXUXUXUXUXUXUXUXUXUXLXAXqXZXZXwXcX3X2X.X|.e.q.q.q.w.y.i.|.=X8XbXNXBXJXPXx.F F C.[.[.[.+X0X[.[.+X+X[.].[.XXwXrXBXHXIXIXUXUXUXUXUXUXUXUXUX",
"}.}.@X<X1X3X3X3X4X4X4X4X4XcX4X4X3X3X3X4X4X4X4X4XbXbXbXbXBXA.K I.iXiXjXlXCXAXKXKXUXUXUXUXUXUXUXUXUXUXUXUXUXUXUXUXUXUXUXUXLXzXpXiXiXpXfXfXlXCXAXUXUXUXUXUXUXUXUXUXUXUXUXUXUXUXUXUXUXUXUXUXUXUXUXUXUXUXUXUXUXUXUXUXUXUXUXUXUXUXUXUXUXUXUXUXUXUXUXUXgXR.PXrXwXcX3X,X.X|.r.q.q.w.t.y.p.|.5X8XbXNXBXIXvX1.J F A.A.[.[.0X0X+X[.+X+X].].].+XwXvXBXJXIXUXUXUXUXUXUXUXUXUXUX",
"}.}.#X<X<X2X2X3X3X3X4X4X4X3X3X3X3X3X3X4X4X4X4X4XbXbX8X4XNX[.J m.tXyXjXlXzXAXFXKXUXUXUXUXUXUXUXUXUXUXUXUXUXUXUXUXUXUXUXUXFXjXpXiXpXpXfXfXVXCXFXUXUXUXUXUXUXUXUXUXUXUXUXUXUXUXUXUXUXUXUXUXUXUXUXUXUXUXUXUXUXUXUXUXUXUXUXUXUXUXUXUXUXUXUXUXUXUXUXKXqXR.KXwXwX3X2X,X.X|.r.e.q.w.t.y.p.|.7X8XbXNXBXIXwX1.G S A.'.'.[.+X0X0X].].].0X[.].].0XHXHXJXIXUXUXUXUXUXUXUXUXUXUX",
"}.@X#X<X<X2X3X3X3X4X3X3X3X3X3X3X2X2X3X3X4X4X4X4XbXbX8XbXbX#XK c.!.yXjXjXlXCXAXAXLXUXUXUXUXUXUXUXUXUXUXUXUXUXUXUXUXUXUXLXSXfXpXpXpXfXjXlXVXCXFXUXUXUXUXUXUXUXUXUXUXUXUXUXUXUXUXUXUXUXUXUXUXUXUXUXUXUXUXUXUXUXUXUXUXUXUXUXUXUXUXUXUXUXUXUXUXUXUXZXR.dXZXwXcX3X,X,X.X`.r.w.w.w.t.y.p.$X7X8XbXBXJXUX[.K G G A.[.[.].].].0X].].[.].].XX].wXHXHXJXIXUXUXUXUXUXUXUXUXUXUX",
"#X#X<X<X2X2X3X3X3X3X3X2X3X3X2X1X1X1X3X3X4X4X4X4XbXbXbXbXbXcX7.z.E.yXpXjXlXCXAXFXLXUXUXUXUXUXUXUXUXUXUXUXUXUXUXUXUXUXUXLXCXpXpXpXpXfXlXlXVXCXLXUXUXUXUXUXUXUXUXUXUXUXUXUXUXUXUXUXUXUXUXUXUXUXUXUXUXUXUXUXUXUXUXUXUXUXUXUXUXUXUXUXUXUXUXUXUXUXUXVXR.ZX0X#XcX2X,X.X.X`.r.w.w.w.t.y.|.5X8XbXBXHXJXUXA.J K 1.A.].[.[.].].].].].].].].XXXXrXHXHXJXIXUXUXUXUXUXUXUXUXUXUX",
"<X<X2X1X1X1X2X1X1X1X1X<X1X1X<X<X<X<X<X1X3X3X3X4X4X4X4XbXbXcXK ( U.^.pXfXlXVXAXAXLXUXUXUXUXUXUXUXUXUXUXUXUXUXUXUXUXUXUXLXCXfXpXpXfXfXjXlXlXCXUXUXUXUXUXUXUXUXUXUXUXUXUXUXUXUXUXUXUXUXUXUXUXUXUXUXUXUXUXUXUXUXUXUXUXUXUXUXUXUXUXUXUXUXUXUXUXUXUXdXR.0X[.wXcX3X,X.X|.`.e.w.w.w.w.r.|.5X8XNXBXJXJXUXA.J K 1.].A.[.wX+X].].].].].].XXXX0XBXHXHXJXIXIXUXUXUXUXUXUXUXUXUX",
"<X1X1X2X2X2X1X1X<X1X1X<X<X<X<X@X@X@X@X<X<X1X3X3X4X4X3X3XcX#XJ ( U.^.pXpXfXlXAXAXKXUXUXUXUXUXUXUXUXUXUXUXUXUXUXUXUXUXUXLXCXpXpXpXfXjXzXlXjXlXUXUXUXUXUXUXUXUXUXUXUXUXUXUXUXUXUXUXUXUXUXUXUXUXUXUXUXUXUXUXUXUXUXUXUXUXUXUXUXUXUXUXUXUXUXUXUXUXAXqXR.A.#X2X3X3X,X.X|.`.e.w.w.w.w.|.5X8XNXBXJXJXIXUXA.J J B.+X[.[.wXwX+X[.].].].].XX0XrXBXBXHXJXIXIXUXUXUXUXUXUXUXUXUX",
"#X<X<X2X2X3X3X1X1X<X1X1X1X<X<X@X@X@X@X>X>X<X1X2X1X1X<X>X#X'.7.n.I.^.pXpXfXlXCXAXAXKXUXUXUXUXUXUXUXUXUXUXUXUXUXUXUXUXUXLXCXfXiXiXpXiXyXiXfXlXKXUXUXUXUXUXUXUXUXUXUXUXUXUXUXUXUXUXUXUXUXUXUXUXUXUXUXUXUXUXUXUXUXUXUXUXUXUXUXUXUXUXUXUXUXUXUXUXVXR.A.[.#X2X3X2X,X.X`.r.e.w.w.w.r.5X8XNXBXHXJXIXUXUXA.J K A.[.rX0X0XrXwX0X[.[.[.[.XXwXvXvXBXHXJXIXUXUXUXUXUXUXUXUXUXUX",
"}.@X#X<X1X2X1X3X2X1X1X1X1X<X<X<X<X<X@X}.}.@X<X>X@X@X@X}.@X+Xx.n.G.^.iXiXfXlXCXAXAXLXUXUXUXUXUXUXUXUXUXUXUXUXUXUXUXUXUXLXAXjXpXyX(.P.D.Y.yXpXCXUXUXUXUXUXUXUXUXUXUXUXUXUXUXUXUXUXUXUXUXUXUXUXUXUXUXUXUXUXUXUXUXUXUXUXUXUXUXUXUXUXUXUXUXUXUXUXlXZ.A.[.}.2X2X,X.X|.`.e.w.w.w.r..X8XNXBXHXJXIXUXUXUXrXJ J x.+X0XwXwXrXwX[.XXXX].].XXwXvXvXHXHXJXIXUXUXUXUXUXUXUXUXUXUX",
"}.}.@X@X<X<X2X2X3X3X2X1X1X<X<X<X<X}.}.{.{.}.@X}.@X@X@X}.}.#Xx.z.U.^.~.yXpXlXCXAXKXUXUXUXUXUXUXUXUXUXUXUXUXUXUXUXUXUXUXLXFXzXpXiX(.W.W.(.(.yXfXKXUXUXUXUXUXUXUXUXUXZXmXZXUXUXUXUXUXUXUXUXUXUXUXUXUXUXUXUXUXUXUXUXUXUXUXUXUXUXUXUXUXUXUXUXUXFXkXZ.A.[.[.2X<X.X.X`._.e.w.w.e.|.6XbXBXHXJXIXIXUXUXUXvXG J G A.rXwXwXwX0X].XXXX0XXXXXwXvXvXHXJXIXIXUXUXUXUXUXUXUXUXUXUX",
"}.}.}.@X<X<X1X1X3X3X3X3X2X1X1X<X<X<X@X}.}.}.}.{.}.@X}.}.}.'.N.( G.G.Y.yXpXlXCXAXFXUXUXUXUXUXUXUXUXUXUXUXUXUXUXUXUXUXUXLXDXzXjXpXiX(.W.(.(.yXyXlXLXUXUXUXUXUXUXZXdXtXE.tXVXUXUXUXUXUXUXUXUXUXUXUXUXUXUXUXUXUXUXUXUXUXUXUXUXUXUXUXUXUXUXUXKXFXdXZ.A.[.}.#X<X.X{.`.r.e.e.e.|.,XbXBXHXJXIXUXUXUXUXHXl.G K D G rXvXXXwXwX].].XX0XwXwXwXvXvXHXJXIXIXIXUXUXUXUXUXUXUXUXUX",
"}.@X@X@X@X<X<X<X1X3X3X3X3X3X2X1X1X<X>X>X>X>X}.}.}.}.{.}.@X@XC.7.v.G.~.).pXjXlXCXFXLXUXUXUXUXUXUXUXUXUXUXUXUXUXUXUXUXLXGXSXzXjXiX(.~.W.(.yXiXpXpXlXAXFXUXUXUXUXUXUXUXKXgXAXUXUXUXUXUXUXUXUXUXUXUXUXUXUXUXUXUXUXUXUXUXUXUXUXUXUXUXUXUXUXUXAXlXqXZ.A.'.}.#X}.{.`.`.r.e.e.r.|.6XNXBXJXIXIXUXUXUXwXN.F J J G n Z 0XrX].0X0X].XX0XwXwXrXvXvXHXJXJXIXIXUXUXZXPXUXUXUXUXUX",
"}.@X@X@X@X<X<X<X1X2X2X3X3X3X1X1X<X<X<X,X>X<X>X.X{.{.{.}.{.@X'.z.b.G.Y.^.pXpXlXCXFXLXUXUXUXUXUXUXUXUXUXUXUXUXUXUXUXLXGXDXSXzXpX(.(.~.~.(.pXfXjXfXfXjXlXFXUXUXUXUXUXUXUXUXUXUXUXUXUXUXUXUXUXUXUXUXUXUXUXUXUXUXUXUXUXUXUXUXUXUXUXUXUXUXUXUXVXqXU.Z.A.'.}.#X}.{.{.`.r.e.r.|.,XbXNXBXJXIXUXUXPXx.1.C.1.J J G Z n Z Z.eX].XXXXXXwX0XwXrXvXBXHXJXJXIXIXUXZXK A.UXUXUXUXUX",
"@X@X@X<X<X<X<X<X1X1X1X1X3X1X1X1X<X<X<X,X>X>X>X}.{.{.{.}.{.@X'.l.b.G.S.~.).iXjXCXFXLXUXUXUXUXUXUXUXUXUXUXUXUXUXLXLXGXDXSXzXfXyX^.(.~.~.yXjXzXSXSXSXCXAXLXUXUXUXUXUXUXUXUXUXUXUXUXUXUXUXUXUXUXUXUXUXUXUXUXUXUXUXUXUXUXUXUXUXUXUXUXUXUXUXUXgXE.M.B.A.[.[.}.}.}.{.`._.e.`..X6XbXBXHXJXUXUXZX].B 9.'.1.F G G Z C C Z B.eXXXXXwXwXwXwXrXvXHXHXJXJXIXIXUX].V G ZXUXIXIXIX",
"<X<X#X<X<X<X<X<X<X<X<X<X<X<X<X<X<X<X>X<X>X>X.X}.}.}.}.@X@X@X#Xx.b.v.v.Y.^.).pXlXFXLXUXUXUXUXUXUXUXUXLXGXDXDXGXDXSXSXzXjXfXiX(.(.^.~.^.pXzXSXLXUXUXLXUXUXUXUXUXUXUXUXUXUXUXUXUXUXUXUXUXUXUXUXUXUXUXUXUXUXUXUXUXUXUXUXUXUXUXUXUXUXUXUXUXKXuXR.m.B.A.[.[.}.}..X.X|.`.`.|.,X8XNXBXJXIXPXeXeXA.B N.C.F F G D Z C ~ ~ Z z.rXwX0XwXwXwXvXvXHXHXJXJXIXUXPXl.G Z B.UXPXIXIX",
"<X<X<X<X<X<X<X<X<X<X<X<X1X1X<X<X<X<X>X@X{.}..X.X}..X.X}.}.}.'.B.n.v.v.G.!.^.iXjXSXLXUXUXUXUXUXUXUXDXSXzXzXzXxXxXxXzXhXpXpXiX(.yXiX^./.zXxXDXLXUXUXUXUXUXUXUXUXUXUXUXUXUXUXUXUXUXUXUXUXUXUXUXUXUXUXUXUXUXUXUXUXUXUXUXUXUXUXUXUXUXUXUXUXVXuXU.n.B.A.[.+X#X<X<X>X.X|..X>X6XbXBXJXJXmXeXeXMXx.n N.C.F F D Z Z C ~ ^ ~ C ( XXnXrXwXrXvXBXHXHXJXIXIXUXrXG Z H ( PXPXJXcX",
"#X<X<X1X1X1X1X1X3X2X1X1X1X1X1X<X<X>X>X}.{.{..X{.{.{.{.{.{.{.}.'.z.v. . .~.^.iXjXzXLXUXUXUXUXUXUXDXkXhXhXhXkXzXzXzXhX).iXhXiXpXpXhXiXiXxXSXGXLXUXUXUXUXLXUXUXUXUXUXLXLXUXUXUXUXUXUXUXUXUXUXUXUXUXUXUXUXUXUXUXUXUXUXUXUXUXUXUXUXUXUXUXKXlXuXU.~ ( XX0X+X#X#X2X1X>X,X6XbXBXHXHXvXeXnXmXaXMXz.n N.C.S S S V Z H ~ ~ ~ ^ A C b.eXmXvXHXHXHXJXIXUXPXmXA.V N H D mXUXJX6.",
"<X<X<X<X<X1X2X2X3X3X3X3X3X2X3X2X<X,X>X>X>X.X{.{.{.`.`.{.{..X1X'.l.b.|  .H.~.iXpXlXFXUXUXUXUXUXGXkX).).iXpXhXjXkXhXiX).iXhXhXjXjXjX).kXSXSXLXLXLXUXUXKXSXLXUXUXUXUXGXGXLXUXUXUXUXUXUXUXUXUXUXUXUXUXUXUXUXUXUXUXUXUXUXUXUXUXUXUXUXUXLXFXkXuXm.C C ( A.wXrXcXcXcXbXcXcX}.[.[.XXoXaXmXmXaXMXz.n C.N.S S S V V ~ ^ ^ ^ ) ) ^ A ^ n.XXrXmXHXZXZXmXmXqXn.Z N V B rXUXBX=.",
"@X<X@X<X<X<X<X<X1X1X3X3X3X3X3X3X2X1X1X,X,X>X>X>X>X>X>X>X>X<X<X#Xx.c.} | G.~./.iXpXSXLXUXUXUXLXkX)././.).).iXhXhXhXpXpXhXkXzXzXzXlXpXkXSXGXLXUXUXUXUXKXVXFXLXLXUXLXLXLXGXFXUXUXUXUXUXUXUXUXUXUXUXUXUXUXUXUXUXUXUXUXUXUXUXUXUXUXUXLXSXlXjXkX} C ^ ~ ~ 8.n.N.C.'.'.'.'.'.'.XXoXeXnXmXmXaXmX7.B C.C.S S S B Z ^ ) ) ) 8.c.c.b.8.8.c.b.V.A.A.XXqXqXZ.8.A n M n ].UXe.=.",
"<X<X#X<X<X<X<X<X1X1X1X1X3X3X3X3X3X3X3X3X2X2X2X2X2X1X<X<X,X<X>XcXC.z.c.| v.~.^./.iXzXGXLXLXLXGXiX)././.).)./.iXhXjXhXjXjXzXFXDXDXSXSXAXLXUXUXUXUXUXUXLXAXSXGXLXLXLXUXUXGXFXUXUXUXUXUXUXUXUXUXUXUXUXUXUXUXUXUXUXUXUXUXUXUXUXUXUXUXKXCXkXuXuX^ C ) ) 8.b.B.N.B.A.].].XXXXoXoXeXnXmXmXmXaXmX7.B C.N.m S B B Z ( c.b.b.b.b.m.m.L.L.I.T.R.oXoXoXoXI.n.8.Z h M c B.PX*.=.",
"#X<X<X<X#X<X<X<X1X1X1X3X3X3X3X3X4X4X3X3X3X2X2X1X1X<X>X<X<X<X<X1X[.l.z.} | Y.~.^.iXjXDXGXLXLXDXpXiXiX).).).~.iXjXjXjXjXjXzXSXLXLXLXLXLXUXUXUXUXUXUXUXUXUXLXUXUXLXUXUXUXLXLXLXUXUXUXUXUXUXUXUXUXUXUXUXUXUXUXUXUXUXUXUXUXUXUXUXUXUXFXlXkXuX!.~ ~ ) b.L.T.XX].].XXXXXXXXXXXXeXeXnXmXmXmXmXmXz.B C.N.x B M M Z ) b.b.m.m.m.m.L.I.I.T.R.R.oXoXR.Z.V.n.) C n M c 1._.=.=.",
"@X@X<X<X#X<X<X1X1X2X3X3X3X3X3X3X4X3X3X3X2X1X<X<X1X1X,X<X<X,X1X<XcXN.( } | H.W.~.yXiXCXFXDXLXGXzXjXkXkXjXfX^.Y.G.Y.^.pXfXlXlXVXAXKXKXUXUXUXUXUXUXUXUXUXUXUXUXUXUXUXUXUXUXLXLXUXUXUXUXUXUXUXUXUXUXUXUXUXUXUXUXUXUXUXUXUXUXUXUXKXFXFXgXgX^.m.~ ^ 8.m.I.R.XXT.XXXXXXXXXXXXXXoXeXnXmXmXmXdXmXn.V C.N.x c a h H 7.b.m.m.V.V.V.I.T.T.R.T.T.T.T.I.Z.V.b.) A N h 5 F *.=.=.",
"@X@X@X#X#X<X<X1X1X3X1X3X3X3X3X3X3X3X3X3X<X<X1X<X,X,X,X,X,X,X>X<X2X[.( ) v.F.H.Y.^.~.iXSXSXGXGXSXSXxXSXDXSXzXjXW.P.D.D.P.W.sXgXVXVXKXKXUXUXUXUXUXUXUXUXUXUXUXUXUXUXUXUXUXLXLXUXUXUXUXUXUXUXUXUXUXUXUXUXUXUXUXUXUXUXUXUXUXUXUXAXCXCXgXuXE.^ ~ ^ ) m.I.T.R.XXXXoXoXoXXXoXoXeXeXnXmXmXmXdXdXZ.V N.N.r a a N ^ 8.b.m.V.V.L.L.I.I.T.T.T.T.T.T.T.V.m.c.^ A N y O ;.=.=.=.",
"@X@X@X<X<X<X<X1X2X1X1X1X3X3X3X3X3X3X1X1X<X,X1X,X<X,X,X>X>X,X,X1X<XcXx.~ | G.S.H.~.Y.~.pXzXDXLXGXDXDXGXLXLXLXGXCXyXW.P.D.D.D.P.MXKXAXKXKXLXUXUXUXUXUXUXUXUXUXUXUXUXUXUXUXLXLXUXUXUXUXLXLXLXLXLXLXUXUXUXUXUXUXUXUXUXUXUXUXLXFXCXlXgXuXkXU.C ~ ^ ) V.T.XXoXeXeXeXeXeXeXeXoXeXaXnXmXmXMXdXdXA.V N.x.r p a H 7.8.b.V.L.L.I.L.I.I.I.I.I.I.I.T.T.V.n.c.^ A C i , =.=.=.=.",
"@X@X@X<X<X<X<X1X1X1X1X3X3X3X3X2X2X<X1X<X<X<X,X,X<X<X<X<X>X<X,X,X>XcXC.H ^ G.F.Y.~.Y.Y.^.hXxXDXGXGXGXLXUXUXLXDXFXfXyXW.W.P.P.D.D.W.gXAXKXKXLXUXUXUXUXUXUXUXUXUXUXUXUXUXLXLXUXUXUXUXUXLXGXDXDXDXDXDXLXUXUXUXUXUXUXUXUXUXUXFXVXlXCXgXtXgXm.C ^ ) c.V.T.oXoXeXeXeXnXnXaXaXeXeXaXmXmXMXMXdXmXR.S N.9.0 p s ( 8.b.m.V.L.L.L.L.L.I.I.I.I.I.T.T.T.V.m.c.) A C i v =.=.=.*.",
"@X}.@X@X<X<X<X<X1X1X1X1X3X3X1X1X1X<X1X<X>X>X>X<X<X>X<X<X<X>X>X<X<X#X[.7.A } F.H.Y.Y.~.!.uXjXxXSXDXLXUXUXUXLXDXAXlXiXW.W.yXsXyXW.P.P.W.sXsXMXMXKXUXUXUXUXUXUXUXUXUXUXAXAXAXFXZXKXFXAXAXDXSXSXSXxXxXDXUXUXUXUXUXUXUXUXUXUXZXkXlXlXgXtX!.~ C ^ 8.b.V.T.oXeXaXdXdXmXmXnXaXaXaXaXmXmXMXMXmXMXR.D N.1.0 p M ( c.m.m.V.L.L.I.I.I.I.I.I.I.I.R.T.I.V.m.b.8.~ H x =.=.=.=.v ",
"}.}.@X@X@X<X<X<X1X<X1X1X1X1X1X1X1X2X<X<X<X<X<X>X<X<X<X>X>X>X>X>X>X@X#XC.^ ) v.F.H.Y.~.^.).kXzXzXSXUXUXUXUXUXGXSXCXfXyXW.yXyXsXMXMXMXsXsXOXOXP.P.OXOXMXMXVXZXZXZXZXMXMXgXsXsXyXsXgXaXgXCXCXSXSXxXzXSXLXUXUXUXUXUXUXUXLXLXVXgXlXuX^.jXG.N A ^ 8.b.V.R.oXeXaXmXmXmXmXmXdXaXaXmXmXMXMXMXnXmXoXD N.1.p s V ( b.V.V.L.I.I.T.T.I.I.I.I.Z.T.T.T.Z.V.m.m.b.) ) &.=.=.=.&.8 ",
"}.}.}.@X@X@X<X<X<X<X<X<X1X1X1X1X2X2X1X<X<X<X<X<X>X>X>X>X>X>X>X.X}.@X}.'.x.^ } S.H.~.~.~.).kXkXkXSXUXUXUXUXUXLXSXzXjXpX(.yXyXsXMXVXKXPXPXPXKXAXMXmXsXsXdXmXmXmXdXaXaXMXVXVXVXAXLXUXUXUXFXAXzXSXxXxXSXGXUXUXUXUXUXLXFXFXAXgXgXlXtXtXtXH n H ^ ) c.L.R.oXaXaXdXmXdXmXmXmXmXmXmXMXMXMXmXdXmXoXD C.1.p s D ) b.V.I.I.T.R.T.T.I.I.L.I.I.T.T.T.V.m.b.m.m.z.<.=.=.=.=.v 0 ",
"}.@X}.@X@X@X@X<X<X<X<X<X<X<X<X<X<X1X1X>X<X>X>X>X>X>X>X>X>X@X.X.X}.{.{.'.C.H ~ }  .Y.H.H.iXiXhXzXDXUXUXUXUXUXLXSXzXjXfXiXyXyXsXAXKXPXUXUXUXUXUXUXUXUXUXUXUXUXUXUXUXUXUXUXPXKXPXUXUXUXUXUXDXSXSXSXSXSXGXUXUXUXLXLXAXkXzXkXgXjXuXtXgXZ.h N A ^ 8.b.V.T.oXtXdXMXMXdXmXmXMXMXmXMXMXMXMXmXdXMXqXJ N.F 5 s ^ z.m.V.I.T.T.R.T.I.I.I.I.I.I.I.T.I.V.m.b.V.V.b.-.=.=.=.&.8 0 ",
"}.}.@X@X@X@X@X<X<X<X<X<X<X<X<X<X<X>X>X>X>X>X>X>X>X>X.X.X.X}.}.}.{.{.{.#X+XK A / / [  .F.Y./.hXxXGXLXUXUXUXUXLXDXzXzXjXfXsXyXsXMXKXUXUXUXUXUXUXUXUXUXUXUXUXUXUXUXUXUXUXPXKXLXUXUXUXUXUXUXLXFXSXSXGXDXDXDXDXFXAXCXlXkXkXgXlXkXtX!.uX( h Z A ^ 8.b.m.T.oXtXdXMXMXdXdXdXmXmXmXmXMXMXMXmXdXMXeXJ N.F   s ( c.m.V.I.T.T.R.T.I.I.I.I.I.T.T.T.I.V.m.m.V.Z.<.=.=.=.=.l 0 0 ",
"}.}.@X@X}.@X}.@X<X@X<X<X<X<X<X<X<X<X<X>X>X>X>X>X}..X}.}..X{.{.{.}.}.#X].( k E Q E ] F.F.H.^.).kXDXGXLXLXUXUXUXGXSXzXzXjXfXpXiXsXMXKXPXUXUXUXUXUXUXUXUXUXUXUXUXUXUXUXPXKXUXUXUXUXUXUXUXUXUXLXLXGXGXSXSXzXzXlXlXjXkXkXgXuXiXuX!.!.qXZ N Z ~ ^ ) b.m.T.oXqXdXMXMXdXaXaXdXdXmXmXMXMXMXmXdXMXeXK C.S   h 7.8.m.V.L.T.T.R.R.T.I.I.I.I.T.I.I.I.V.m.m.I.7.=.=.=.=.v 8 0 0 ",
"}.}.}.}.}.}.}.@X@X>X@X<X<X<X<X#X<X<X<X@X>X>X>X}.}.}.{.{.{.}.#X#XA.B.z.C f ! P k E  . . .F.Y.~.).hXkXzXGXLXUXUXLXGXSXSXzXlXfXpXiXgXMXAXKXKXKXPXPXUXUXUXUXUXUXUXUXPXPXPXUXUXUXUXUXUXUXUXUXUXUXUXLXDXxXzXzXjXgXgXkXCXkXuXuX^.^.Y.Y.^.H h N ~ ^ ) b.V.T.oXqXdXMXMXmXmXdXdXmXmXmXMXMXMXmXnXMXeXK C.S   N ) 8.m.m.I.T.R.oXR.T.I.I.L.L.I.I.T.L.V.m.m.I.-.=.=.=.*.8 0 0 0 ",
"}.}.}.}.}.}.}.}.@X@X>X<X<X<X@X@X@X<X#X@X>X>X>X}.{.{.{.#X#X'.x.^ E E f f ! X.P f E Q Q [  .Y.~.).).iXjXSXGXLXUXLXLXLXDXSXzXjXfXpXpXpXgXMXVXAXAXKXKXKXLXKXPXPXPXKXPXUXUXUXUXUXUXUXUXUXUXUXUXUXUXLXCXzXzXzXjXkXgXgXzXtXuX^.Y.^.F.H.).W./ N A ) ) b.V.T.oXqXaXMXMXMXMXdXdXdXdXdXmXmXmXmXnXmXeXK N.V O N ) 8.m.V.I.R.oXoXoXR.I.I.L.L.I.T.I.L.V.m.m.<.=.=.=.=.l 8 0 0 0 ",
"{.}.}.}.}.}.}.}.@X>X>X>X@X>X<X<X>X>X@X@X@X}.{.}.@X+XA.x.~ C k P W I L U ` ! f d f k Q Q { Y.H.~.^.^.iXkXSXGXLXUXUXUXLXLXGXFXzXlXjXfXpXpXfXlXAXVXVXVXVXVXAXKXLXUXUXUXUXUXUXUXUXUXUXUXUXUXUXUXUXLXSXCXSXzXiXjXgXiX^.!.Y.G.H.~.| { K.Q./.H./ ~ ) b.m.T.oXqXdXMXMXMXMXdXdXdXaXaXmXmXMXMXmXdXeXK N.B w N ) c.m.m.L.R.oXoXoXR.I.Z.I.I.I.I.I.L.V.m.7.=.=.=.=.&.8 0 0 0 0 ",
"{.{.{.{.}.}.}.}.@X@X}.@X@X@X<X>X@X@X@X@X{.}.#X[.B.^ C k P P I U I I I ! ! ! - g Q k Q Q  .H.F.F.H.Y.^.iXzXDXGXUXUXUXUXUXUXUXLXFXCXzXpXyXW.^.gXgXfXfXlXAXKXUXUXUXUXUXUXUXUXUXUXUXUXUXUXUXUXUXLXGXGXGXDXzXkXiXpX^.~.Y.Y.G.G.yX} Q K.J.J.Q.(.v._ b.V.I.E.aXdXMXMXMXMXdXdXaXnXaXmXmXMXMXmXdXeX1.l.S p V ) c.m.V.V.T.oXoXE.T.I.I.I.I.I.I.I.L.V.m.-.=.=.=.*.8 8 0 0 0 0 ",
"{.{.{.{.{.{.{.}.}.}.@X}.}.}.@X@X@X}.}.#X#XA.z.A k P P P I I U I I I U ! ` f o f S.P P Q [ [ [ { v.Y.!.^.hXzXSXUXUXUXUXUXUXUXUXUXUXLXKXVXtXtXtXtXtXgXVXKXUXUXUXUXUXUXUXUXUXUXUXUXUXUXUXUXUXLXFXDXDXDXgXiXiX!.).H.Y.H.H.| G.zX_ E H.J.J.J.K.(.Y.G.L.T.E.tXaXdXmXMXMXmXdXaXaXdXdXmXMXMXmXdXeX1.l.S c N ( c.m.V.I.T.E.oXR.I.I.I.I.I.I.I.I.V.V.;.=.=.=.=.l 8 0 0 0 0 0 ",
"{.{.{.{.{.{.{.{.}.}.}.}.}.}.}.{.}.#X'.B.) E E P I I I I I U I I U U T ` ! - - d F.+.k E W Q [ { | H.Y.~.~.^.CXUXUXUXUXUXUXUXUXUXUXUXUXUXUXUXUXUXUXPXUXUXUXUXUXUXUXUXUXUXUXUXUXUXUXUXUXLXLXLXDXSXCXkX!.^.Y.!.!.M.Y.G.| v.jXDXv.f S.K.J.J.J.K.Q.K.H.U.OXtXaXdXmXMXMXmXaXaXaXaXaXmXmXmXdXdXeX1.1.B c N ) 8.b.m.L.T.E.oXR.I.I.V.Z.I.T.T.V.V.<.=.=.=.=.v 8 0 0 0 0 0 0 ",
"{.{.{.{.{.{.{.{.}.}.}.}.}.{.}.[.].B.) E W U U U I I I I U U L I U Y T ` P - d d H.Q.Q k E Q Q [ [  .F.F.F.^.zXLXUXUXUXUXUXUXUXUXUXUXUXUXUXUXUXUXUXUXUXUXUXUXUXUXUXUXUXUXUXUXUXUXUXUXLXGXDXSXzXkXjXjX^.!.!.^.Y.Y.v.c.G.zXDXAXtXk W K.J.J.J.J.J.K.K.W.W.tXtXaXgXgXMXdXaXaXaXaXaXmXmXmXaXdXqXV B c c n ^ ) b.m.V.T.E.oXR.T.I.Z.Z.I.I.I.I.N.=.=.=.=.&.8 8 0 0 0 0 0 q ",
"{.{.{.{.{.{.{.{.{.}.}.{.}.#X].n./ W W ! U U U U U I I U U L I U Y T T ` f - d f H.~.F.P k E C E [ | v.| G.iXgXAXLXUXUXUXUXUXUXUXUXUXUXUXUXUXUXUXUXUXUXUXUXUXUXUXUXUXUXUXUXUXUXUXUXUXSXzXjXpXiX^.uXuX!.Y.!.^.!.G./ U.FXGXzXjXlX_ k H.K.J.J.J.J.J.J.K.W.tXtXaXdXdXdXdXdXaXaXaXdXmXmXmXaXdXR.n B M c M ~ ) b.m.L.T.R.E.R.T.I.I.I.I.I.I.V.-.=.=.=.=.l 8 0 0 0 0 0 q q ",
"{.{.{.{.{.{.{.{.{.{.'.[.A.n./ W ! U Y U Y Y U U U U U U I I U Y Y T T ! - - d k W.H.F._ f k E C v.| [  .Y.^.uXCXFXUXUXUXUXUXUXUXUXUXUXUXUXUXUXUXUXUXUXUXUXUXUXUXUXUXUXUXUXUXUXUXLXCXpXkX^.^.~.H.^.E.Y.Y.^.Y.m.m.I.UXLXSXxXhXpXW.k +.K.J.J.J.J.J.J.J.K.W.tXuXaXdXdXdXaXaXaXaXmXmXmXmXaXdXB.a M c c h H ) c.m.V.T.R.E.R.T.I.L.Z.I.T.I.;.=.=.=.=.v 8 8 0 0 0 0 0 q 0 ",
"{.{.{.{.{.{.{.{.'.'.A.n./ W ! ! Y T T T Y Y Y U Y Y U U I I Y Y T T ` ! - d d Q ~.H.+.F.E k k k v.A / F.H.H.!.jXkXFXUXUXUXUXUXUXUXUXUXUXUXUXUXUXUXUXUXUXUXUXUXUXUXUXUXUXUXUXUXUXSXgXiXjX!.~.H.G.Y.M.M.U.Y.} ) U.ZXUXDXSXSXjX).pX/ W K.J.J.J.J.J.J.J.$.K.K.W.tXsXdXaXaXaXaXaXdXdXdXaXqXdXK s M c c a D ) 8.b.m.I.R.R.T.T.I.V.V.I.I.<.=.=.=.=.v 4 0 0 0 0 0 0 q q q ",
"'.'.{.{.{.'.'.'.A.n._ ! ! ` ` T T T T T T Y Y Y Y Y U U I U Y Y R Y ` P - d d  .H.H.K.~.#.k f Q Q k [  .F.F.~.~.^.CXFXFXKXUXUXUXUXUXUXUXUXUXUXUXUXUXUXUXUXUXUXUXUXUXUXUXUXKXFXGXiXuXiXiXY.~.G.F.U.v.M.v./ E c.VXUXLXGXDXCXjX).pXH.E K.K.J.J.J.J.J.J.%.$.K.K.Y.^.uXaXaXaXaXaXdXdXaXaXtXeXV c M c c s Z ~ c.b.m.V.T.R.R.T.L.V.V.I.1.=.=.=.=.&.4 4 0 0 0 0 0 0 q q q ",
"'.{.{.'.'.'.A.n._ ! ! ` ` ` ` ` ` ` R T T Y Y Y T Y U U I Y Y T R T ` P - d d +.H.K.K.~.~.F.Q E k E /  .v.S.H.Y.^.jXkXlXCXFXLXLXUXUXUXUXUXUXUXUXUXUXUXUXUXUXUXUXUXUXUXUXLXgXkXzX^.!.^.uXU.G.M.G.U.G.v./ A ) uXUXUXLXLXDXzXjX(.iXiXE S.Q.J.J.J.J.%.%.%.$.$.K.K.H.W.tXaXaXaXaXaXdXaXqXaXA.n B B c c s N ~ c.b.m.V.T.R.T.I.V.V.V.N.=.=.=.=.*.8 4 4 4 0 0 0 0 0 q q q ",
"`.`.'.'.A.b.} ! ` ` ` T ` ..` ......R R T T T T T T U I U Y Y T R T ..f - d k F.F.K.K.Q.Y.~./. .k k / [ | v.G.U.^.iXuXpXjXzXSXDXLXUXUXUXUXUXUXUXUXUXUXUXUXUXUXUXUXUXUXLXzXuX^.^.!.Y.^.!.v.M.F.Y.Y.} E ^ G.gXUXUXUXLXLXDXzXjX).(.lX_ _ Q.J.J.J.J.%.%.$.$.$.$.J.K.K.H.W.tXtXtXaXaXqXqXdXl.c B m c c a n H 8.b.m.V.T.R.T.I.V.m.B.*.=.=.=.=.l 4 4 4 5 0 0 0 q q q q q ",
"'.C.A.n._ ! ! ` ` ....................` T T R ` ` ..` I Y Y Y T R T X.f d d E H.F.K.K.~.~.~.~.~.| E / _  .F.v.F.Y.~.uXiXiXlXCXCXFXUXUXUXUXUXUXUXUXUXUXUXUXUXUXUXUXLXCXzXuX^.!.^.Y.U.!.G.v.v.G.v.Q C c.tXCXLXUXUXLXLXGXDXzXjXyX).zXv.W Q.J.J.J.J.%.%.$.$.@.$.J.J.$.$.H.H.W.qXtXaXqXaXeXV c B m B c c h H ) c.m.V.I.T.T.L.V.B.-.=.=.=.=.v 4 4 4 4 5 0 0 0 q q q q q ",
"B.n.} ! ` ` T ` ............o.........` T ........X.T I Y Y Y T R T X.f d d E H.F.K.Q.~./.~.~.^./.v.Q Q Q F.| v.Y.Y.^.^.tXgXzXzXDXLXUXUXUXUXUXUXUXUXUXUXLXLXLXLXFXzXiXuX^.~.Y.^.U.G.Y.H.v.v.c.C ~ R.KXLXLXLXLXUXUXLXGXFXCXjXiX).zXH.E K.J.J.J.%.%.%.%.$.@.@.$.J.%.$.$.@.F.H.W.tXqXdXB.a c M B M c c s Z ^ 8.n.V.I.T.I.L.V.;.=.=.=.=.v 4 4 4 4 4 4 0 0 0 q q q q q ",
"c._ ` ` ` ............o.o.o.o.o.......` ......X.....T U Y Y Y R R T ..P d d W H.F.K.Q./././././.iXY./ E k Q _  .G.H.Y.^.^.^.iXpXSXSXFXLXUXUXUXUXUXUXUXLXSXSXSXSXuXuX^.^.~.~.~.Y.v.v.Y.U./ c.) c.dXUXLXLXLXUXLXUXUXLXFXSXzXjXiXiXjXY.W K.J.J.J.%.%.%.$.$.@.@.$.J.J.%.%.$.$.#.F.Y.E.tXH a M c c c c c h N ^ 8.b.V.I.T.I.I.;.=.=.=.=.v 5 4 4 4 4 4 5 0 0 q q q q q q ",
";.` ` ........o.o.o.o.o.o.o.o.o.........X.X.o.X.....T T Y Y Y R R T ..P d d W K.H.K.~./././.)./.^.^.Y.} k E Q _ v.F.H.~.Y.~.!.^.iXjXzXCXAXKXLXLXUXUXLXAXzXjXjXiX^.^.!.!.Y.H.Y.G.v.F.U.~ A m.tXVXKXFXLXLXUXUXUXUXUXLXFXSXzXjXiXiXkXW.W K.J.J.J.%.%.%.$.%.X.@.$.J.J.J.%.$.$.$.@.#.H.Y.Z s B B c c c c s n H 8.c.m.I.I.I.;.=.=.=.=.&.5 5 4 4 4 4 0 0 0 0 q q q q q q ",
"=.;.......X.o.o.o.o.o.o.o.o.o.o.X.X.o.o.o.o.o.......T T Y Y T R R R ..I d d W K.H.K.~././.).).)././.).).F.Q k k /  .v.Y.Y.H.Y.)./.^.pXpXpXzXSXSXxXkXjXjXpXiXiX).^.^.!.!.U.U.G.v.v.v.~ C Z.dXAXFXAXFXUXUXUXUXUXUXUXLXFXSXzXjXpXiXkX~.! K.J.J.J.%.%.%.$.$.X.$.J.J.J.J.%.%.$.$.$.$.@.K.G.Z n B B M c c c a D 7.c.m.V.I.;.=.=.=.=.&.4 4 4 4 4 4 0 0 0 0 0 q q q q q q ",
"=.=.;.....X.o.o.o.o.o.o.o.o.O.O.O.O.o.o.o.o.o.......R T T Y T R R R ..U d d W W.H.W.~././.(.).).).).~.~.W.W.S.E k k / v.F.F.H.~.Y.Y.^.).uXiXkXhX)./.).).~.^.uX).!.~.Y.^.U.v./ / / ) ) !.lXFXFXFXKXLXUXUXUXUXUXUXUXUXLXSXzXjXpXiXzXW._ K.J.J.%.%.%.%.$.$.X.$.%.J.J.J.J.%.%.%.%.$.$.@.K.H.] N c B B M M a Z ) 8.b.m.;.=.=.=.=.&.4 4 4 4 4 4 4 0 0 0 0 0 0 q q q q q ",
"=.=.=.;.X.X.o.o.O.o.o.o.o.O.O.o.o.o.o.o.o.o...X.....R T R T T R R R ..! d d W W.K.K.~././.(.).iXiX).^.~.Y.~.(.G.Q k k Q [ {  .[ F.H.Y.~.^./.).)./.~.).^.~.^.).~.Y.Y.Y.G.} Q ~ ~ ) I.uXAXlXCXAXKXLXUXUXUXUXUXUXUXUXUXKXAXCXjXiXiXSXU.| K.J.J.%.%.%.%.%.@.X.J.$.%.J.J.J.J.%.%.%.$.$.$.@.$.K.H.~ s B V B n N ~ 8.c.;.=.=.=.=.&.8 4 4 4 4 4 4 0 0 0 0 0 0 0 q q q q q ",
"=.=.=.=.;.X.O.@.O.O.O.O.O.O.O.O.o.o.o.o.o.o.o.o.X.o...T R T T R R R ..X.d d W W.K.K.~./.(.(.).iXiXiX).).^.Y.Y.Y.Y.Y._ Q Q / Q / Q /  .F.H.H.~./.~.~./.~.H.H.G.F.H.G.v.A E C ) m.dXAXVXlXVXVXAXKXLXLXUXUXUXUXUXUXUXLXFXSXCXjXpXpXGXU.+.K.J.J.J.%.%.$.%.O.@.J.$.%.%.J.J.J.J.J.%.$.$.%.$.$.$.K.W.c.n n S B N H 7.-.=.=.=.=.&.8 4 4 4 4 4 4 0 0 0 0 0 0 0 0 q q q q q ",
"&.=.=.=.=.-.+.O.o.o...X.O.O.O.O.O.o.o.o.o.o.o.X.X.O.' T ' R R R R R R X.L d W W.K.Q./.(.(.).).).iXiXyX(.).Y.H.H.U.~.Y.F.v._ Q E k k C E _ }  .F. ./ / _ | } / Q v.} C C ^ m.E.VXFXVXVXCXCXCXAXKXLXUXUXUXUXUXUXUXUXKXFXFXCXjXpXpXGXG.+.K.%.J.J.%.%.@.@.X.@.%.$.%.%.J.J.J.J.J.J.J.%.%.$.$.$.$.$.K.G.A n M N D -.=.=.=.=.&.8 4 4 4 4 4 4 0 0 0 0 0 0 0 0 0 q q q q q ",
"4 &.=.=.=.=.-._ O.@.@.@.O.O.O.O.o.o.o.o.o.o.o.o.X.O...Y ..R R R R R R X.P d W W.K.~./.(.(.).).).iXiXiX).).W.Y.Y.Y.Y.W.W.Y.G.!.^.^.U.} C C Q Q Q C C C ~ ) ) ) c.T.oX0XqXAXVXZXAXCXCXVXVXAXAXFXKXUXUXUXUXUXUXUXUXLXKXFXFXCXlXfXjXSXv.F.J.%.J.J.%.%.@.@...%.%.$.%.%.J.J.J.J.J.J.J.J.%.%.$.$.$.$.@.K.Y.] h x *.=.=.=.=.&.4 4 4 4 4 4 4 0 0 0 0 0 0 0 0 0 0 0 q q q q ",
"4 4 &.=.=.=.=.=.) O.O.O.O.O.O.O.o.o.o.o.o.o.o.o.o.O...Y ..' R R R R R O.U d E W.W.~././.(.).).iXiXiXiXiX).^.W.W.W.W.W.W.^.E.^.uXiXjXuX!.E.U.m.c.c.b.M.U.E.gXdXPXUXUXUXUXUXKXLXAXAXAXVXVXAXAXKXUXUXUXUXUXUXUXUXLXLXLXDXSXlXlXfXlXzX{ K.J.%.J.J.%.$.@.O.` J.$.$.$.%.J.J.J.J.J.J.J.$.J.%.%.$.$.$.$.@.$.K.7.=.=.=.=.=.&.4 4 4 4 4 4 4 0 0 0 0 0 0 0 0 0 0 0 0 q q q q ",
"5 4 4 v =.=.=.=.=.7.O.O.O.O.O.O.o.o.o.....o.o.o.o.O.o.Y ' ' ' R R R R X.` d f W./././././.).).iXpXpXpXiXyX^.~.~.~.W.W.~.^.^.^.^.uXuXuXzXCXlXlXLXDXzXVXAXLXLXUXUXPXUXPXKXKXKXKXAXCXVXVXCXAXFXKXUXUXUXUXUXUXUXLXUXLXKXFXAXCXlXfXzXkX{ K.%.%.J.J.%.@.@.o.O.J.$.@.%.%.J.J.J.J.%.J.J.%.%.%.$.$.$.$.$.$.$.1.=.=.=.=.=.v 4 4 4 4 4 4 4 0 0 0 0 0 0 0 0 0 0 0 0 0 q q q q ",
"4 4 4 4 v =.=.=.=.=.<.@.@.@.O.O.o.o.o.......o.o.o.o.o.' ' ' ' R R R R ..@.f f K.(.~././.).).).iXpXhXpXiX).(.^.~.~.~.W.~.^.^.^.tXuXuXgXgXjXlXAXFXAXFXKXKXKXUXUXUXUXUXUXUXKXKXKXAXVXVXVXVXAXFXKXKXUXUXUXUXUXUXUXLXLXKXAXAXCXCXfXFXE.+.K.%.J.J.J.%.@.@...O.%.@.$.%.%.J.J.J.%.%.%.$.$.$.$.$.$.$.$.$.@.<.=.=.=.=.=.v 4 4 4 4 4 4 4 4 0 0 0 0 0 0 0 0 0 0 0 0 0 0 q q q ",
"4 4 4 4 4 v =.=.=.=.=.;.+.@.O.o.o.o.o.o...X.o.o.o...o.......' R R R R ..@.P d S.)././.(.(.).).iXpXpXpXpXiX).^.^.~.~.W.W.W.~.^.^.uXpXgXlXCXAXKXKXKXUXUXUXUXUXUXUXUXUXUXUXKXAXVXVXlXVXVXCXAXFXKXUXUXUXUXUXUXUXLXLXLXKXFXAXSXAXlXGXG.+.K.%.%.J.%.%.@.@.R @.%.@.$.%.%.J.J.J.%.%.$.$.@.@.@.@.$.$.%.S.;.=.=.=.=.=.v 4 4 4 4 4 4 4 4 4 0 0 0 0 0 0 0 0 0 0 0 0 0 0 q q q ",
"4 4 4 4 5 5 l *.=.=.=.=.=.) O.o.o.o.o.o.o.o.O.O.o.o.o.....o...' ' R R R @.` d ! iX/.(.).).).).iXpXhXhXhXpXiX(./.^.~.W.~.~.~.^.^.tXyXiXjXCXKXUXUXUXUXUXUXUXUXUXUXUXUXUXUXAXVXfXfXfXVXCXCXAXFXKXUXUXUXUXUXUXUXUXLXKXKXFXFXFXAXCXCX .F.J.%.%.%.%.%.@.@...%.$.$.$.%.%.J.J.J.%.%.$.$.$.$.$.$.$.$.8.=.=.=.=.=.*.l 4 4 4 4 4 4 4 4 0 0 0 0 0 0 0 0 0 0 0 0 0 0 0 0 q q q ",
"4 4 4 4 4 4 5 8 &.=.=.=.=.=.<.o.o.o.o.o.o.o.O.O.O.o.O.o...o...' ' R R ` O.@.L P (.).(.).).).iXpXhXjXjXjXjXpXiX).^.(.^.^.^.~.^.^.^.^.yXiXlXKXUXUXUXUXUXUXUXUXUXUXUXUXLXKXVXVXfXgXlXlXVXCXFXKXUXUXUXUXUXUXUXUXLXKXKXKXFXFXDXAXGXuX{ K.J.%.%.%.%.@.@.O.O.J.$.$.$.%.%.J.J.%.%.%.$.$.%.%.$.$.@.<.=.=.=.=.=.&.8 4 4 4 4 4 4 4 4 0 0 0 0 0 0 0 0 0 0 0 0 0 0 0 0 0 q q q ",
"0 4 4 4 4 4 4 4 5 v =.=.=.=.=.-.! ..o.o.o.O.O.@.O.O.O.O.` o.o...' R R ..o.%.I L D.hX).).yXiXiXiXhXjXlXzXzXlXjXiXyX).^.^.^.~.^.^.^.^.^.tXlXFXUXUXUXUXUXUXUXUXUXUXUXKXAXVXVXlXfXlXVXVXCXFXKXUXUXUXUXUXUXUXLXLXKXKXKXKXKXKXKXFXUXU.+.K.J.%.J.%.%.@.@.X.@.%.$.$.%.%.%.J.J.J.%.%.%.%.%.%.%.c.-.=.=.=.=.=.v 5 5 4 4 4 4 4 4 0 0 0 0 0 0 0 0 0 0 0 0 0 0 0 0 0 0 0 0 q q ",
"0 0 4 4 4 4 4 4 4 5 v =.=.=.=.=.=.J o.o.O.O.@.O.O.O.O.O.` X.O.o...' ` ....%.` L W iXpXiXiX).iXiXpXjXzXCXzXzXlXpXyXyX).^.^.~.^.^.^.^.^.tXuXlXLXUXUXUXUXUXUXUXUXUXKXVXVXlXlXlXVXVXVXAXFXKXUXUXUXUXUXUXUXUXLXLXKXKXKXKXLXUXLXKXLXD.H.J.J.J.%.%.%.@.@...@.%.$.%.%.%.%.J.J.J.%.%.%.%.%.$.1.=.=.=.=.=.=.v 5 5 4 4 4 4 4 4 0 0 0 0 0 0 0 0 0 0 0 0 0 0 0 0 0 0 0 0 0 q q "
};
