/* XPM */
static char *bb2cf036d5ce4cacf276d93d8a53d62di5wDYAn9BXVF0aU9[] = {
/* columns rows colors chars-per-pixel */
"177 180 256 2 ",
"   c #0E0B0C",
".  c #331A0F",
"X  c #352416",
"o  c #120F22",
"O  c #161729",
"+  c #1A1B2A",
"@  c #181B34",
"#  c #1D1E3E",
"$  c #222125",
"%  c #28272A",
"&  c #2E2F33",
"*  c #36373A",
"=  c #431E13",
"-  c #47281A",
";  c #542A1C",
":  c #4E321D",
">  c #62321F",
",  c #492C21",
"<  c #562D22",
"1  c #4B3625",
"2  c #573826",
"3  c #4A3A37",
"4  c #673927",
"5  c #6D3A30",
"6  c #38423C",
"7  c #524433",
"8  c #584737",
"9  c #684836",
"0  c #6D4E35",
"q  c #774837",
"w  c #191E4A",
"e  c #2C3843",
"r  c #393C44",
"t  c #141E6B",
"y  c #162172",
"u  c #473D44",
"i  c #3C4347",
"p  c #3D4B55",
"a  c #3D6965",
"s  c #46474A",
"d  c #544B48",
"f  c #4C514B",
"g  c #58544B",
"h  c #454A53",
"j  c #4B4C54",
"k  c #4C4E5B",
"l  c #534D59",
"z  c #4A5457",
"x  c #4D515C",
"c  c #585857",
"v  c #52525C",
"b  c #754F4A",
"n  c #685847",
"m  c #785946",
"M  c #635A58",
"N  c #5D6159",
"B  c #7B6449",
"V  c #68665B",
"C  c #726954",
"Z  c #766959",
"A  c #4E5363",
"S  c #535362",
"D  c #585B64",
"F  c #655C64",
"G  c #725C68",
"H  c #5B6369",
"J  c #556C70",
"K  c #597878",
"L  c #646364",
"P  c #63656B",
"I  c #686868",
"U  c #6B6B6C",
"Y  c #746C68",
"T  c #6D726B",
"R  c #77766A",
"E  c #656B74",
"W  c #6C6C72",
"Q  c #736D74",
"!  c #697478",
"~  c #737374",
"^  c #777877",
"/  c #7B7C7C",
"(  c #85503A",
")  c #885948",
"_  c #8D5950",
"`  c #86664C",
"'  c #886756",
"]  c #976756",
"[  c #897459",
"{  c #967156",
"}  c #A1705C",
"|  c #867967",
" . c #93706D",
".. c #957968",
"X. c #837C78",
"o. c #AA7771",
"O. c #CE6A79",
"+. c #4F8079",
"@. c #59857D",
"#. c #6D8678",
"$. c #7D8279",
"%. c #98846A",
"&. c #878577",
"*. c #8D8A73",
"=. c #84837C",
"-. c #8B8A7D",
";. c #978878",
":. c #AE8D77",
">. c #A78778",
",. c #B4A07E",
"<. c #C18B7F",
"1. c #122291",
"2. c #1428AA",
"3. c #0E23B2",
"4. c #2839AA",
"5. c #3648A8",
"6. c #56679A",
"7. c #697785",
"8. c #797C83",
"9. c #5B68C8",
"0. c #877D84",
"q. c #B57C83",
"w. c #D67989",
"e. c #5B8683",
"r. c #5C8B84",
"t. c #5E9185",
"y. c #668A87",
"u. c #628C85",
"i. c #7C8384",
"p. c #7B8589",
"a. c #64938B",
"s. c #68958A",
"d. c #6B948D",
"f. c #758F91",
"g. c #6A9792",
"h. c #6C9B93",
"j. c #769B97",
"k. c #729C94",
"l. c #6EA198",
"z. c #74A39B",
"x. c #78A59C",
"c. c #768EA8",
"v. c #7BAAA2",
"b. c #7DB0A5",
"n. c #7A86D4",
"m. c #848483",
"M. c #8B8B83",
"N. c #868888",
"B. c #8B8B8B",
"V. c #938C86",
"C. c #908F8C",
"Z. c #94938B",
"A. c #979688",
"S. c #888B93",
"D. c #8A9497",
"F. c #989997",
"G. c #B98888",
"H. c #A89886",
"J. c #AA908F",
"K. c #B89787",
"L. c #BA9796",
"P. c #9DA198",
"I. c #B8A48A",
"U. c #A7A697",
"Y. c #B8A797",
"T. c #B3AF98",
"R. c #8996A8",
"E. c #9B9CA3",
"W. c #B398A5",
"Q. c #8EAAAE",
"!. c #9AA3A6",
"~. c #A5A8A6",
"^. c #A4ABAC",
"/. c #B4B2AC",
"(. c #A5ADB1",
"). c #C3898B",
"_. c #C4968B",
"`. c #C68C93",
"'. c #D78898",
"]. c #C79798",
"[. c #D2979D",
"{. c #CEAA97",
"}. c #C7A898",
"|. c #C9B39A",
" X c #CB9BA4",
".X c #D79BA5",
"XX c #E996A8",
"oX c #C8A8A7",
"OX c #D6A8AA",
"+X c #C9B5A8",
"@X c #D7B7A8",
"#X c #C9AAB4",
"$X c #DAABB4",
"%X c #CBB6B6",
"&X c #D9B7B7",
"*X c #D4BCBB",
"=X c #E6AFB0",
"-X c #E5AAB5",
";X c #E7B7BA",
":X c #E4BCBD",
">X c #BDC2AE",
",X c #CECCB4",
"<X c #D8C4BB",
"1X c #E5C3BB",
"2X c #E1DCBE",
"3X c #E3E3BF",
"4X c #A9B5C7",
"5X c #CFBAC6",
"6X c #D9BBC3",
"7X c #E6BBC4",
"8X c #ECBDC3",
"9X c #F4BAC8",
"0X c #F7B9CE",
"qX c #B6C7CF",
"wX c #BFC5E9",
"eX c #DCC4C3",
"rX c #D4CFCE",
"tX c #DAC8C8",
"yX c #DBD4D5",
"uX c #EBC2C4",
"iX c #E7C8C7",
"pX c #ECC4CA",
"aX c #E3CCCB",
"sX c #F4C7CB",
"dX c #E7D3CC",
"fX c #F3D3CC",
"gX c #E9CAD5",
"hX c #F4CCD3",
"jX c #FACBD5",
"kX c #E3D4D4",
"lX c #E8D8D9",
"zX c #F5D3D4",
"xX c #F6D7D9",
"cX c #FBD4DB",
"vX c #FCDADD",
"bX c #E9E6C8",
"nX c #F2EBD8",
"mX c #D1D8E4",
"MX c #E8CFE3",
"NX c #EADAE3",
"BX c #F7D9E6",
"VX c #FDDDE2",
"CX c #DBE7E8",
"ZX c #ECE3E4",
"AX c #ECE6E9",
"SX c #F3E4E6",
"DX c #FDE3E5",
"FX c #FEE5EA",
"GX c #F2EBED",
"HX c #FEEAEC",
"JX c #F7ECF1",
"KX c #FEECF2",
"LX c #F1F3F0",
"PX c #FDF2F4",
"IX c #F9F6F6",
"UX c #FEFEFE",
/* pixels */
"3.3.3.3.y + + + + + + + + + + + + + + + + + + + + + + + + + + + + + + + + + + + + + + + + + + + + @ t 1.3.3.3.3.3.3.3.3.3.3.4.6.6.8.m.B.P.~.U.F.F.F.F.A.V.X.m.C.F.F.P.Z.Z.U.Z.V.=.R &.-.V.F.~.~.U.P.U.U.U.U.F.A.U.U.H.V.X.R X.-.V.V.V.V.B.7.6.4.3.3.3.3.3.3.3.3.3.3.1.y w # # # # # # # # # # # # # # # # # # # # # # # # # # # # # # # # # # # # # # # # # # # # ",
"3.3.3.t + + + + + + + + + + + + + + + + + + + + + + + + + + + + + + + + + + + + + + + + + + + w y 3.3.3.3.3.3.3.3.3.3.5.6.E.U.F.M.0.X.M.F.U.F.A.A.F.A.A.V.X.X.V.Z.F.F.Z.F.F.V.M.X.R &.-.V.H.T.~.U.U.U.T.U.U.Z.Z.U.U.A.V.X.| X.&.M.V.V.V.V.V.A.U.D.6.5.3.3.3.3.3.3.3.3.3.3.1.w # # # # # # # # # # # # # # # # # # # # # # # # # # # # # # # # # # # # # # # # # # ",
"3.2.w + + + + + + + + + + + + + + + + + + + + + + + + + + + + + + + + + + + + + + + + + + w 1.3.3.3.3.3.3.3.3.3.5.7.E.~.~.~.F.Z.N.X./ m.F.U.A.A.A.A.A.A.;.R X.-.-.F.F.Z.F.F.&.-.X.^ =.-.A.H.T.T.U.U.U.T.U.U.Z.Z.P.F.Z.-.X.^ X.M.M.B.C.C.V.V.A.P.P.M.M.m.6.5.3.3.3.3.3.3.3.3.3.1.t # # # # # # # # # # # # # # # # # # # # # # # # # # # # # # # # # # # # # # # # ",
"1.# + + + + + + + + + + + + + + + + + + + + + + + + + + + + + + + + + + + + + + + + + t 2.3.3.3.3.3.3.3.3.5.6.!.~.U.U.~.U.Z.X.V.X.Y Z M Z R Z Z | | | | Z n Z | C | V.&.V.;.X.X.X.^ =.M.V.P.T.T.U.U.U.U.U.U.Z.Z.P.A.V.-.X.R X.=.M.M.V.V.V.V.V.F.U.B.N.M.=.V.A.7.5.3.3.3.3.3.3.3.3.2.y w # # # # # # # # # # # # # # # # # # # # # # # # # # # # # # # # # # # # # ",
"@ + + + + + + + + + + + + + + + + + + + + + + + + + + + + + + + + + + + + + + + + t 2.3.3.3.3.3.3.3.4.6.S.Z.F.P.~.U.Z.&.n 8 g n n 2 2 1 - - - - : 8 8 7 1 3 8 8 8 0 n n m [ [ R Y Z R &.;.F.T.T.U.P.U.U.U.U.Z.Z.F.Z.B.&.X.R X.m.M.M.M.M.V.V.A.F.U.B.M.M.m.V.;.T.2XB.6.5.3.3.3.3.3.3.3.2.y w # # # # # # # # # # # # # # # # # # # # # # # # # # # # # # # # # # # ",
"+ + + + + + + + + + + + + + + + + + + + + + + + + + + + + + + + + + + + + + + t 2.3.3.3.3.3.3.3.4.R.~.F.C.Z.Z.U.~.Z.M X . X , - - - - - - ; - : 2 2 2 1 1 1 1 1 2 8 8 8 9 0 n n n 9 n C C X.;.V.-.A.P.U.U.P.Z.Z.F.Z.M.&.X.R / m.M.M.M.M.V.M.V.F.P.M.M.M.=.T.,XnXnXH.;.nX(.9.3.3.3.3.3.3.3.2.y # # # # # # # # # # # # # # # # # # # # # # # # # # # # # # # # # # ",
"+ + + + + + + + + + + + + + + + + + + + + + + + + + + + + + + + + + + + + t 2.3.3.3.3.3.3.3.5.p ^ /.F.Z.V.V.A.A.Z 8 X . X - - - - - - : > 2 9 9 9 9 8 7 2 1 1 1 , , , 1 2 2 7 7 2 1 2 8 0 C R &.-.V.A.U.U.P.Z.Z.F.A.M.-.&.R / m.M.N.M.V.V.V.Z.F.F.M.M.=.R dXnXnXnX;.;.bXbXdX/.6.3.3.3.3.3.3.3.2.t # # # # # # # # # # # # # # # # # # # # # # # # # # # # # # # # ",
"+ + + + + + + + + + + + + + + + + + + + + + + + + + + + + + + + + + + w 1.3.3.3.3.3.3.2.6.!.B.s U ~.F.C.V.V.| n X . . - - ; - - - 2 2 2 9 9 0 9 9 9 8 7 2 2 7 2 1 : - - , , 1 - - - 1 2 8 n Z *.&.*.V.P.P.F.C.Z.F.F.V.-.X.R X.m.m.M.B.C.V.Z.Z.P.F.B.M.&.R 2XnXnXnX;.A.nXbXbX,XA.F.9.2.3.3.3.3.3.3.1.t # # # # # # # # # # # # # # # # # # # # # # # # # # # # # # ",
"+ + + + + + + + + + + + + + + + + + + + + + + + + + + + + + + + + w 1.3.3.3.3.3.3.2.6.E.~./.M.d F V.V.0.| n 1 - . = < < < < ; ; < 2 9 8 2 2 2 2 2 2 2 2 1 1 2 2 1 1 - , - X X X X X - , , - , 8 n C *.P.F.Z.M.V.F.F.V.-./ R X.M.M.M.C.Z.Z.Z.Z.P.F.B.M.-.R ,XnXnXbX*.H.bX3XbX2XA.U.2X,Xn.2.3.3.3.3.3.3.1.w # # # # # # # # # # # # # # # # # # # # # # # # # # # # ",
"+ + + + + + + + + + + + + + + + + + + + + + + + + + + + + + + + y 3.3.3.3.3.3.3.6.E.~.~.~.~.=.8 n Z n 8 , - - ; ; 2 2 2 < < < ; < < , ; - - - - - ; < , - - - - - - - - - X X X - X X - , , - , 2 3 d | V.M.=.B.F.F.C.=.X.^ X.M.M.M.B.V.V.Z.Z.P.F.M.M.-.R ,XPXnXbX*.I.bX3XbX,X-.T.dX2XbXyX6.3.3.3.3.3.3.3.y # # # # # # # # # # # # # # # # # # # # # # # # # # # ",
"+ + + + + + + + + + + + + + + + + + + + + + + + + + + + + + w 1.3.3.3.3.3.3.5.E.~.~.!.!.F.F.X.d 2 , X . = - ; < 2 < < < < 2 < ; - - - - - - - - ; < 2 : - - - - - - - - - - - X - , , 1 1 1 1 2 7 3 1 2 8 Z X.M.F.A.M.=.X.^ X.m.M.M.B.B.V.Z.Z.P.F.M.N.m.$.U.nXnXnX;.T.nXbXnX,X*.T.bXbXbXnX,X/.n.3.3.3.3.3.3.2.t # # # # # # # # # # # # # # # # # # # # # # # # # ",
"+ + + + + + + + + + + + + + + + + + + + + + + + + + + + + y 3.3.3.3.3.3.5.c.~.~.^.~.!.F.F.F.| 3 - . . . = ; : < ; - - - - - - = = = - - - ; ; ; < 2 4 2 < < ; : ; ; ; ; - - , - , 1 1 1 1 1 , 1 2 7 7 2 2 8 C R B.Z.M.=.X.~ / m.m.N.M.B.V.C.Z.F.F.M.m.=.-.-.bXPXnX*.,XnXbXnX2X;.T.bXbXbXnX,X,XIXmX9.3.3.3.3.3.3.1.w # # # # # # # # # # # # # # # # # # # # # # # ",
"+ + + + + + + + + + + + + + + + + + + + + + + + + + + w 2.3.3.3.3.3.2.6.C.F.~.~.~.~.F.F.X.C 9 - . . = = ; ; - - - X = = = . . . = = - - - ; < < 4 4 4 4 4 2 : 2 2 2 2 1 : : : 1 1 1 2 2 2 1 , - - : 2 7 8 9 0 C | -.-.&.X.~ / m.m.N.M.B.B.C.Z.F.F.N.-.=.-.-.,XPXnX%.T.nXnXbX2X;.T.bXbXnXnX,X,XIXUXUX4X4.3.3.3.3.3.2.t # # # # # # # # # # # # # # # # # # # # # # ",
"+ + + + + + + + + + + + + + + + + + + + + + + + + + y 3.3.3.3.3.3.5.S.C.C.F.~.^.~.F.Z.| 8 - ; = . . = - < - . . . . . . = = . = = - - ; ; > 4 4 q q q q q 0 0 9 9 0 9 9 7 2 2 2 2 2 2 7 7 7 2 : - - , 1 8 0 m B Z &.&.&.X.R ^ =.m.N.M.B.B.C.Z.F.F.-.-.=.-.A.T.nXnX%.,XnXnXbX,X*.T.2XbXnXnX2X2XIXUXUXUXyXn.3.3.3.3.3.3.y # # # # # # # # # # # # # # # # # # # # # ",
"+ + + + + + + + + + + + + + + + + + + + + + + + w 1.3.3.3.3.3.4.A ^ C.C.C.F.F.~.F.Z.V.8 - ; - . . = - - - . . . . . . . = = = = = - ; < < 2 4 9 q q ` ' { ' ' ` ` ` ` m m 0 0 0 9 9 2 2 8 8 8 3 1 , - - 1 8 n B Z | | | R R ^ X.m.N.N.B.B.B.Z.F.F.m.N.=.M.A.H.bXnX%.2XnXnXbX,X-.T.bXbXnXnXbXbXUXUXUXIXZXUXwX5.3.3.3.3.3.1.w # # # # # # # # # # # # # # # # # # # ",
"+ + + + + + + + + + + + + + + + + + + + + + + t 3.3.3.3.3.3.5.Q F Q B.C.C.F.F.F.Z.V.Y , ; < - . = - ; < - . . = - - = . = = - - - = - < < < 2 9 0 0 m ` ' [ [ ..%.%...' ` ` { ` ` q 0 0 9 8 3 1 1 1 1 1 , 1 7 n B [ | | Z Y R X.=.M.N.N.B.C.B.F.F.m.m.=.M.A.A.,XnX*.2XnXbXbX,X;.T.bXbXnXPXbXnXUXUXUXUXlXIXUXUXn.3.3.3.3.3.3.t # # # # # # # # # # # # # # # # # # ",
"+ + + + + + + + + + + + + + + + + + + + + + y 3.3.3.3.3.4.6.F Q F Q B.C.C.F.F.0.| ' d - - - = - < 2 2 < - . = - - - - - - - - - - - = - < < 2 2 2 9 0 0 m m B [ [ %.%.` 0 B [ ` ` ` ` B m 0 8 - - 1 1 1 : , 1 7 9 m [ | Z C R ^ =.=.m.N.B.C.C.F.F.M.=.=.&.A.A.T.bX&.,XnXbXbX,XA.,XbXbXnXPX,XbXUXUXUXUXrXAXUXUXUX4X4.3.3.3.3.3.1.# # # # # # # # # # # # # # # # # ",
"+ + + + + + + + + + + + + + + + + + + + # 1.3.3.3.3.3.5.~./ L Q F Q N.B.M.M.V.C 3 1 , - - - - < 2 2 , - = = = - - ; ; ; ; < ; ; ; ; - ; < < < , , 1 - - ; 1 7 9 0 0 B m 0 0 0 0 0 B B ` ' B n 2 - - : 1 1 1 1 1 1 2 0 B C C C R X.m.m.M.B.B.B.F.Z.m.=./ =.V.H.A.I.&.bXnXnXnX,XH.,XbXbXnXPX,X,XIXUXUXUX/.lXUXIXUXyX/.n.3.3.3.3.3.1.w # # # # # # # # # # # # # # # ",
"+ + + + + + + + + + + + + + + + + + + w 2.3.3.3.3.3.6.~.~.m.H W L W m.N.&.| n , X - - - - - ; < < , - - - - - - ; ; ; ; ; ; ; < < 2 : : < 2 < , - - - - - , < : 2 2 9 9 9 9 9 9 7 7 9 0 [ [ B 8 , 1 - - : 1 1 1 1 : 7 0 0 n C Z X.=.X.M.M.M.B.F.Z.m.m.$.=.V.F.A.*.&.bXnXnXbX,X;.,XbXbXnXPX2X2XUXUXUXUX%XLXUXUXUXrX/.UX4X3.3.3.3.3.2.t # # # # # # # # # # # # # # ",
"+ + + + + + + + + + + + + + + + + + t 3.3.3.3.3.4.R.~.~.~.m.H ~ I Y m.m.X.Z 3 - - = = = - < < ; ; - - - , ; ; ; ; < < ; ; ; ; < < < < < < < < < , , - - - , - : 1 1 2 2 2 7 7 2 2 2 2 2 9 Z B 9 2 1 - X - 1 1 1 - - 1 7 9 0 n Z Y R X.=.m.M.M.F.Z.m.m.$.=.V.F.A.*.*.nXnXbXbXT.-.,XbXnXnXPXbXbXUXUXUXIXZXUXUXUXUXtX/.UXUXmX5.3.3.3.3.3.t # # # # # # # # # # # # # ",
"+ + + + + + + + + + + + + + + + + t 3.3.3.3.3.5.E.!.~.!.~.N.V T L I m.C.Y 3 - - - = = = ; < ; - - - ; ; ; ; ; ; ; > 2 < < < ; ; : < 2 2 2 2 2 < ; - - - , , - - , , < 2 2 2 8 2 ; ; 2 < : 2 9 9 9 2 , X - 1 1 1 - X , 1 8 8 n n n Z R X.=.=.M.Z.B.=.=.=.=.V.A.A.&.&.bXbXbXbXT.;.,X2XbXbXnX,XyXUXUXUXUXZXUXUXIXUX/./.UXUXUXIX9.3.3.3.3.3.y # # # # # # # # # # # # ",
"+ + + + + + + + + + + + + + + + y 3.3.3.3.3.6.F.E.!.~.~.~.C.M V M M Y Y 3 - - - - = - - ; ; - - - - ; ; ; ; ; ; > < 2 2 2 < < ; ; ; > 2 4 9 9 4 < ; < 1 1 1 2 2 , , , 2 2 8 9 9 9 2 : 2 2 : 2 7 8 7 : X - , 1 1 - X X 1 2 7 8 n n C Y R ^ =.-.Z.B.$.=.=.-.V.A.;.&.&.bXbXnXrXT.H.,X2XbXbXnX,XbXUXUXUXUXJXUXUXUXUX~.tXUXUXUXUXnXR.3.3.3.3.3.1.# # # # # # # # # # # ",
"+ + + + + + + + + + + + + + + 1.3.3.3.3.3.6.F.F.E.~.~.~.U.M.M n 8 8 8 1 - ; ; - - - - < ; ; - - ; ; ; ; ; < < 4 4 4 4 4 4 4 < < < < 2 2 4 4 0 0 5 2 2 1 2 2 2 2 2 2 2 2 2 9 9 9 0 0 9 7 2 2 2 1 2 7 1 - - - - , - X X , 1 7 7 8 n n n V Y X.-.Z.B.m.$.=.&.V.A.;.R &.bXnXnX,XU.A.T.,XbXbXrXT.nXUXUXUXUXZXUXUXUXUXJ.tXUXUXUXIXnXnX(.3.3.3.3.3.1.# # # # # # # # # # ",
"+ + + + + + + + + + + + + + 1.3.3.3.3.2.c.~.F.E.E.!.!.!.Z.| n 8 1 , ; < < < ; ; = - ; < < ; ; ; ; ; ; < > > > 4 4 4 5 4 4 4 4 < < < 2 2 4 4 9 0 q 5 2 2 2 2 2 2 2 9 9 9 4 4 0 0 0 0 m 0 9 2 2 2 7 7 1 : , - X - , X X X : 1 1 7 8 8 8 n Y X.=.Z.M.i.=.$.=.M.A.-.R X.H.U.T.U.A.A.T.T./.+X/./.,XyXIXUXLX/.UXUXUXUX-./.UXUXUXLXnXbX2X4X4.3.3.3.3.1.w # # # # # # # # ",
"+ + + + + + + + + + + + @ 1.3.3.3.3.4.R.^.~.E.F.E.!.!.P.A.Z 8 1 , - = ; 2 2 ; - = ; ; < ; ; ; ; ; ; > > > > 4 4 4 4 5 5 5 4 4 < < < < 2 4 9 9 0 q q 9 4 2 2 2 2 2 2 9 9 9 9 0 0 0 0 0 0 9 9 2 2 8 8 2 : , - X - - X X X : 1 1 , 1 3 8 n Y R =.B.M.$./ $.m.M.V.-.R =.A.P.U.F.V.V.P.U.U.T.T.T.,X,XLXUXZXU.UXUXUXUXV./.UXUXIXnXbX2X,X,X~.4.3.3.3.3.1.w # # # # # # # ",
"+ + + + + + + + + + + @ 1.3.3.3.3.5.E.^.^.~.E.F.F.!.P.F.Z.Z 3 , - X X ; < ; - = = ; < 4 < < < > > > > > 4 4 4 5 q 4 4 4 4 4 4 4 4 4 < < 4 4 9 0 0 0 0 9 9 4 4 2 2 2 2 0 0 9 0 m m 0 0 0 9 9 9 7 9 9 9 2 : - - - - - - X , 1 1 - , 1 7 n Z Y &.B.N.$./ $.=.M.M.&.R X.A.H.U.Z.M.M.F.U.U.T.T.T.,XlXUXUXZXtXUXUXUXUX~.,XUXUXUXIXnXbX2X2X,X/.4.3.3.3.3.1.w # # # # # # ",
"+ + + + + + + + + + @ 1.3.3.3.3.5.!.^.^.^.~.E.F.F.!.F.C.m.Z 1 , X . . ; < ; = = ; ; < 4 4 > > 4 > > 4 4 5 5 q q q 5 4 4 4 5 q 9 5 5 4 2 < 4 5 9 9 0 0 0 0 0 9 9 9 9 4 9 0 b n B B B B 0 9 9 9 9 0 0 0 9 2 1 1 1 1 2 : - - - , - , 1 1 8 M Z ^ M.N.m./ / =.-.M.&.Y X.Z.F.F.Z.B.M.Z.P.U.U.T.U.%XIXUXUXZXrXUXUXUXUX/.yXUXUXUXIXnXbX,X,X+X+XV.4.3.3.3.3.1.w # # # # # ",
"+ + + + + + + + + + 1.3.3.3.3.5.^.~.^.(.^.^.!.E.F.F.F.M.Y n 1 - = . = - ; ; - ; ; ; 4 4 4 4 4 4 4 4 4 5 5 5 5 5 5 4 4 4 4 5 q q q q 0 4 > 4 4 4 9 9 9 0 0 m q 0 0 0 0 9 0 m m B [ [ [ ` 0 0 9 0 0 0 0 0 8 2 1 1 1 8 2 : 1 - - , , , , 1 8 M T m.m.i.^ / / =.-.&.Y X.Z.F.F.Z.M.M.A.F.U.T.T.U.,XUXUXUXlXrXUXUXUXUX/.AXUXUXUXIXnX2X,X,X+XT.*.*.5.3.3.3.3.1.w # # # # ",
"+ + + + + + + + + 1.3.3.3.3.5.~.~.~.~.^.^.~.!.F.F.F.F.Z.Y n 1 - = = - ; ; ; ; ; 4 4 5 5 5 5 5 5 5 5 5 q q 5 5 5 4 4 4 4 4 4 4 q q q 0 0 9 4 4 4 9 9 9 9 9 m m m m m 0 0 0 0 B B [ [ [ [ B 0 0 0 0 0 B m 9 8 2 2 2 9 9 2 2 1 , 1 , , - , 1 d V / m./ / / / &.-.&.Y X.Z.F.F.Z.M.B.Z.F.U.T.T.T.yXUXUXUXyXrXUXUXUXUXtXIXUXUXUXIXbX,X,X,XT.Y.&.*.U.5.3.3.3.3.1.# # # # ",
"+ + + + + + + + 1.3.3.3.3.5.F.U.~.~.^.^.^.~.!.F.F.F.Z.M.Y 8 1 - = = ; ; > 4 4 4 4 5 q q q q q ( ( ( ( q q q 5 4 4 4 4 4 4 4 4 9 0 0 0 q q 4 4 9 9 0 0 q 9 0 q ` B B m m m m B B B [ %.%.' 0 m B B B B ` 0 9 8 7 9 9 9 7 8 7 1 1 1 , X X , 3 8 V R ^ ^ / / m.-.X.Y =.Z.F.F.Z.N.M.A.U.T.T.T./.AXUXIXUXyXrXUXUXUXUXrXUXUXUXUXIXbX,X,X+XT.Y.X.;.P.C.4.3.3.3.3.1.# # # ",
"+ + + + + + + y 3.3.3.3.4.C.F.P.~.~.~.^.^.^.!.F.Z.B.&.Y d 2 , - ; < < 4 4 4 4 4 q q q q ( ( ( ( ( ( ( ( ( ( q 5 5 5 5 5 5 4 4 4 9 q 0 q q 9 9 0 q m m m m 0 0 m B B ` ` ` ` ` B B [ ;.:...0 m B B B ` [ m 0 9 9 9 0 0 8 8 9 7 2 1 1 , X X 1 1 g T T ^ ^ / =.M.X.Y &.Z.F.F.B.-.M.F.U.U.T././.LXUXUXUXyXyXUXUXUXUXrXUXUXUXUXnX2X,X,XT.T.U.| ;.P.V.^ 4.3.3.3.3.1.# # ",
"+ + + + + + t 3.3.3.3.4.P F.F.P.~.~.^.(.(.^.!.F.B.&.C 8 2 < ; < 2 4 4 4 5 5 5 q q ( ( ( ( ( ) ) ) ) ( ( ) ( q q q q q q 5 5 4 4 5 q q q q q 9 9 m ` ` m m m 0 0 B B m ` { ` ` ` ` [ ;.,.:.B n ' [ [ [ [ ` 0 0 0 0 0 0 0 9 n 0 7 2 1 1 1 , , 1 g I T ^ ^ $.=.-.X.Y M.Z.F.F.B.M.V.U.U./././.>XLXUXUXUXrXyXUXUXUXUXrXUXUXUXUXbX,X,X,XT.T.U.| ;.F.B.^ W 2.3.3.3.3.y # ",
"+ + + + + t 3.3.3.3.2.P I C.F.F.^.^.^.(.^.^.!.Z.V.| n 8 2 2 < 2 4 5 5 5 q q ( ( ( ) ) ) ] ] ] ] _ _ _ ) ) ( ( q q ( ( q q 4 4 4 4 q q q q q q 9 9 ) ` ` ` ` m q 0 0 0 B { { [ [ [ [ %.,.I.;.m ` ..%.%.[ [ B B B B 0 0 m 0 m B 9 7 2 1 1 1 , 1 8 V T ^ ^ / =.-.^ Y M.A.A.F.A.-.A.U.T./.,X,X/.bXIXUXUX/./.UXUXUXGXF.IXUXUXIXdX,X,XT.T.U.H.R V.Z.M.^ U h 4.3.3.3.3.t ",
"+ + + + w 3.3.3.3.2.7.I L C.F.F.~.~.^.^.^.^.F.B.&.Z n 9 2 2 2 4 9 9 q q ) ) ) ) _ _ ] ] ] } ] ] ] ] ] ] ] ) ( ( ( ( ( ( q 4 5 4 4 4 q q q q q 0 0 q m ` ' ' ' ` ` q q m ` ..[ [ [ [ ..>.H.H.[ B %.>.>.%.[ [ [ [ ' B m B 0 B [ B 9 7 2 2 1 1 1 7 n V T ~ ^ =.-.R Y -.A.A././.A.A.T.T.bXnXbX/.bXUXUXUX/.~.UXIXUXLX~.UXUXUXGX2X,X+XT.T.U.A.| V.Z.M.^ I c mX4.3.3.3.3.",
"+ + + # 2.3.3.3.3.6.W I F B.F.F.~.~.^.^.^.^.P.Z.| m 9 9 9 9 5 5 q q ) _ _ _ _ _ ] ] ] ] } } } o.} } } } } ] ( ( ( ) ) ( ( q q 5 4 4 q ) ) ) ) q q q q m ' ' ` ` ` ` ` ) m [ %.[ ..[ [ >.H.U.>.m [ :.I.%.` [ [ [ [ [ B B B B [ [ B 9 7 3 1 1 1 7 g V T T ^ =.&.R Y V.F.F./.,XA.A.,X,XbXnXbX,XIXUXUXUX/./.UXUXUXLX/.UXUXIXdX,X,XT.T.U.U.A.X.M.Z.N.~ P c LXmX3.3.3.3.",
"+ + + 1.3.3.3.3.6.W Q W F B.F.F.~.~.^.^.^.^.P.Z.| m 9 b 9 4 2 q ) _ ] ] ] _ _ ] ] ] } } o.o.o.o.:.:.>.o.} ] ( _ ] ] ] _ ) ( ( q 5 q ( ) ) ) ) ) m q q q ) ' ) m { ..{ ` m ` %.[ [ ..m ' H.H.Y...B >.I.:.[ [ %.%.%.%.[ ` ` ' [ %.B n 9 7 1 1 3 7 d V T T / =.=.^ T Z.F.P./.,XA.A.2X,X2XnX,X/.LXUXUXUX/.rXUXUXUXAX~.UXUXAX,X,X/.T.U.U.P.V.R -.V.m.~ I v yXUX6.3.3.3.",
"+ + y 3.3.3.3.5.W W ~ W F B.F.F.~.~.^.(.^.~.F.B.Y Z b 9 5 2 9 ) ` ` ' _ ] ] ] ] } o.o.o.o.:.<.<.G.:.:.>.} } ] } } } } } ] ( ( ( q q ( ) ` ) ) ( ) ) ( q ( ` { m ` %.%.{ ` [ %.[ [ %...0 ..H.T.I.....I.H...%.%.;.:.;.%.[ [ [ [ [ B m n 8 1 1 7 7 7 V T ~ / =.&.^ T A.P.P.T./.Z.U.2X,X2XnX,X>XLXUXUXUX~.rXUXUXUXyXU.UXIXyX,X/.T.U.U.H.A.;.R &.V.m.~ P j F.UX0.5.3.3.",
"+ t 3.3.3.3.5./ W W Q W F N.F.F.~.~.~.(.^.~.F.V.Z n 9 5 5 9 m ) _ _ ] ] ] ] ] } o.o.o.:.:.).)._._.]._.:.o.} } o.:.:.:.o.} ] ( ( ( ( ) ` ` ) ) ) ) ` ` ) ) ) { { ` ..:.%...%.%.%.[ %.:.[ B ;.I.T.H.%.:.I.:.>.;.;.H.,.:.%.....[ [ ` B m 9 2 7 2 1 7 n Y ~ ^ =.&.R R F.P.U.U./.A.P.,X,X3XnXrX,XIXUXUXUX~.rXUXIXUXrXM.LXbX,X,XT.T.U.U.F.A.-.R m.B.m.~ I c ^.IXY H 4.3.",
"w 3.3.3.3.4.E./ W W ~ W F 0.F.E.~.~.~.^.(.~.F.X.n 2 4 9 9 b m ) _ ] ] ] ] ] } o.o.:.:.).)._.].].[.[.[.:.o.:.:.:.<.<.).:.} } ] ) ) ) ] ] ] ` ` ` ` { { { ` ( ` { { %.>.:.%.%.%.>.%.%.:.%.[ [ >.T.T.;.;.I.I.H.H.H.I.I.I.:.%.%.%.[ ` B B 0 7 7 8 7 8 n V Y ^ &.&.R R F.P.U.U.U.F.P.,X>X,XnX,X,XIXUXUXUX~.yXUXIXUXtX&.nX,X,X/.T.U.U.F.A.V.&.^ M.B.m.~ I c >XrXc I P 2.",
"1.3.3.3.3.c.F.8.E W Q W F 8.E.E.~.~.~.^.^.~.M.C 9 5 9 m m m _ ) ` ] ] ] ] } o.o.G.G.).].].[.[..XOXOX.X).o.G.)._._._._.).o.o.} ] ] ] } } } { { { { { } } { ) ` { %.%.>.:.>.%.>.>.:.>.,.>.%.....I.T.H.>.H.Y.I.I.I.I.T.Y.I.%.>.>.%.' B B B 9 2 9 8 8 n V Y R &.&.R R A.F.P.P.P.A.T.,X,X2XbX,XT.LXIXUXUX~.lXUXIXUX,XM.nX,X,X/.U.P.A.A.Z.V.=.^ M.M.m.~ U c /./.c I I A ",
"3.3.3.3.6.!.F.8.E E W W F X.F.E.~.~.~.^.^.P.X.0 9 9 m ' B m m ) ' _ _ ] } o.o.G.G._.].[.[..XOXOXOXOX{._.:._._.].].].[._.).:.o.} } } } } } } } } } } } } } { { } %.>.:.:.>.%.>.>.:.,.H.:.;.%.%.:.Y.I.:.H.I.Y.I.I.I.|.|.I.>.>.>.;...m B [ B 1 9 n 8 n Z Y R $.&.R R A.P.P.F.P.A.T.,X,X2XnX,X/.nXIXUXUXW.ZXUXUXUX/.&.rX>X/.T.U.A.A.Z.V.C.X.~ m.M.8.Q P H /./.c I I D ",
"3.3.3.5.F.P.F.^ U W W W F Q F.E.~.^.~.^.^.F.Y 9 9 0 B ' m m 0 ) ' _ ] { } o.G.)._.].[.[..XOXOX$X$XOXOX_._._.[..X.X[.[.]._.<.:.:.:.:.o.} } } %.%.%.%.%.%.o.o.o.o.:.:.:.:.:.%.%.%.:.,.I.K.>.>.:.,.I.I.I.H.I.I.I.Y.I.Y.+X|.H.:.:.>.%.` ` ....9 9 n 9 n V Y R R &.Y R Z.F.P.F.F.A.T.,XT.,XbX/./.nXIXUXUXJ.ZXUXIXUXU.| ,X/.T.U.F.Z.A.Z.V.M.X.^ m.M./ Q I P $./ L I I S ",
"3.3.4.S.F.!.E.8.E W W U F ^ F.F.!.~.~.~.~.E.| 9 9 b B m b 9 m _ ' ' { o.o.:.G.`._.].[.[.OXOX$X$X$X$XOX[.].{.OXOXOXOXOX[._._._.<.:.:.:.:.:.:.:.:.:.:.:.:.>.:.:.:.:.,.,.,.K.:.:.:.:.K.I.I.,.>.:.K.I.I.I.I.I.I.I.|.I.I.|.+XY.I.H.:.>.[ ` [ ..Z n n 0 8 g V Y X.X.Y X.Z.F.F.A.A.Z.T.,X/.2XnX,X/.nXIXUXUXH.AXUXIXLXR &./.U.U.U.A.V.V.V.M.M.^ ~ m.M./ W P P i./ H P I D ",
"3.3.6.B.C.!.!.N.W ! ! W F Q F.F.!.~.~.^.(.~.Z.n 9 b m 0 9 b m _ '  ...o.>.G.`.].].[.[..XOXOX$X$X$X$XOX{.[.{.OXOXOXOXOXOX_._._._._.<.,.:.:.:.:.:.:.,.K.K.:.K.K.K.K.K.K._.I.K.K.K.K.K.I.I.}.K.K.I.I.,.K.I.I.I.I.|.}.I.|.+X|.Y.I.H.:.>.[ [ ..[ B n 0 1 7 n Z R R T / Z.F.F.A.Z.Z.P./.T.>X,XT.T.,XrXIXnXZ rXLXrX/.V &.U.P.P.F.V.V.V.V.M.M.X.R =.M./ W H U / ^ L P I D ",
"3.5./ N.C.F.!.m.U W Q Q F Q F.F.~.~.^.^.^.U.-.C b 9 9 9 m m m ' ' ..o.o.:.K._.].].[..XOXOXOX$X=X=X=X@XOX{.OXOX=X=X=X=XOX].{.{.{.]._._._._.,.:.,.K._.K.I.K.K._._._.K.}.}.}.}.}.}.I.I.}.I.}.}.I.}.I.:.:.,.I.I.I.}.}.I.}.|.+X|.Y.I.H.H.%.[ [ %.B 0 8 1 1 d V R R Y / Z.F.F.Z.B.V.Z.F.U.U.P.F.A.U.T.+XT.Y /.,X/.T.I $.F.A.F.A.V.M.M.B.M.-.X.~ =.m./ U H U / T L P I D ",
"4./ / m.B.F.!.m.U W Q Q G Y F.F.~.^.^.^.~.F.*.Z 0 4 2 b ' B ` ' ....o.>.G.K._.].[.[.OXOXOX$X$X=X=X;X=XOXOXOX=X=X;X;X=X=X{.{.@XOXOX{.}.}.{._._._._.}.}.}.}.}.{.{.{.}.}.|.|.|.}.}.I.}.}.I.}.|.}.}.}.,.:.,.I.I.I.}.}.I.I.|.+X|.Y.Y.I.I.:...%.;.B 8 8 1 1 7 n R R Y / Z.A.F.Z.B.V.A.F.U.U.U.H.H.U.T.+XT.R /./.T.F.I / Z.Z.Z.Z.M.-.-.M.M.&.R R =.m./ U H I / W H P P c ",
"6./ / N.C.F.P.i.W W W Q I Y F.F.!.^.^.^.~.F.;.m 9 2 5 _ ' ' ' { ..>.>.G.K._._.].[..XOXOXOX$X$X=X;X;X;X=XOX=X;X;X;X;X;X=XOXOX=X=X@X{.{.{.{.}._.}.}.{.|.|.+X|.{.@X@X|.|.|.|.|.|.|.|.}.|.|.}.|.|.}.{._.,.,.I.}.I.}.}.I.I.|.+X|.}.Y.Y.|.H.%.%.>.[ 8 2 1 1 7 g Y R Y =.B.A.F.B.M.M.V.A.H.U.H.H.A.H.T./.P.Y T.T.U.Z.I / M.M.C.M.-.-.-.M.V.M.R Y X.m./ U L U m.^ L P L c ",
"8./ / N.C.F.!.N.W W Q Q U U C.F.!.^.~.^.~.F.| 8 2 5 b _ ' ' ' ....o.>.:.K._._.].[.OXOXOXOX$X=X;X;X:X;X;X=X=X;X;X;X;X;X;X=X=X;X;X=X@XOXOXoX{.{.{.@X@X@X@X@X@X@X@X@X@X@X@X@X@X@X@X|.|.|.|.|.|.|.}.}.}.I.,.I.|.}.}.}.}.I.|.|.|.|.|.|.|.I.>.;.>.[ 0 8 1 1 7 8 V Y Y =.B.F.F.V.M.M.V.A.H.H.A.A.A.H.U.T.V.V U.T.A.-.V ^ -.M.B.M.-.&.-.V.V.V.Q X.=.m.^ U D U Z.m.D I L c ",
"/ / / N.C.F.!.S.Q W Q Q U I C.F.E.(.^.~.~.Z.C 9 5 9 m ' ' ' ......>.>.G.K._._.]..XOXOXOXOX=X=X;X;X8X:X;X;X;X;X;X;X:X;X:X;X;X;X;X;X;X@X@X@X@X@X@X@X@X@X@X<X@X@X;X@X@X@X@X@X@X,X,X@X|.|.|.|.|.|.|.|.}.,.:.,.|.}.}.}.}.}.}.|.+X+X|.+X,XY.:.>.;.' B 0 2 2 7 8 V Y T $.Z.F.F.V.M.M.V.F.U.U.A.A.A.H.U.T.-.Z A.F.V.=.V R =.-.M.M.N.=.M.V.V.V.Q X.N.m.^ I D U =.^ L I F v ",
"/ / / m.B.F.!.D.W Q Q Q I L C.F.E.(.^.^.~.V.Z 9 9 9 b ' ' ......;.>.>.G.K._._.].[..XOXOX$X=X;X;X;X8X8X:X;X;X:X:XuXuXuXuX1X1XuXuX1X1X:X@X@X@X@X@X@X@X@X<X<X<X1X1X:X&X1X@X@X@X,X,X,X@X|.@X|.|.|.|.|.}._.,.,.}.}.}.}.|.}.}.|.+X+X+X+X<XY.H.H.:.[ ` B 8 7 8 n V Y Y =.Z.F.Z.B.m.M.A.U.U.U.H.A.A.A.H.U.-.Y Z.A.M.^ V R =.&.M.M.=.=.M.B.V.&.Y ^ M.m.^ I D U ^ W P P D l ",
"8./ ^ m.B.F.!.D.U W W ~ U I C.F.E.(.^.^.(.E.&.m b 9 b ' [ ......>.>.>.G.K._._.].[..XOXOX=X=X;X;X8X8X8X:X:X:X1XuXuXsXsXsXsXsXsXuXuXuX1X1X@X@X;X1X1X1X;X1X1X1X1X1X1X1X1X1X@X@X@X@X@X@X|.@X|.{.|.|.{.{._.,.,._.K.I.|.|.|.|.|.+X+XoX+X<X|.H.H.H.| [ [ n 9 n n C Y Y m.Z.F.Z.N.m.B.A.U.U.U.A.A.V.A.H.H.=.T C.-.-.R N ~ X.m.M.m.=.=.M.M.M.X.Y ^ =.m.^ I F U / W D P D l ",
"8.8.^ 0.B.C.E.C.W W U ~ U L B.F.E.(.(.^.(.~.Z.Z 9 5 b ' ..%...;.>.>.G.G.G.)._.].[.OXOXOX=X=X;X8X8X8X8X8X;XuXuXuXsXhXjXjXjXhXhXsXsXsXsXsX1X@X1X1X1X1X1X1X1X1X1X1XiX1X1X1X@X@X@X@X@X@X@X@X|.{.{.|.{.{._.,.,.,.,.,.}.|.|.+X@X@X+X+X@X<X+XH.H.Y.;.[ [ B C C C C Y T =.Z.F.Z.M.m.V.F.U.U.U.A.V.-.;.A.H.X.U N.-.&.T V ~ / m.N.N.m.N.N.M.M.X.Q ^ X.0.~ P D U m.W H H D j ",
"8.8.^ 0.S.F.E.D.~ W W ~ W G B.F.E.^.^.~.(.~.P.Y 9 4 b ' ..%...>.>.G.G.G.).)._.].[.OXOXOX-X;X8X8X9XsX9X8X8XuXsXsXhXjXcXcXcXcXzXhXhXzXfXfXuX1X1X1X1X1XuXuXiXiX1XiXfXfXfX1X1X@X@X@X@X,X@X|.|.{.{.{.|.{._._._.K.,.,.}.|.@X@X@X&X%X+X*X<X+XH.H.T.H.[ | [ Z C C C Y R m.Z.A.Z.M.-.V.F.P.U.H.V.V.M.V.A.A.X.W M.M.=.U L ~ / =.m.m.m.m.M.M.M.X.Y X.X.X.~ I H U / I H H v j ",
"8.8.8.0.S.F.E.F.~ W W ~ Q P N.F.E.^.^.^.^.~.U.| 9 5 B | %.%.;.>.>.>.:.G.).)._.].[.OXOXOX=X;X8X8XsXsXsX9X9X9XsXsXjXzXzXcXvXvXvXxXzXzXzXzXsX1XuXsXiXiXiXfXfXfXfXfXfXfXfXfX1X;X@X@X|.@X@X|.|.{.{.{.|.{._.{.{._.,.,.}.|.@X<X<X<X*X*X*X@XY.H.>.Y.U.%.%.| | Z C Z Y Y N.F.F.Z.N.-.C.A.F.F.A.V.V.M.V.A.Z.^ U N.N.=.U L T / =.M.m.m.m.M.M.-.X.Y ^ X.m.~ P H U T I H H c j ",
"8.8.8.8.B.F.!.F.Q I U W W F m.F.E.^.^.(.^.^.~.X.b b ' ..%.%.>.>.>.>.:.G.).)._.].[..XOXOX;X;X8X8XsXsXsXsXsXsXsXjXcXxXvXvXvXvXvXvXvXxXxXfXfXsXsXsXsXfXfXfXfXfXfXfXzXzXfXfX1X1X@X{.|.@X@X{.{.{.{.{.@X@X{.{.{._._._.}.}.|.<X<X1X<X<X<X+X}.H.>.H.T.;.%.| [ [ C Z Y Y N.Z.Z.B.m.i.M.Z.A.A.V.-.M.;.;.V.Z.^ Q m.m./ U L T ^ =.M.m.m.M.M.M.M.X.T ^ / 0.Q L H U T P P D c j ",
"8.8.8.8.N.C.E.F.^ P W ~ W F 0.E.!.~.^.^.(.^.~.V.b b ' ..;...>.>.>.>.G.G.).)._.].[..XOX$X;X8X8X9XsXsXsXsXsXsXjXcXcXvXvXVXVXDXDXVXVXvXcXzXfXfXfXfXfXfXxXxXxXxXzXzXxXxXxXfXiX1X@X@X|.@X@X{.{.{.@X{.@X@X{.{.{.{._.{.{.{.+X<X1XiXiX<X<X%X}.K.H.H.T.;.%.| [ [ Z C Y T m.B.M.N.i.m.B.Z.A.Z.V.-.-.-.;.V.V.~ T m.m./ P L ~ ^ =.m.m.m.m.M.V.V.X.Y ^ / / W L D I U I D D v j ",
"^ 8./ 8.N.S.E.F.^ W W ^ ~ F ^ E.E.~.^.^.^.^.^.H.n m  .....;.>.>.>.>.G.G.).).`.].[..XOX$X;X8X8XuXsXsXsXhXjXcXcXcXcXvXvXvXVXDXDXDXDXVXvXcXcXvXzXzXzXxXcXcXxXxXxXxXxXxXxXfXfX1X;X@X{.@X|.{.}.@X=X@X@X@X@X{.@X@X@X@X@X@X@X<XiXiXaXeX<X%XoXY.H.H.T.H.;.%.[ Z Z V I ~ m.B.N.N.m.m.M.Z.Z.Z.V.M.&.-.-.V.V.Y U =.=.^ I L ~ / =.=.=.m.M.M.V.M.^ Y ~ / / W L H I U I H D S k ",
"^ 8.8./ N.C.F.F.^ U W ! Q F ^ F.E.~.^.^.(.^.^.F.n Z  ...;.;.>.>.>.>.G.G.).`._.].[..XOX$X=X;X8XuXsXsXsXhXjXcXcXcXvXvXVXvXVXDXDXDXDXDXDXDXvXVXVXvXvXVXDXDXvXvXvXvXvXvXvXzXsXuX;X@X@X@X@X{.{.@X1X@X;X1X@X@X1X1X1X1X;X@X@XiXdXaXaXiX<X*XoXY.H.H.Y.:.%.;.[ Z Z Z U ^ N.N.N.N.m.m.B.B.C.C.B.m.=.-.-.V.B.Q U =.=.~ I L ~ ^ X.M.m.m.M.M.M.&.^ Y ^ / / W L H U U L D D S k ",
"^ 8.8.^ N.C.F.F.8.U W ! Q G Q F.E.^.^.^.(.^.^.F.Z '  .....%.>.>.>.:.:.G._.)._.].[..XOX=X=X;X8XsXsXsXsXjXjXcXcXvXvXvXVXDXDXDXDXFXFXFXDXDXDXDXDXDXDXDXDXDXDXDXDXDXDXDXvXzXzXfX1X@X@X@X@X@X{.@X1X1X1XiX@X;XuXfXiXuX1X:X<XiXdXaXaXiX<X<X+XY.H.H.Y.:.%.%.[ Z Z V U ^ N.N.N.N.i.m.M.C.Z.Z.N.m.=.m.M.V.M.U ~ m.=.~ L I ~ ^ X.m.=.=.m.m.m.=.^ Y ^ X./ W L D I I P D D S j ",
"^ ^ ^ ^ N.C.F.E.8.U W W W G Q F.E.~.^.^.^.^.~.A.Z _ '  .....>.>.>.>.:.G._._._.].[..XOX-X;X;X8XsXsXsXsXsXjXcXcXvXVXVXVXDXDXFXFXHXHXFXHXHXHXHXFXFXHXHXHXHXDXDXDXDXDXDXDXvXvXzXuX;X;X1X;X=X=X1XfXfXzXzXuXuXfXvXxXzXfXiXiXiXdXdXaXaXeX<X+XY.H.U.Y.H.%.%.[ Z Z Y I ^ N.S.S.i.8.m.N.C.Z.F.B.m.m.m.M.B.=.Y R B.M.^ I U ~ / =.m.m.=.m.m.m.0.^ Q ^ 0./ W D D P P P D D v j ",
"i.^ ^ ~ N.C.F.F.8.E E W Q L Q C.E.~.^.^.(.^.~.X.B _ '  . ...>.o.o.o.:.G._.]._.].]..XOX$X=X;X8X9XsXsXsXjXcXcXvXvXVXVXDXDXDXFXHXHXHXHXHXHXHXHXHXHXHXHXHXHXHXHXHXHXHXDXDXDXDXvXjXsXuX1X1X1X1XzXxXvXvXDXvXzXvXDXDXvXxXzXfXdXfXdXaXaXtX<X+XY.H.U.Y.H.;.| | | Y Y I ^ N.S.N.i.8.i.M.C.Z.F.B.=.=.=.M.B.&.I R A.V.^ L I ^ &.V.M.=.=.m.m.m.=.Q U ^ $./ W D F U U L D D v j ",
"i.^ ^ ~ N.C.D.F.p.E E ! ~ P W C.E.^.^.^.^.^.U.| B _ _ '  ...o.o.o.o.q.).]._._.].[.[.OX$X=X;X8X9XsXsXjXcXcXvXvXvXVXVXDXDXFXHXHXHXHXFXHXHXHXHXHXKXKXKXKXHXHXHXHXHXHXHXFXFXFXDXvXxXzXzXfXsXzXDXDXDXFXFXDXDXDXDXDXDXVXvXxXzXfXiXaXaXeX*X+XY.I.Y.T.H.>.| | | R Y U ^ i.N.N.p.i.i.N.M.C.A.B.m.$.$.m.M.m.I ^ U.A.X.V I &.V.V.&.=.X.=.m.m./ Q U ^ $.^ U D H W U P D D v j ",
"N./ ~ ~ m.S.D.D.N.W W ! ~ I I C.E.~.(.^.^.^.~.&.| _ ) '  ...o.} ] o.:._.].]._.].].[.OX=X=X;X;XuXsXsXjXcXcXvXvXvXVXVXDXFXFXHXHXHXHXHXHXHXHXHXHXKXKXPXKXHXHXHXHXHXHXHXHXHXHXFXDXDXDXDXVXvXVXDXDXFXHXHXHXDXDXDXDXDXVXDXvXxXfXiXaXaXeX*X+X|.Y.Y.T.U.;.%.| | | Y U / N.N.N.i.i.i.m.N.C.Z.C.m./ / =.N.m.I R A.-.R M R =.&.&.=.X.=.=.=.=./ Q U ~ / ~ I D H U W P D D v j ",
"N.^ ^ ~ / B.D.D.N.W W ! ~ I I C.E.~.(.^.(.(.~.E.V.m ) ' ] ..o._ ] } :._.]._._.].].[.OX$X;X;X8XuXuXsXjXcXcXcXvXVXVXVXDXFXFXFXFXHXHXHXKXKXKXKXKXKXKXKXKXKXKXKXHXHXHXHXHXHXHXHXHXHXHXHXHXHXHXFXHXHXKXKXHXFXDXDXDXDXDXDXVXxXzXdXaXaXiX*X+XY.Y.Y.T.U.;.%.[ [ | Y U / N.N.m.i./ i.i.N.C.B.B.m.X./ =.M./ I R &.&.~ F U / X.=.=.=.=.=.&.&.X.Y W ^ / / W D D W E P D D v j ",
"S.8.8.~ / B.D.F.N.P W W Q I F B.F.!.(.^.!.(.^.~.J.b b _ ' ] ] _ _ } G._._._.`.`._.[.OX$X;X;XuXuXsXsXsXjXcXcXvXVXVXVXDXDXDXFXFXFXFXHXHXKXKXKXKXKXKXKXKXKXKXKXKXKXKXKXKXHXHXHXHXHXHXHXKXKXKXKXHXHXHXHXHXFXDXDXDXDXDXDXvXxXdXaXaXaXiX@X+XY.Y.Y.T.H.%...[ [ | R Q / N.N.i.8.8.i.i.N.M.B.B.m.0.X.=.M.X.I R &.^ T L U ~ / =.=.X.X.&.&.=.X.Y Y ^ X.^ U D D W E P H v v j ",
"S.8.8.~ / B.C.F.i.U W ! Q I F N.F.!.^.(.^.(.^.~.Z.b b _ _ ] _ _ _ o.G._._._.).)._.[.OX=X;X;X8XpXsXsXjXjXjXcXvXvXVXVXDXDXDXDXFXFXFXFXFXHXKXKXKXKXKXKXKXKXKXKXKXKXKXKXKXHXHXHXHXKXKXHXHXHXHXHXHXHXHXHXDXDXDXDXDXDXDXvXxXfXdXaXaXaXeX+X|.Y.T.T.Y.;...[ [ | | R Q 8.N.N.i.8.8.i.i.N.N.B.B.m.X.X.=.M.X.U ~ X.~ U L I R / =.=.X.X.=.M.=.X.Q Y / / ^ U D H W P P D D v j ",
"S.^ 8.~ ^ B.C.D.N.W U U ~ U F N.F.!.^.(.^.(.^.~.P.n b b ) _ _ ) _ o.G.).].`.).`.].[.OX$X;X;XuXpXhXhXjXjXcXcXvXvXVXVXVXDXDXFXFXFXFXFXFXFXKXKXKXKXKXKXKXKXKXKXKXKXKXKXKXFXFXFXKXKXKXKXHXHXHXHXHXHXHXHXDXDXDXDXDXDXvXxXxXzXdXiXaXaX<X%X+XY.Y.T.Y.;.[ [ [ %.| Y U / N.N.i.8.8.i.i.N.N.B.M.m.X.X.=.M./ U ^ X.~ I V Y R X.=.=.X.m.m.m.X.^ Y T ^ / ~ P D H W E P D D v k ",
"D.! 8.~ ^ N.B.D.N.W U U U U F 0.F.E.(.(.^.(.(.~.^.| 9 b ) _ _ ) _ o.G.`.`.).).).`.[.OX$X=X:XuXuXhXhXcXcXxXcXvXVXVXDXFXFXFXFXFXFXFXFXFXHXKXKXKXKXKXKXKXKXKXKXKXKXKXKXKXKXHXHXHXKXKXKXKXHXHXHXHXHXHXHXHXFXDXDXDXDXxXvXxXzXdXaXaXaX<X*X+XY.Y.Y.H.;.| | | &.X.U W 8.N.N.i.8.8.i.i.N.N.B.N.=.X.X.=.M.^ U ^ / ^ I F U Q X.X.X.X.m.m.m.=.^ Y Y ^ / ^ P D H W W P H D k l ",
"D.^ i.^ ~ N.C.D.N.! W U W U F 0.F.E.^.(.^.(.(.^.^.-.b b b ) ) ) _ o.).).`.).).G.).[.OX$X;X7XpXpXpXfXzXcXxXxXvXVXVXDXFXFXFXFXFXFXFXFXFXHXKXKXKXKXKXKXPXPXKXKXKXKXKXPXKXKXHXHXHXHXKXKXKXKXHXHXHXHXHXHXHXHXDXDXDXDXvXvXzXzXiXiXaXaX<X%X+X|.Y.H.H.;.%.| | | R I ~ i.N.N.i.8.8.8.i.m.B.B.M.=.=.=.=.M.^ U ^ / ~ I F U ~ X.=.X.X.m.=.=.X.^ Y Y / / ^ P D H E E P H D v k ",
"F.^ i.8.^ N.S.D.S.~ W W W U F / F.E.^.(.^.(.(.^.~.;.b b b b b ) ) o.).).`.).q.o.).[.OX$X7XuXsXsXpXsXfXzXcXcXvXVXVXFXFXFXFXFXFXFXFXFXFXKXKXKXKXKXKXPXPXPXPXPXPXKXKXPXKXKXKXHXHXHXHXKXKXKXHXHXHXFXFXHXHXHXFXDXDXvXvXxXfXfXiXiXaXaX<X+X+X+XY.H.H.>.%.%.&.R I L ^ i.N.i.i.8.8.8.i.m.B.B.N.M.m.X.m.m.^ U ~ $.~ I L U ~ ^ X./ / =.m.m.X.^ W W ^ / ^ P D H E E P H D v x ",
"F.8.i.8.~ 0.S.D.S.~ U U U U F ~ F.E.^.(.^.(.(.^.~.V.m b 5 b b b _ o.`.`.).G.q.q._.oX$X&X:XuXpXpXuXuXsXhXzXjXcXvXVXVXDXFXFXFXFXFXFXFXKXKXHXKXKXKXPXPXPXPXKXKXKXKXKXPXKXKXKXKXKXKXKXKXKXHXHXHXHXFXFXFXHXHXFXDXvXxXvXxXfXiXiXiXiXaX<X+XT.+X|.H.H.:.;.*.&.R L P ^ i.N.i.i.8.8.8.m.N.M.M.N.=.=.X.m.m.~ I ~ / T I L U ~ ^ / / / / m.0./ ^ U W ^ / ~ P H H Q W P H D v v ",
"F.i./ 8.Q 8.B.S.N.~ U I U U F W E.E.^.(.^.^.(.^.(.J.b b 5 5 b b _ o._.`.).G.q.G.].OX$X&X:X7X:X:X7X7XuXpXgXhXzXzXxXvXVXDXFXFXFXDXFXFXHXHXHXKXKXKXPXPXPXPXKXKXKXKXKXKXKXKXKXKXKXKXKXKXHXFXFXFXFXFXFXFXHXHXDXDXvXvXxXzXzXdXaXeXeXiX<X+XY.Y.T.U.H.;.;.;.&.T c P ^ p.N.p.i.8.8.8.p.N.N.N.m.=.=.=.m.m.~ U ~ ^ T I L U Q ~ / / / $.X.0./ ^ U W ^ / ~ P D E ! E H H D S S ",
"F.i.^ 8.Q 8.B.B.N.^ I I U U F U E.E.!.^.^.(.(.^.^.V.b 5 4 5 q b _ o.`.`.).q.q.G.].OX$XOX#XOXOX$X$X&X&X:XiXgXgXzXgXzXxXvXDXFXDXDXDXDXDXFXHXHXHXKXPXPXPXKXKXKXKXKXKXKXKXKXKXKXKXKXHXFXFXFXVXDXFXDXDXDXDXDXDXDXvXxXzXfXfXdXaXeXiXeXeX*XI.I.Y.Y.H.;.;.*.=.I c P ^ N.N.p.p.8.8.8.p.N.N.N.N.=.=./ =./ W U ~ ~ T L L U Q ^ X.X./ m.m.m.X.~ Y W / 8.! H D P ! E H H D S S ",
"F.i.^ ^ ~ 8.B.N.N.^ U I W W F W F.E.~.^.^.(.(.(.^.V.d 4 5 5 b b _ G.`.`.).o.o.G.]. X].G.K.L.L.L.L.}.@X&X%X*XaXaXdXhXdXdXxXcXcXcXvXvXvXDXDXHXHXKXKXKXKXKXKXKXFXFXFXFXHXHXFXFXFXHXFXFXFXBXxXxXvXVXDXvXxXlXxXxXxXzXdXfXdXdXaXeXeXiXtX<XY.H.K.U.H.;.;.-.R V c U 8.N.p.p.p.8.8.8.p.N.B.B.m.=.=./ $./ W U ~ ^ U L L Y Y ^ X.=.m.m.=.=./ ~ U Q / 8.! E H E ! E H H D v v ",
"F.N.^ ^ W / B.N.N.^ P I W W F P C.E.!.(.(.(.(.^.~.X.b 5 5 5 q b _ G.`.`.G.o.o.G.K.K.>.>.>.J.J.V.J.J.K.L.K.H.H.Y.oX}.}.oX:XpXpXsXhXzXcXvXVXDXHXKXKXKXKXHXHXFXDXDXVXFXFXFXFXFXFXVXVXVXVXBXxXlXgXkXdXdXaXeXeXaXkXaXdXdXdXdXiXeXeXeXeX<XY.:.:.H.H.;.*.&.T H D E 8.p.p.p.i.8.8.i.N.N.S.B.m.m.m.$.$./ W U ~ ~ W L L T ~ X.X.m.m.m.m.m./ ^ U Q / 8.! E H E ! E P H D v v ",
"F.N.^ 8.~ ^ N.S.N.8.W P W W F F S.E.!.(.(.(.(.^.~.X.b 5 4 5 q b ] G.G.G.o.o.o.o.o...o.o.>.;.;.;.>... .' ' B B ' ' ' ]  .o.].&X:XuXpXhXzXxXvXDXHXKXHXHXHXDXDXVXVXVXvXxXzXzXxXxXxXpX&X1XiXiX<X*X*X%X+X+X+XoX+X*X%XeXaXaXaXiXeX<X<XeX<X}.>.;.>.;.%.X.X.U D D W 8.N.N.p.p.8.8.p.p.N.N.B.m.m.m.=.m.8.U U ^ ~ W L I T R X.X.m.m.m.m.m./ ^ Q Q / i.Q P H E ! E P H D S S ",
"F.S.^ 8.~ ~ N.S.N.8.W U W W F F N.E.!.^.(.(.(.(.E. ._ 5 > 5 b b o.G.).).o.] ] ]  . . . .o.o.......' Z b b b b b Z ' _ ' ] ] o.].OX&XpXsXsXzXvXFXHXHXFXDXDXVXvXvXcXhXuX$XoX+XaXzX&XG.o.o.H.K.K.Y.oXY.L.Y.Y.Y.Y.Y.Y.<XeXeXeX<X*X<X<X<X+X>.%.%.%.| | R U c c ~ i.N.N.N.p.i.i.p.p.N.B.B.B.m.m.m.m.m.U U ^ ^ U L I T ~ X.m.m.m.m.m.X./ ~ U T / / ! H H E ! E P H D S S ",
"F.D.8.8.~ ~ m.N.N.8.Q U U U L F B.E.!.~.^.^.^.~. . .' 5 < 5 b ) o.G.).G.] ( _ _ _ _ ] ]  . . . .[ ' B b b b m m m m b _ '  .o.>.L.@X7X:XuXzXvXDXFXHXFXDXVXvXvXxXhXuX@X}.].K.Y.*XoX>._ _ ' ' '  .;.>.H.H.J.L.L.K.K.Y.%X%X*X*X*X<X<X<X+X;.....| | R T I v v ^ i.N.N.p.i.8.i.p.i.N.N.B.m.m.m.m.m.8.U U ^ ^ U L I T ~ X.m.m.m.m.m.m.X.~ U ~ / / ! H D E ! E P H D S S ",
"F.S.8.^ ^ ~ 8.N.m.8.Q P U U L F 0.E.E.^.^.^.~.J.o.o._ 5 < 5 ) _ o.G.G.G._ ( ) ) ( ) _ ] }  .o. .' ' ' ' ' _ _ ' ' ' ' _ ] o.>.G.L.oXoXoX7XhXvXVXFXHXFXDXVXxXhXuX@X{._.K.K.K.L.oX}.>.' ) _ m m B ' ' ..;.H.H.H.H.H.H.L.Y.Y.+X%X*X<XeX+X;.%.| | R R T H v D ^ p.S.S.p.p.p.p.p.N.N.N.N.m.m.X.m.m.8.U U ^ ^ W L I ~ ^ =.m.m.m.N.N.m.X.^ U ^ m./ ! P H W ^ W E H D S S ",
"D.D.8.8.^ Q 8.N.N.8.~ P P U L F 0.E.E.~.^.~.L.G.q.`.] 5 5 q ) _ o.G.G.q.} _ ] ] } o.o.G.G.].oX#X#X%X*X*X%XoXoXL.J.L.L.G.G.G.G.G.L.}.].oX&XpXcXVXFXHXHXHXDXzXuX@X}._.G.G.L.L.L.Y.Y.L.o.' ' ' _ ' ' ' '  .;.H.H.H.H.H.H.H.H.H.Y.+X<XeX%X>...| Z Z R T H v D ^ p.N.p.p.p.p.p.N.N.B.B.B.m.0.X.0.m.8.U U $./ W L U ~ / =.m.m.N.N.N.m.X.~ Q / m.8.W P P W / ~ P H H D D ",
"D.F.8.^ ^ Q 8.N.N.8.~ P E W P F X.F.E.~.~.W.L.G.).OX] 5 5 5 b _ G.G.G.q.o.o.o.G.`.`.]. XOX&X&XiXaXaXaXtXeX%XoXW.L.J.J.L.L.G.L.L.L.].].OX$XuXhXVXHXHXHXHXFXvXuX@X{.]._.L.].].}.oXoX].].J.q.o. .' ) m m ' ..;.H.>.H.H.H.H.>.;.>.Y.<XeX%X>...| Z C T T L z H ^ p.p.p.p.p.p.p.N.N.B.B.B.m.m.m.m.N.i.U W i.$.W L U ~ $.i.N.N.N.N.N.N.X.~ W / m.8.W P H ~ 8.^ P H H D D ",
"D.F.i.^ ^ W 8.S.N.8.~ P P W U F ^ F.E.~.~.L.`.o.).[.] ) 5 5 b ] G.).G.G.o.o.G.L. X XoXoX@X&X&XoXL.J. .Z b b M M  .q.q.J.G.G.L.].].].].OX$X;XsXvXFXHXKXHXFXVXfXiX&XoX}.}.oXoXoXoXoXoXoXoXoX#X#XoXL.J.>.....>.G.o.;.H.H.H.>... .K.<XeX%XH...[ [ Z Y T L z P 8.p.S.N.p.p.N.N.N.N.B.B.B.N.N.m.i.p.8.E ! i./ W L T ^ i.N.N.N.N.N.N.M.=.~ W / m.8.W H H ! 8.Q P H H S D ",
"F.F.p.^ ^ W ^ N.N.8.~ U I W U F Q F.E.~.W.oX.X[.'.).} _ q 5 b o.G.).).G.G.G.L.].].oX#XoXoX XG. .G G d l s 7.8.S S E.W.J.W.W.W.L.].].[. XOX;XuXcXDXFXHXHXFXDXzXsX&XOXoX+X+X#X#XoX XW.L.L.oX+X<XtXtXtXtXeX*X%X+X}.K.H.K.K.H.>...H.<XeX%XH...Z [ | | 0.Q l W p.S.S.p.p.p.p.N.N.N.S.B.B.M.N.m.i.p.8.E ^ i./ W L T $.=.M.N.N.M.M.N.N.m.~ W / N./ W H H ! i.! P H H S v ",
"F.D.S.! 8.Q ~ 0.N.8.~ U U W W F W F.E.~.#X;X;X-X.X).<.] q 5 ) o.G.).).G.K._.].].].oXoX].G. .' ' 0.0.G S.c.qXqX4Xc.4XMXW.L.#X5X#XL. X XOXOX;XpXcXVXDXFXFXDXDXcXfXuX&X&X&X&X#X#X#X XW.J.q. . .;.J.oX%X%XeXtXaXtXeX%XY.oXY.L.Y.K.Y.<XeX%XH...Z [  .L.&X#XY U p.p.p.p.p.p.p.N.N.S.S.B.M.M.M.N.m.N.8.P ! i.^ U N T / =.N.M.M.N.M.M.N./ ~ Q / i.^ W H H ! i.! E H H S v ",
"F.D.S.! 8.~ Q 8.N.8.~ W I W I F U C.F.W.&X8X;X;XOX[.[.o.5 5 _ o.G.G._._.].].].}.oXoX}.L.o._ _  .#XE.7.R.c.6.7.Q.S.qXAXyX#XW.5X6X#X XoXOXOX=XuXjXcXVXDXDXDXvXzXsXuXiXaXiX6X*X6X*XoXW.J.Q G v l M Y V.W.oXoX#X*XeX6X*XeX*X%X+XoXoX<XeX%XH...[  .>.@XuXdX#XX.8.N.p.p.p.p.p.N.N.S.N.N.M.N.N.M.m.N.^ I ! $.^ I L T / =.N.N.N.M.M.M.m./ ~ ~ / i.^ W H H ! i.! H H H S A ",
"F.D.S.! ^ Q Q 8.N.8.^ W W W U F I C.J.oX8X;X8X8X-X.X-Xq.5 5 ] q.G.).].].oXoXoX#X#X#XoX`.o.] q.W.#X5X8.p.R.c.R.R.R.mXCXMXMX#X#X6X&XoXoXOXOX-X8XsXcXVXVXDXVXvXjXsXpXgXgXgXgXgXeX#XW.5X(.7.f.Q.4Xc.8.G  .J.W./.oXoX*XeXtXtXtXeX%X+X<XeX<XH...[ ..oXiXpXdXgXW.0.N.p.p.p.p.p.N.N.N.N.M.M.M.M.M.N.N.^ I ~ $.^ U L T / =.M.N.N.M.M.M.-./ ~ T / m.^ W H H ! i.~ P H H A A ",
"F.F.D./ ^ ~ U 8.i.8.^ W I W Q F F B.J.&X9X;X9X9XOXOX;X[.) 5 } G.G.].].oXOX$X&X&XOXOXOX].G.G..X$X#X6X/.0.R.!.E.S.5XAXMXgXgX6X$X$X&X$XOXOXOX$X;XsXjXvXVXVXvXcXsXpXpXgXkXlXBXgX&X#XrXAXrXR.Q.Q.c.c.Q.W X.X.;.J.oXoX#X6XtXtXtXeX<X*X<X<X<XH.....>.iXdX:X;X:X%XB.N.p.p.p.p.p.N.N.N.N.B.M.M.M.M.B.B./ I ^ -.=.U N ^ =.M.M.M.M.-.-.-.M.=.Y Q / i.^ P D H ^ i.Q P H H D D ",
"F.D.D.i.^ ~ W 8.8.8.^ Q I U U F F 0.W.sX9X9XsX9XOX-X=XOX] 5 o.G.).].}.OXOX$X:X:X&X$XOX X X X.X$X$X$X$XW.W.W.W.#X5X6X6X6X6X6X6X6X&X$XOXOXOX$X;X8XsXcXvXvXcXjXsXuXpXdXlXxXzX7X6XgXMXAXmX!.Q.R.7.c.R.7.4X5XJ...H.oX%X*XtXtXtXtX<X<X<X<X<XL...[ L.pXuX=X].$X&XC.p.p.p.p.p.N.N.N.N.B.B.M.N.M.B.B.B./ H / U.Z.U N M.A.U.A.C.B.M.M.V.M.=.W Q / i.^ U D H ! i.Q H H H v v ",
"F.D.D.i.^ ~ W 8.8.8.~ Q U I I F F 0.oXsX8X9XsX;XOX-X-X-Xo.) o.G.`.].}.OX@X&X:XuX7X&X$X$X$X$X$X&X$X$X$X6X5X#X6X7X6X6X7XpXgXMXMXMX6X$XOX.X.XOX-X8XsXjXcXcXcXjXsXuXuXpXlXxXpX7XpXgXtXMXMX(.E.(.Q.Q.S.(.yXtXoXJ.o.L.%X<XtXaXaXaXaXeXeXeX<XL...[ oXfXuXuX;X;XpXJ.8.S.N.i.m.m.$.$.=.N.m.m.=.-.-.V.Z.^ c M.,XF.P N P.T./.U.A.C.M.M.B.M.X.U W / $.^ P D H ! ^ W H H H v v ",
"F.D.S.i.^ ~ I ~ 8.^ ~ Q W I I F M X.#XjX8XsXsX-X$X;X;X7X[.) o.`.).].{.OX&X;X:XuX7X7X&X$X&X6X7X7X7X7XgXMXMXgXgXgXgXgXgXgXMXNXNXlX6X#XOX.X.XOX-X8XsXjXjXjXjXjXsXuX8XpXgXlXxXlXgXgX7X7X7X5X/.(.(.E.W.tXtX6X&XOXoXoX&X<XaXdXdXdXdXaXeXeX*XY.....<XxXfXzXhX7XzXJ.M ~ ^ ~ R R R R &.&.&.&.&.&.-.-.A.Y g =.F.V.N N P./.,X/.F.Z.M.M.M.=.^ I U / / ~ P D H E ! U H H D x v ",
"E.D.S.m.^ ~ I Q ^ ~ ~ W U I U P M Q oXhX8XsXsX-X;X9X;X;X]._ o.`._.].{.OX&X;X:X1X7X7X&X&X7X7X7X7XpXgXlXNXBXMXMXMXMXMXMXMXMXMXNXgX#XoX.X.X.XOX-X;XsXjXcXjXjXsXuX8X8XpXgXlXSXSXBXMXgXgXgXgX6X5X5X#X#X6X7X7XpXpX6X6X<XeXaXkXlXdXdXaXiX<X<XoX..J.zXDXvXzXjXuXzXoXM Y Y Y Y R R R | &.*.&.&.&.-.-.V.V g &.*.&.M g Z.U./.U.F.C.M.M.N.$.~ I U ^ / W D v H U ! P D D D z z ",
"E.D.S.p.^ ~ U W 8.^ ~ Q W U U I F Y W.jX9XsX9X;XsXuX;XOXo._ o.]._.[.OX$X;X;X:X:X7X7X&X&X7X7XiXpXgXzXxXBXBXBXBXNXNXMXMXMXMXMXMX6X XOX.X.X.X.X-X;XsXcXcXcXjXjXuX8X8XuXaXgXNXBXBXBXNXBXBXMXgXgXMXgXgXMXBXBXMXlXgXgXaXaXkXlXlXxXxXdXiXeX<X+X .L.VXFXvXcXcX8XhX&XY T R ~ ~ R R R X.&.&.*.&.&.&.&.-.V N &.-.&.V g T &.A.V.M.&.&.=.X.~ W I I ~ ^ U D v H U E H D D D x v ",
"F.D.S.N.^ ^ W I ^ Q Q Q W U P P c G J.7XsXpX8X8XsX8X=X[.o.] o.`.`.].OX$X:X:X:X8X7X7X:X:X7X7XpXgXgXxXBXBXBXBXBXBXBXBXMXMXMXMXgX6X$XOX.X.X.X.X-X;XsXcXcXcXcXsXuX8X8XuXpXgXMXNXBXBXBXNXBXNXNXBXBXBXSXJXJXGXSXBXNXlXlXlXlXlXxXvXxXfXaX<X<X+X .L.vXVXvXcXcX8XhXiXR T ~ ~ ~ ^ ^ ^ &.&.-.&.&.&.&.*.*.V V -.-.&.Z V Y X.&.=.=.=.$./ ^ R U L I T ~ U v x H P U H D D v k k ",
"F.D.S.N.^ W U I ~ ~ Q W W U P P c G 0.#XhX8X7XsXjX8X$X[.).o.o.).].].OX$X;X:X:XuX7X:X7X7X7XiXpXgXlXxXBXBXBXBXBXBXBXBXBXMXMXgX6X$X$XOX.X.X.X.X-X;XsXcXcXcXcXsXsXuXuXuXpXpXgXlXBXBXBXBXBXBXBXBXSXFXFXFXFXDXSXBXxXxXlXlXxXSXvXSXvXfXdXeX<X+X .%XDXVXvXcXcXpXjXzXX.Y ~ ~ ^ ^ / / &.&.&.&.-.-.*.*.*.Z Y -.-.*.Z V R &.&.$.&.&.&.&.$.R T V V Y Y V c l c V L c c l l f j ",
"E.D.S.N.7.! W I ~ ~ ! ! W U I L M F 0.W.uXuX;XsXsX;XOX[.[.`.q.G.].].OX$X$X:X:X7X7X7X7X7X7XpXpXgXzXxXBXBXBXBXBXBXBXBXMXMXgX7X;X$X$X.X.X.X.X.X-X;XsXjXcXcXjXsXuXsXuXuXuXpXgXgXNXBXBXBXBXBXBXBXFXFXFXDXDXDXDXSXxXxXxXxXxXvXvXvXvXxXdXiXeX%XJ.gXHXVXVXcXcXpXcXzXX.Y ~ ~ ^ ^ / $.=.&.-.-.-.-.-.-.-.Y R -.-.&.Y V R &.&.&.*.*.*.&.&.&.R Z V Y V V c g c N N c c g d f s ",
"F.D.S.N.8.! ~ I W ~ W W W W I P F F 0.V.%XpX;XuXuX=X.X[.=X.Xo.G.].].OXOX$X;X;X7X1XuXuXuXpXpXgXzXxXBXBXBXBXBXBXBXMXMXMXgX7X7X;X$XOX.X.X.X.X.X-X;X9XjXjXjXjXsXsXsXpXuXuXpXgXzXxXBXBXBXBXFXFXJXJXHXFXFXFXFXDXSXBXxXxXxXvXSXvXvXvXzXdXaXeX%XJ.&XDXFXDXvXjXsXvXaXY T Y R R R R R &.&.&.&.&.-.-.-.;.R R &.-.*.Y V R -.V.V R -.&.*.&.&.R Y Y Y V V c c c V M c c g f s s ",
"F.D.N.N.^ W ~ I I W W Q W W I I F F 0.N.W.pX;X8X9XOX[..X;X.Xo.).`.].OXOX$X;X:X:XuXuXuXpXsXhXhXxXxXBXBXBXBXBXBXBXMXzXgXpX8X7X;X=XOX.X.X.X.X.X-X-X9XsXjXsXsXsX9X8XpXuXuXsXhXzXxXxXBXBXBXFXFXJXHXKXHXHXHXFXFXSXSXBXSXxXvXvXvXvXxXzXdXaXeXoX>.oXzXVXDXvXhXhXFX%XX.C.Z.V.V.V.V.V.V.Z.Z.Z.Z.Z.F.F.F.M.V.F.F.A.V.V.F.Z.R 7 8 ;.A.-.*.*.| R Y Y V V c c c M M c c g f f s ",
"F.S.N.i.^ W ~ U L U W W Q W I I F F / 0.J.7X;X;XuXOX[..X-XOXG.G.`.].[.OXOX;X:XuXuXuXpXhXhXhXzXxXxXBXVXBXBXBXBXxXzXhXhXpXuX;X;X=XOX.X.X.X.X.X.X-X9XjXjXsXsXsX8X8XpXpXuXsXfXzXxXBXBXBXBXBXFXHXHXKXHXFXFXFXDXSXSXSXSXvXvXvXvXvXxXzXdXaXeX+XG.OXuXzXVXVXzXxXHX .X 8 g V V T Y R X.X.=.&.&.&.M.-.&.&.&.&.&.R T V n 7 7 7 1 1 Z A.V.*.&.R R Y Y L V N c V M c c g d s s ",
"F.S.p.i.! W ~ I I U U W Q U I L F M Q 0.V.$X7X;XsX=X].[.OXOX`.G.`.].[.OXOX;X:XuXuXsXsXhXzXzXcXxXxXBXVXBXBXxXxXjXhXhXsXpXuX;X;X$X.X.X.X.X[..X.X-X9XjXjXjXjXsX8XuXpXpXsXhXfXzXvXVXVXVXVXVXVXFXHXKXFXFXFXFXFXDXDXSXSXvXvXvXvXvXxXzXdXaXeX+X].OX:XhXvXDXzXDXxX3 & n n V C Z R R | | X.&.&.&.&.*.&.R R &.*.R T V R *.A.;.*.n , 8 R ;.*.&.R R T U I L V V M c c c g d d ",
"F.S.p.i.! U W I L I U W U U U I F v Q 0.0.oX8X;XpX8X.X`..X[.`.).`.].[.OX$X&X:XuXuXsXsXhXcXcXxXxXxXcXcXxXxXxXjXhXhXhXhXsX9X8X;X$X.X.X.X[.[.[..X-X9XsXjXcXjXsXpXuXuXpXsXfXhXzXvXVXVXDXDXVXFXFXFXKXHXHXHXFXFXFXDXDXDXDXvXDXvXvXxXfXdXtX<X+X XOX;XpXvXDXcXFX#X% Y =.^ $.&.&.&.&.-.-.M.M.V.A.A.A.-.&.&.A.A.-.&.&.&.A.A.A.A.A.&.M 3 7 V X.X.R Y I I L V V M M c c g g d ",
"F.S.i.i.! U U I L L U U U U P I F v U 0.0.J.8X7X8XsX8X.X[.`.).G.`.].].OX$X;X:X7XuXsXsXjXcXcXcXcXxXxXcXcXzXzXxXxXcXjXjXsXsX8X;X$XOX.X[.[.[.[..X-X9XsXjXjXjXpX7XpXuXpXpXhXhXxXvXDXDXDXFXFXFXFXFXFXFXHXHXHXFXDXDXDXDXDXDXDXvXvXxXdXdXiX*XOXOX$X;X8XvXDXvXDXq.X ~ ^ R R ^ &.=.=.-.-.-.-.-.-.A.Z.-.&.-.Z.A.-.&.&.&.-.A.A.A.-.A.A.*.Z g M V R ;.V.M.=.^ R Y V V c g g d ",
"Z.B.m./ ! E U U L L I U U U I I F c F ^ / 0.$X9X;X8X7X$X.X`.q.q.G.`.].oX$X;X:X7XuXsXjXcXzXzXzXcXcXxXxXcXzXzXxXxXcXcXcXhXsX8X;X-XOX[.[.[.[..X.X-X0XjXjXjXjX9X8X8X7XiXpXhXzXxXvXDXDXDXFXFXFXFXDXDXFXFXHXHXHXHXHXDXDXDXDXDXvXvXzXdXiX<X&XOXOX$X=X;XvXDXBXxXM % c / R ^ / / =.=.M.-.-.-.-.-.A.A.-.&.-.A.A.-.&.&.&.;.A.A.A.A.A.A.A.A.M.^ T g 8 V X.=.M.V.-.V.A.Z.Z.Z.Z.",
"C.B.m./ ! U U U L L I I U U I Y I M F ^ 8.X.W.sX8X;X;X-X=X=X`.o.G.L.].oX$X;X;X8XuXsXjXcXcXzXzXcXcXcXcXvXxXxXxXcXcXcXcXjXsX9X;X-XOX[.].`.'..X-X9X0XjXcXjXjXsX8X8X7X7XpXhXzXxXvXDXDXFXFXFXFXFXFXFXFXFXHXHXHXHXHXFXHXHXDXDXDXvXzXdXaX<X&XOX$XOX$XuXVXvXVXiXu * 7 c / / ^ / =.=.=.-.-.-.M.-.A.A.M.-.-.M.A.-.&.&.*.;.A.A.A.A.A.A.V.-.&.*.*.R 1   $ % * & & 3 7 d d d g ",
"B.M.m./ ~ U W W F G L I U U I U Y M M Q ^ X.J.;XuX;X$X$X;X8X;XG.G.).].oX$X$X;X7XuXpXjXcXcXzXzXcXcXvXvXvXvXvXcXcXcXcXcXjXsX8X;XOX.X[.[.`.'..X-X9X0XjXcXjXjXsXsX7X7X7XuXpXhXcXVXDXFXHXKXKXKXKXKXHXHXHXHXHXKXKXHXHXHXHXHXDXDXvXzXdXaX<X&X$X$XOX$XxXVXxXDXoX3 7 s u g Y X.X.X.=.&.&.-.-.-.-.A.A.M.-.-.M.V.-.&.&.&.;.A.A.A.A.A.A.V.-.-.-.&.&.X.3 $ % s & % & % $       ",
"B.B.m./ W U W W L F L I I W I U U M M W ^ X.X.L.7X;X&X;X7X8X8X].q.G.]. XOX$X:X7XuXuXhXzXjXcXcXxXvXvXvXvXvXvXvXcXcXcXcXjXsX:X-X.X.X[.`.`.'..X-X9X0XcXVXcXjXjXuX8X:X7X8X8XhXxXVXFXHXKXKXKXKXKXKXKXHXHXHXHXKXPXHXHXHXHXHXDXDXvXlXdXtX<X&X&X:X$X7XVXBXBXVX .3 s s s 3 s c ~ =.&.&.&.-.M.-.M.M.M.-.&.-.V.V.-.-.&.&.-.A.A.A.A.V.V.-.-.&.&.=./ =.c $ & j & & & & & % % % ",
"C.B.m./ ~ U I I L L L L I U I I I F M W ^ / X.J.oX$X;X;X8X8X;X[.q.G.]. XOX$X&X7XuXpXfXfXzXcXcXcXcXvXvXvXvXvXVXvXvXvXcXjXhXsX-X.X[.`.).).[..X-X9XjXcXVXcXjXjXsX8X:X;X;X8XsXcXVXFXHXKXKXKXKXKXKXKXKXHXHXHXKXPXHXHXHXHXDXDXDXSXlXdXtX*X%X7XpXhXBXVXxXVXgXM 3 s d s d s 7 7 g Y X.V.Z.C.Z.Z.Z.Z.M.M.M.Z.Z.M.-.$.$.B.Z.Z.Z.Z.Z.Z.Z.Z.Z.Z.Z.Z.U.V $ * c & & * & % % % % ",
"Z.M.=./ ~ U I U I L F L U U U U L F v I ^ / X.0.].OX-X;X;X;X;X[.o.G.`. XOX$X;X7XuXpXhXzXcXzXxXcXvXvXvXvXVXVXVXVXVXVXvXcXhXsX7X.X`.`.`.`..X-X-X9XjXVXBXBXcXjXsX8X8X;X;X;X8XcXVXFXKXKXKXKXKXKXPXKXPXPXPXHXPXPXHXHXHXHXDXDXDXSXlXaXeX*X&XgXxXxXxXzXxXFXW.3 u s f s d d d 8 7 8 M Y ~ =.M.B.A.P.U.P.P.~.~.~.P.!.~.^.^.^.^.^.~.^./././.~.U.Z.^ * $ i H * * * * & % % % ",
"Z.M.=.^ ~ U I U I F F P P U U U I F v G ^ 0.0.0.].-X-X;X;X;X;XOXo.q.`.].OX$X&X7X8XpXhXhXcXcXcXcXvXvXvXVXVXVXVXDXVXVXvXvXjXsX-X`.'.[.`.`..X-X8XsXcXBXBXBXBXcXjXsX8X7X;X;X8XjXVXFXKXKXKXPXPXPXPXKXPXPXPXPXPXPXPXHXHXHXDXDXSXSXlXtX<X*XeXvXDXxXzXhXVXzXM 3 s s f f f d d d d g g 8 $ s L d g d 7 g g g g c ! I V V V V V V n g g 8 7 7 7 * X & % s E * * * * & & % & ",
"V.M.=./ ~ U I I I M M L P I I L L F l F ^ 8.0.0.].-X-X;X;X;X;X=XG.q.G.].oXOX$X:XuXuXsXhXzXcXxXcXvXvXvXVXVXVXDXDXVXVXVXVXcXsX$X`..X.X[.[..X-X9XjXBXFXFXFXBXBXcXsXpX8X7X7X8XhXVXFXKXKXKXPXPXPXPXPXPXPXPXPXPXPXPXHXHXHXHXDXSXlXkXtX*X*XaXSXDXxXlXxXFXoX& 3 s f f g g d d d g g g g % P S.g n 8 X 7 g 8 $ v qX!.d 8 8 8 8 d d 8 7 1 & 3 7 8 7 * % z ! * * * * * & & & ",
"Z.M.=./ ~ U I U I V M F L L I I L F l F Q / m.0.L.-X;X8X8X8X;X=X].o.q.`. XOX$X:X7XuXpXhXzXzXxXxXvXvXvXvXVXDXDXDXFXVXBXBXjX9XOX.X.X.X[.[.OX8X0XjXBXFXKXKXFXVXVXjXpX8X8X8X8XsXvXVXFXHXHXPXPXPXPXPXPXPXPXPXPXPXPXHXHXHXDXDXSXlXdXeX*X*XgXxXBXxXlXxXzXY % s s j z g g g d d g g M f % ! S.c M d & d V g * f.mX4Xc g g g g c g g 8 7 3 7 7 7 7 * % A E * i r * * * & * ",
"C.B.m./ ~ U L U U L M F L L I I L F l l ^ 8.0.0.J.$X;X9X9X9X9X8X.Xo.q.).].oX$X;X7X8XpXhXzXxXcXcXvXvXvXvXVXDXFXFXFXVXVXxXhX7X.X.XOX.X[.[.$X7XsXjXBXFXFXFXFXFXVXBXhX7X8X7X8XsXxXVXDXHXHXPXPXPXPXPXPXIXPXPXPXPXPXPXHXHXFXSXxXlXtX<X*X&XzXxXcXxXzXxX+X1 & s j v c c g g g g g g M j % ! S.c V d % d V g i f.mX(.c g g c c c c g 8 7 7 7 8 8 7 * % H E r s i r r r * * ",
"B.B.m./ ^ W I U U V c M F L L I L F l l Q 8.N.m.0.J.$X9X9XsXsXpXOXo.o.G.].oXOX&X7X7XpXhXhXcXcXcXcXvXvXVXVXFXFXFXFXVXVXxXpX;X.X.X.X.X[.[.$X7XsXjXBXBXBXBXBXFXFXVXhX7X7XuXuXpXhXVXFXHXKXPXPXPXPXPXIXIXPXPXPXPXPXPXHXHXHXSXZXdXtX<X&XiXzXxXxXxXzXxXOX3 * s l v c c c g g g g g V j % 7.f.c I d & g V g i f.mX(.c M V N c N M g d 7 7 s d d 7 * % H H r s s r r r * * ",
"C.B.m./ / ~ I I U V c M M L L L L F l l U 8.N.N.m.X.J.;X8X7XpXpXOXo.o.G.]. X$X&X7X8XpXhXhXzXcXcXvXvXvXVXDXFXFXFXFXVXVXxX9X-X.X[.[.`.`. X$X7XpXhXcXBXVXBXBXBXBXBXhX7X7X7XuXpXhXvXDXHXKXKXKXPXPXPXPXPXPXPXPXPXPXHXHXHXDXSXlXkXeX*X&XpXxXxXvXcXxXxX6Xd * j v D D M c c c c c c V g & y.S.N I s & g V g i D.mX(.c N V V V V M c g s s d d d s * & H H r h s i r r * r ",
"B.B.N.X./ ~ I I U L c c M F L L L F M d I / N.N.N.0.X.J. X&X7X7XOXo.o.q.`. XOX&X7X8XpXpXhXhXcXcXvXvXVXVXVXDXDXDXVXVXcXhX8X-X.X[.).G.).`..X7X9XhXjXcXBXBXBXBXBXxXpX$XOX$X7XpXhXvXVXFXKXKXPXPXPXPXPXIXPXPXPXPXKXHXHXHXDXSXlXdX<X&X&XgXcXcXVXcXxXcX6Xu * j v D L V c c c c N V V g & p.S.N I 7 * g V g i D.mX(.c V V L V V V c d d s d g d s * & J D r j s s s r r r ",
"B.C.B.=./ ~ I L U I c c M F L L L L M g F 8.N.S.p.i./ ^ X.J.J.L.G. .o.q.G.].OX$X;X7XpXpXhXhXxXxXvXvXVXVXVXDXDXDXVXVXcXhX8X;X.X`.).).).).`.$X7XpXgXhXjXxXBXxXhXpX&X.X].OX;XsXcXvXVXFXHXKXPXPXPXPXPXPXPXPXPXPXKXHXFXDXSXxXdXaX<X&X&XxXVXVXVXVXxXBX%X3 * z D H L L N N N V V V V g & f.D.N I s * c V f r R.mX!.c V L L V V V c g d d d g g s * & E D s v s s s i r i ",
"B.C.N.i./ / U L I I M c c M L L L L M g c ^ S.S.S.p.8.^ / 8.0.B.V. . .q.G.].oX$X&X7XpXpXhXhXzXxXvXvXVXVXVXVXDXDXVXvXcXjX8X8X-X.X).).).).).`.OX7X7X7XpXpXpXpX7X;X$XOX.X-X8XjXvXvXVXDXFXKXKXPXPXPXPXPXPXPXPXHXHXHXDXDXBXlXkXtX*X+X&XxXVXDXVXVXVXxXJ., u v D P P I L L V V V V I c & f.D.H I s 6 V V s i R.mX!.N I V V L L V c g d d g g g s * * ! S s j s s s i r i ",
"B.C.B.m./ ^ T L L L M l c c M L P L M d l Q N.N.S.N.p./ / i.N.N.B.X. .q.G.`. XOX&X7XpXpXhXhXzXxXvXvXVXVXVXVXVXDXVXxXjXhXsX9X8X-X.X).).).).q.`. X$X$X&X:X:X&X$X$X$XOX-X8XsXcXvXvXVXDXFXFXHXKXKXKXPXPXPXPXHXHXHXDXDXDXxXlXaXeX*X+X+XxXBXBXBXBXxXW.d * s D H P W U I I L L L I U c & D.S.L U s 7 V V f i R.mX!.N I I I I I V M g d d g c g s * * ! x s j s s s s r s ",
"m.M.m.m.^ ~ U c V V V g d g c M F F M d d W p.S.S.S.p.8.8.i.N.N.B.m. .o.q.`.].oX$X&X7XpXhXhXzXzXxXvXvXvXvXvXvXvXcXjXjXsXsX9X8X;X-X.X'.`.).w.).).].OXOX$X$X$X$X$X-X-X8XsXjXcXVXvXDXDXFXFXFXHXHXKXPXPXPXKXHXHXHXDXDXvXlXkXtX<X*XL.J.7XxXBXxXiXJ.d 3 u h D H E W W U I L L I I T v e R.f.H I * s T Z f i R.mX!.N I I T T I V V g d f g c f s * e 7.k h v h s s s r s ",
"E.E.E.D.S.S.0.U I U T M d M c F I F M l d G S.D.D.S.p.8.8.p.N.N.N.m. .o.q.G.].oXOX&X7XpXsXhXhXzXzXcXvXvXvXvXvXcXjXjXsXsXsXsX8X8X;X-X.X[.'.[..X.X.X.XOX$X7X7X7X;X;X8XsXjXcXVXVXVXDXDXDXFXFXHXHXKXPXPXPXHXHXHXDXDXvXxXlXdXeX*X*X;.b  .J.W.J.X.s * s r j D H E ! W I I L I I I ~ v e R.p.I T * f Y V f i R.mXD.L T T T T T L V c f d g c f s * r 7.h h x h h s s r s ",
"D D F D S D D s f g c d u s u d l l d d u l Q S.S.S.8.8.8.S.S.F.F.C. .o.q.G.].[.OX&X7XpXsXfXhXzXjXzXzXvXvXvXcXcXjXhXsXsXsXpXuX8X;X-X-XOXOX-X7X7X8X;X;X8XhXhXsX8X8X9XsXhXcXvXVXVXVXDXDXFXFXHXHXHXKXPXKXHXHXHXDXDXSXxXlXdXeX*X%XQ d j v P P D s s s r k D H E ! W U U I I T T / v e R.p.T I * g R V f p Q.mXD.I R T T T T I V c g g c c f s * i 7.h h A h h s s r s ",
"                                                          o $ % % % ,  .G.G.`. XOX$X:XuXsXgXhXhXcXzXxXxXzXcXcXjXjXsX9X9XsXsX9X8X;X=X-X$X-X8XpXhXhXpXpXhXcXcXcXpX8X9XsXhXxXvXVXVXVXDXDXDXFXHXHXHXHXKXHXHXHXFXDXSXvXxXkXaX*X*XY.M l S H ! ! H h s s r x D H E ! W W T T T T T $.v r Q.p.T I * N $.Y j h Q.mXD.I ^ ^ R R T V V c g g c c f s * h ! p z v h h h s * h ",
"A S S A A A k k k j j j h h r r r r r e * * * & & & & % % % % + + $ X _ G.G.`. XoX$X&XiXpXsXsXhXhXzXzXzXcXjXsXsXsXsX9X9X9X9X8X;X;X=X=X$X;XsXhXcXxXzXhXzXcXvXvXhXuXuXsXhXxXvXvXVXVXVXVXDXDXFXHXHXHXHXHXHXHXHXDXSXxXlXkXeX*X*XH.d l v H ! E H j s s i v H P E E E E T T W T T $.v r Q.p.U L * V X.T j h Q.mXD.T R R R R T Z V c c g c c f s * h ! i v c h h h i * h ",
"x S S S k k k k x x x S S A S A k x x x S S S S A x A S A A A A S S l G q.G.`.].oX$X&X7XiXpX8XpXhXzXzXjXjXhXsXsXsX8X9X8X9X9X8X;X;X=X$X=X;XsXcXBXcXxXhXhXcXvXxXhXpXuXuXhXcXjXcXvXvXvXvXDXDXDXFXFXHXHXHXHXHXHXDXSXxXlXaXeX*X%X| d v D H 7.! H h s s i S H E ! E E U I U W T T =.v r !.p.U H * I &.R f h (.mXD.T $.^ ^ R R T V c c g V c f s * h ! i v x h h s r * s ",
"x x v x k k k k k k j k k k k k j j j j j k k z j j k k k k h k k j j M o.G.L.]. XOX&X:XuXpX7XpXfXhXfXsXsXsXuXuX8X8X9X8X8X7X:X:X;X-X=X;X7XhXVXVXcXcXhXhXjXcXxXhXpXuXuXuXsXsXjXjXzXcXvXvXDXDXDXDXFXHXHXHXFXDXDXSXlXdXaXeXeX/.V f v D H 7.! H h s s r D P E ! E E P P I I U T m.c r Q.p.! H 6 T R Y s h (.mXS.^ $.$.$.^ R T V N g g V N f s * z K i v v h h s r & s ",
"v v v v v x k k k k k v v x k k k j k k x x x x j j j k k k k k k k l l  .G.L.]. XoX&X:XiXiXpXpXsXsXuXuXuXuXuX8X8X8X8X8X7X7X:X;X;X;X;X8XpXhXvXVXvXcXhXhXjXvXvXcXhXhXhXuXpXpXhXfXhXzXvXvXvXvXDXDXDXDXHXHXDXDXSXvXlXaXeX<X<XJ.g j v D P 7.! D h s s s D E ! ! E P H H L L P I / v r Q.p.~ N 6 T &.T 7 z (.qXS./ =.=.=./ R T V V c M V V f s * v E i D x h h h r * s ",
"v k v v v v v v x k k k v x k j z j j x x x k k j x j k k k k x A k k l ' G.L.]. XoXOX&XiXiXpXpXsXuXuXuX7X1X:X:X;X:X7X7X:X:X7X;X;X8X8X8XpXcXVXVXVXcXcXhXcXVXVXvXxXcXzXhXpXpXpXuXuXfXzXzXzXxXvXDXDXDXHXHXHXDXvXxXlXaXtX<X<XM.g c c D P 7.! D s s s s H E ! 7.E H H H H H P L U s p Q.p.^ c i $.&.T s z (.qXS./ =.-.&.$.^ Y V V c N V M d s * D P s H x h h h i * s ",
"v v v v v z k k k x z x v k k v v k k k k k k k k A k k A A A A A A S j M J.G.L.].oXOX&X7XuXpXsXpXuX7X:X:X:X:X;X:X:X1X:X:X;X;X;X:X8X8X9XsXcXVXVXVXBXjXjXcXVXVXVXvXvXzXzXhXdXdXsXiXfXfXfXfXzXzXDXDXDXDXHXHXSXxXlXkXaXtX6X%X| g c c D E 7.! D j h s s H E 7.7.! P H H H H P L U s h Q.p.! c f -.&.Y s z (.qXp.$.=.&.&.$.R T V V N V V M d s * D H i H x h h h r & s ",
"x v z j j j j k k k x x x k k k v x k k k k k k k k k j k x x x A k k l M  .G.L.].oXOX$X7XiXpXsXpXuX:X;X:X:X&X:X:X1XuX1X:X;X7X8X7X8X8X9XsXjXVXVXVXcXjXjXcXVXVXVXvXvXxXzXzXzXzXfXfXfXfXdXfXfXzXvXDXDXDXDXSXSXlXlXdXaXeX6XY.M c v v D E 7.! S j h s h P ! 7.! ! E P H H H L L U s h Q.p.! z f =.&.R s x 4XqXp.$.&.&.&.&.R T V V V V V M d s * D H i H z h h h r & h ",
"v v v j j k k k k k k v x v k k k x z x k j v j h j j h j k h z x x k j l Y G.L.]. XoX$X&XiXiXpXuXuX:X&X&X&X&X:X7XuXiXuX7X7X7X7X7X8X8X7X8X0XjXcXcXjXjXcXjXjXjXcXjXcXxXxXzXxXxXlXxXzXfXfXdXdXfXxXvXDXDXDXSXZXlXkXaXtX<X*XJ.M c S D D E 7.! v j j s h E ! ! ! ! E P P L P L L ~ s p (.p.E x f =.&.T s S 4XqXi.$.-.-.=.^ R Y V V V V V M s s * H H s D k h h j r & h ",
"A A k j v v x A v k j j z j k k k k k k k k k j j j k j k k k x x x k k l M q.L.]. XoXOX&X6XiXpXuXuX:X&X&X&X:X:X:X7X&X:X:X&X$X$X-X-X-X-XOX-X-X9XjXjXjXjX0X9X9X9X9X9XpXgXgXzXzXlXgXfXdXfXdXiXdXxXvXDXDXDXSXZXlXdXaXtX<X+X| g c v S D E ^ W v j s r x E ! 7.! ! E P P P L L L ~ j p Q.p.P f N M.R V i D 4XqXi.=.-.-.=./ ^ R V V V V V c d s r E D h P j k j j * & s ",
"k k k k x x k k v v x j x x k k v k k k k k k k k k k A x k k k k A k k k l  .G.L.].oXoX&X&XiXiXpXiX:X&X&X&X<X*X%X&X&X&X$X$X$X.X.X.X.X.X.X.X.XXX-X9X9X-X-X-X-X-X-X-X-X7X7XpXgXgXgXaXaXaXiXiXpXzXvXDXDXSXSXlXlXkXaXtX*XY.Y c v v S D E ! E x j j r x E ! 7.! ! E P P P P L L T i z Q.f.H s I A.R I i J 4XqXi.$.&.&.&./ ^ R Y V V V V g d 7 r E v h L h j s h * & s ",
"l l l j k k k k k x k j j k k v x x v v j k k j k k k x k k k k k S k x l l  .G.L.].].oXOX&XeXiXaXiX1X*X&X*X*X&XoX].]. X X.X[.`.w.w.w.'.'.'.'.'.XXXXXXXXXX-X-XXXXX.X.X.X$X$X6X7X6X&X*XiXaXiXiXfXxXDXSXSXxXlXkXkXdXeX*XJ.V c v v v D E ! E k k j r S E ! ! 7.! W E P P P P I ~ i z (.p.H s T A.$.I * H qX/.$.$.=.=.$.$.^ R V V V V V g d 3 * W v j H h h s h * & s ",
"l l k k k v x k x x k k k k x v k j x j h j j j j k k k k j j j j v k k j l  .G.G.`.].oXoX&X*XiXiXiX1X<X&X&X*X&X$X].q.q.q.q.q.O.O.O.O.O.O.O.w.w.w.w.w.'.'.'.'.'.'.'.'.'..X.X.X X XoX$XiXiXdXdXdXxXSXDXvXlXlXdXaXtXeX*XF.M c z v v D E ! H k j j r S E ! 7.7.7.! W U I I T T m.i z (.7.v s T -.R V i J qX4Xi.=.&.&.^ ^ R T V V V V V g s u r ! z z D s s s j * % h ",
"x v k k k v k x S A k k k v v k k k k k k j j j j k x x k j j k k k k k k l Y J.G.`.]. XoXOX&X&XuXuX1X<X&X&X1XuX7X;X.X).q.w.w.w.'.XX'.w.w.w.w.w.w.w.w.w.'.XXXXXXXXXXXX-X$X.X.X X$X7XiXaXiXdXdXzXSXSXSXlXdXkXaXtXtX*X*XF.l v v v v D ! ! H h j h s S ! ! 7.7.7.^ ~ ~ T ~ ^ / M.i x (.! v s R &.Y L * J qX(.i.-.&.&.&.$.R T V V V V V g s u r ! z j D h s h j * % h ",
"k k k k k k k k S A k k x x k k k k x A x x v v k k k k k h k x A k k k k l G J.G.L.]. XoXoX$X&X1XuXiX&X*X&X1XuXuX7X-X.X.X[..X.XXX-X-XXXXXXXXXXXXXXXXXXXXXXXXX-X9X9X0X0X7X-X$X$XpXxXxXfXdXdXfXxXSXSXnXlXdXaXdXtXeX%X*XC.l v v v v D E ! H k j f s D ! 7.7.i.i.i./ ^ $.$.$.$.B.i x (.! j f $.&.Z V * J qX(.i.-.&.&.&.&.$.T I V V Z V g 7 s s W h v D h h h h & & j ",
"k k k z x z h k x x k j k x k k k k z x x v S S k k k k k k k x A k k k l l G G.G.G.].].oXoXOX&X&X:X&X&X&X&X:X7X7X8X-X$X.X.X.X.X-X-X-X;X0X0X0X9X0X0X0XjX0X0X0X0X0X0X0X0X9X7X7X7XsXxXvXzXdXiXdXxXnXnXxXdXaXaXaXtX<X%X<XV.g c z z v H E ! D h j f s D ! 7.7.i.N.i.8./ / $.$.$.C.s A (.! j f &.$.V V i K qX(.$.-.&.&.&.&.^ T V V V Z V g s s s ! h v v j h h j & & h ",
"v v v x x x k v k k j j z x k k k k x x k k k k k k k h k k k k k k k k k v G G.L.G.G.]. XoXoXOX&X&X&X&X&X&X&X:X:X:X;X$X.X.X.X.X-X-X-X9X0X0X0X0X0X0X0X0X0X0XjXjXjXjX0X9X8X;X7X7XgXxXxXzXzXiXiXxXxXxXlXdXtXtXtX<X*X<XrXB.f z z x x H E ! S h j f i D ! 7.7.p.N.i./ / $.$./ $.M.s A (.! h g &.R V L r ! qX(.$.M.&.&.&.&.$.T V V V Z V d s s p E s c c s s h h & & h ",
"v v x x k x v S v v v v x x k k k k k v v S x k k h k k k k k k v v x v A k G G.].L.G.L.]. XoXoX+X&X&X&X&X&X&X&X;X;X&X$X$X.X.X.X.XXX-X9X0XjXjXjXjX0X0X0X0XjXjXjXjX0X9X8X;X;X7XpXhXzXzXzXzXdXiXxXxXlXdXdXtXtXtX*X*XtXrXP.P j v v z D ! ! x h j f i D 7.7.i.p.N.i.$.$.$.$.$.$.-.6 H (.! h c &.R V I r 7.qX(.^ -.&.&.&.$.R R Z V V Y V d s i h H i N c s s s h & & h ",
"v S v x v S S S S A v v k x k j k x x k k v v k k h h z x x x k k A S k k l M J. XL.L.L.]. XoXoXOX+X$X&X&X&X$X$X$X&X$X$X$XOX[.[..X.X-X-X9X0X0X0X0X0X0X0X0X0XjXjX0X0X7X7X;X7XiXaXgXdXzXzXdXfXiXfXzXdXdXaXtXtXeX*XtXrXrX!.f.! v z x D ! ! z h j f s D 7.7.i.p.m.m.$.$.$.$.^ $.M.s H 4XK h L &.R V I r 7.qX^./ &.&.&.&.$.R Y Z V V Y V s s i h E i L c s s h h % & s ",
"v v v v k v v x x k k k k v x z z x x x k S v k k z z j z x k k S S S S A l d o.].].].L.L.].}.oXOX@XOX$X$X$X$X$X$X$X$X$XOXOX.X[.[..X.X-X8X9X9X0X0X0X0X0X0X0X0X9X9X7X;X;X&X7XiXpXsXsXhXsXiXpXiXfXdXdXaXtXtXtX<XtXtXrXrX!.j.D.#.J A A E ! h h j s s H ! 7.8.p.N.m.$.$.$.$.^ &.Z.i H 4XJ h T &.R V L * 7.qX!.^ &.&.&.&.&.R Y V V Z Z V d d s j E r I v h h h h % * s ",
"k k v l k v x x x z z x v k k k v k x v k v k k k k k j j x k j v S k v v f d  .L.].].L.L.L.].oXOX$X$X$X$X$XOXOXOXOXOXOXOXOXoX X[.]..X.X-X7X8X9X9X0X0X9X9X9X8X7X;X;X$X$X&XuXiXiXpXuXuX:X:XiXpXdXdXaXtXtXeXeXeXrXkXyXrXqXj.j.k.y.K J J E h j z j s D ! ! 8.p.m.m.i.$.$.=.$.$.B.i P 4XP i R *.R V I 6 y.qX!.^ &.&.&.&.&.R Y V V Y Z V 7 s i z H i I c s s h h % * s ",
"v k k k v v k k x x x x v v S S v k k v v v k k k k k k x x k k x x x v D !./.L.L.].}.].L.L.L. XoXOX$X$XOXOXOXOXOXOXOXOXOXOXOXOX X].].[..X$X-X-X7X7X7X7X-X-X$X$X$X$X&X:X7XuXuX7X:X:X:X:X:XiXaXaXaXtXtXeX<XtXrXkXkXyXrXmXR.j.x.k.u.K ! E h j v j s S ! 7.8.i.m.m.=.$.$.$.$.$.B.i P (.H s &.&.R V L * p.qX!.~ &.&.&.&.&.R Y V V V Z M 3 f 6 v H i L c s s s s $ & s ",
"v l k k v S S k v x x x x v v j v j j x x x x k k k k S A k k k k k D S E.rXW.J.L.oXoXoX XL.L.].oXoX$X@X$X$X$X$X$XOXOXOXOX$X$X$X$XOXOX[.[.[..X.X[.[..X.X.XOXOX$X$X&X7X7XuX:X:X:X:X:X:X:XuXiXaXaXaXtXeXeXtXrXyXkXkXyXtXyXqXj.x.z.a.r.y.@.z z v z s S ! 7.p.i.m.$.$.$.$.$.$.$.B.r P (.H f &.&.R V L * f.qX!.~ &.&.-.&.&.&.R C C Z Z n 3 g 6 v H i I z s s s s % * s ",
"l l x x x x k k v v k x x v j j k k x x x x x x k k k x x h x k k D D ! yXF.3  .]. XoXoXoXoXL.].].oXOX@X$X$X$X&X$XOXOXOXOX$X$X;X:X;X;X&X$X$X$X$X$XOXOX$X$X7X7X7X:XuXuX8X:X:X;X:X:X1X1X1X1XiXaXaXtXeXeXeXtXyXyXlXkXyX*XrXmXj.z.z.s.r.a.y.K H c j s k E 7.p.p.i.i.$.$.$.$.$.$.M.* K (.H z -.&.R V I * f.qX!.^ &.&.*.&.&.R R Z Z Z Y g * c 6 D v s U z s s h s % * s ",
"v v x v x x x x x k k x x v z x k k k k k x S x z x z x k x x x A D D qX/.X , o.]. XoXoXoXoX XL.L.L.oXOXOXOX$X&X;X$X$XOXOX$X$X;X7X8XuXpXpXhXgXzXBXzXzXxXxXxXzXhXpXpXuX:X:X:X:X:X1X1XuX1X&XiXeXeX*X*X<XtXyXyXlXlXlXkX<X/.CXQ.j.z.g.r.r.u.@.K J z i h E 7.p.i.p.$./ $.$.$.$.$.-.* ! (.v c V.&.R Z T * S.qXD.~ &.&.*.&.&.R Y V C C Y g * c i D v s U l h s h s $ * s ",
"v v x k k x v S x k k k x x x v v x k x k k A x x x x x z x z z H H E.mX3 < G.G.]. XoXoXoXoXoX].L.G.].oXoXoXOX=X;X$X$X$X$X$X;X;X7X8XpXhXhXxXxXBXVXVXBXVXVXBXvXcXcXhXpX7X:X:X:XuX1X1XuX1X&X<X*X*X%X*XtXrXkXlXlXlXlXkXtX/.LX(.d.k.h.a.r.u.u.@.@.! z p H ! 8.p.p.$./ ^ ^ ^ T $.$.i 7.(.x V -.R R T I * D.qXD.~ &.&.&.&.&.R V V Z Z V s 7 g i H x f U j s i h s % * s ",
"x v v k v v v v x x v v S A A S S v x k k k A x x x A H J z z H H ! mXV., G.G.G.].oXoX#X#XoXoXoXL.G.`.].].].OX$X;X;X;X$X$X=X;X8X8XpXpXsXhXxXxXBXVXVXVXVXVXVXVXvXcXzXsXuXuX:XuXuX1X:X1X1X&X*X%X+X%XtXrXkXlXlXZXZXlXkXtX%XCXqXy.k.j.d.u.a.a.r.@.u.u.J J ! 8.p.i.8.^ ^ ^ R R ^ $.r 7.Q.z T &.Y V T L r R.qXD.T &.&.&.&.&.R V V Y Y V 3 7 g 6 H z f U s s s h r % r p ",
"l v v v v v k k x v v l v v k k k k k k h k A v x x H J J z z K H p.mXG  .].K.G.].oXoX#X#X#X%XoXoXL.L.`.].].OXOX$X;X;X;X;X;X:X7X8XuXuXpXgXgXzXxXBXVXBXBXFXVXBXcXxXzXsXuXuXuXuXuXuX;X&X&X%X%X+X%X<XrXyXlXlXZXZXZXZXkXrX5XCXmXd.h.k.h.a.a.a.r.+.+.r.r.@.K y.i.p./ ~ ^ ^ R R $.$.r 7.Q.c R $.T V T V 6 D.rXD.T &.&.*.&.&.R V V Z Y M * 7 g i E z z I s s s h r % * i ",
"v S v v v v x x S v k v v v x z k j k k k A S v x x J J J z J ! H D.yXG G.].].G.].oX#X#X%X%X+XoXoXoXL.G.G.].oXoXOX$X;X7X7X;X;X:X7X7X7X7XpXpXgXjXBXBXBXBXBXBXxXxXxXzXpXuXuXuXuXiXiX&X$X+X+X+X#X<XrXkXlXlXNXZXZXZXZXlXyXtXmXCXk.g.k.k.a.u.a.a.@.+.@.r.@.e.e.y.y.y.! ~ ^ R R $./ * f.Q.D $.&.R V R V * R.qXD.T $.&.&.&.| R Z V C Z g * s z i E s f I s s i s r % * r ",
"v v v v v v x x x x x x S S S x k k k k A S S k H K ! K J J K ! J (.yX .].}.].L.].oX#X@X%X%X%X%XoXoX].:.:.G.].].OXOX&X;X:X&X&X:X7XiX7X7X8XpXpXgXzXxXxXBXxXxXxXzXzXpXuX:X:XuX7X6X&X$XOXoXoX%X<XrXyXkXlXlXZXZXAXZXZXlXkXtXyXLXj.g.k.k.s.u.a.a.@.+.@.e.e.e.e.e.u.u.y.! ~ ~ ~ / / & f.Q.H $.&.R V R I * Q.qXS.R R &.&.R R R Y V V Z s * * i i E s c I s s s s r & & r ",
"k v S S S S v v x v v v S S A k k k k k A A A H K y.y.K J J K K J 4XyXJ.oXOX}.].].oXoX%X*X*X*X%X%X#XoXG.o.G.L.].].oX$X&X&X&X&X&X7XiXiXiX7XuX7XpXgXxXBXNXxXxXzXgXpXiXiX:X1X1X&X$X+X+XoXoXoX<XrXyXkXlXlXZXZXAXZXZXZXlXkXrXyXLXQ.g.k.k.a.a.s.a.@.@.@.e.r.r.e.e.e.e.r.y.! ! W ^ ^ e f.Q.H R T V c T L i Q.qXS.T ^ ^ X.R R R Y V V Y 3 * * * i E i z I s s s i r * & * ",
"k A S S S S v v v S k v S v k k v k k x S D J K @.y.u.K J J K K J qXyXL.@XOXoX].].oX%X%X*X*X*X*X%X%X#XoXG.>.G.G.].oXoX@X&X&X&X&X6XiXiXiXiXuXuX7XpXgXgXlXdXdXdXiXiXiX<X:X1X1X&XOXOXoXoXY.%XrXyXkXlXlXZXZXAXAXZXZXZXZXyXrXyXIX(.d.z.h.a.a.g.a.e.e.@.e.r.r.r.e.e.@.@.r.u.K J P D & f.Q.z f j f f j s i Q.qXi.z H D L L L c c c c f * * * * i E 6 f N i s s i r * & & ",
"A x v v v S S S S S k v x v j j x x S D H J K @.#.y.y.K J J K ! ! qXrXY.&X@XoX].].OX@X%X*X*X*X*X*X%X%XoX}.G.o.G.G.].}.oX@X&X&X*X6X6X1XiXiXiXiX6XiXuXiXaXaXiXiXiX<XeX<X&X:X:X&XOXoXoXoX#XtXaXkXlXlXZXZXAXAXAXAXAXZXNXkXrXyXIX(.g.z.g.a.a.l.h.t.r.r.r.t.t.r.r.e.e.@.@.u.r.K K A & f.Q.h i s i s s r h Q.rX8.i v x x v j j j f s * * * * * s P 6 6 s i i i i * * & * ",
"v x k k S S v v v v x v x x z k S D J J K K u.y.y.d.y.K D ! ! K ! mXtXoX&X&XoX].].OX&X*X*X*X*X*X*X%X#X#XoXL.>.o.>.G.L.].oX$X&X*X6X&X&X&XeXiXiXeX&X6XeXeXeX<XiX<X<X<X<X<X<X&X+XoXoXoXoXeXtXkXlXlXNXZXAXAXAXAXGXZXZXZXkXrXyXUX4Xg.z.g.g.a.l.h.e.t.t.r.t.t.r.r.r.e.@.@.e.e.r.u.K z f.R.p p h i i s r h (.rX7.i A x k j j j j s s * * * * & h P * 6 i i i r i r & * i ",
"v v x x S v l l v x x v v v S D J J K @.u.u.u.y.y.d.d.#.J K ! J 7.mX5XoX<X&XOX].].#X%X%X*X6X6X6X6X*X%X%XoXoXL.o.o.G.G.L.oXOX$X&X*X&X*X&XeXeXeXeX*X*X*X*X*X*XeXeX<X*X*X<X*X%X+X}.Y.oX*XtXaXkXlXNXZXAXAXGXAXGXAXGXZXZXkXyXyXIXqXd.k.k.g.g.z.g.e.a.a.a.g.g.a.a.u.r.@.@.@.@.e.r.r.e.d.j.z i p i i s i z Q.qX7.p A x k k j v z s s * * & & & x P r i i r r r r & % i h ",
"k S S S v l j l l k S S x D H K K @.@.u.y.y.u.y.y.d.d.@.J K K K y.CX5X%X1X&X@X].].oX@X&X*X6X6X6X6X6X6X*X%XoXoXK.o.o.G.K.].oXOX&X&X&X%X%X*X6XeXeX*X*X*X*X*X*X*X*X*X*X*X*X*XoX}.Y.oXeXtXtXkXlXNXZXAXAXAXAXAXAXAXGXZXZXlXyXyXUXqXd.k.g.a.a.l.a.+.a.g.g.h.h.a.a.a.t.r.@.@.@.@.r.r.r.u.d.7.J p r i h r z (.qXE r x k j x v v v f 3 * & % % % x P e i i r r r r & & i h ",
"A S A S k S v x k k S D H J K e.e.r.u.y.y.y.u.u.y.d.d.y.J J K K p.CXtX%XiX1X&X}.}.oX%X*X*X6X6X6XeXeXeX*X%X#X#XoXL.G.>.:.G.L.oX%X%X%X+X#X%X*X*X*X6X6X*X*X*X*X%X%X*X*X*X%XoXL.L.oXeXrXyXkXkXlXNXZXAXAXGXGXGXGXGXAXZXZXlXyXyXUXqXs.k.g.u.a.z.d.e.g.h.h.l.z.g.a.a.t.r.t.r.e.e.r.r.e.r.u.u.y.K J z z * z (.qXJ r h h k A A A v j * & % + + % A J e h i r * r & + * p p ",
"D S S k S S v k k A H J K @.@.e.e.e.e.u.u.u.u.y.y.f.d.y.J J K J f.CX5X%XiX1X&XoXoX#X%X*X6X6XeXeXeXeXeX*X*X%X%XoX}.L.G.o.>.G.L.oX+X+XoXoXoX+X%X*X*X*X*X%X%X%X+X+X+X+X+X}.Y.Y.oXeXtXyXkXlXlXNXSXSXAXGXGXGXGXGXGXAXZXNXlXyXCXUX(.d.k.h.a.h.v.g.e.h.h.h.l.z.h.g.s.a.a.s.a.a.u.r.e.e.e.r.r.u.a.u.K K p A (.qXH i k h x D A A S s * % + + % & v H * i r * & & o o r p p ",
"S S S v S v k x A J K K @.e.u.@.K K e.u.u.u.u.u.#.y.d.y.J J K K D.LX%X%XaX1X&XoXoX#X%X*X6X6XeXeXeXeXeX6X6X*X%XoXoXL.L.G.>.>.H.K.].}.}.}.Y.oX+X%X*X*X%X+X+XoXoXoX}.}.}.Y.Y.%XtXtXyXyXlXlXlXlXSXSXGXGXGXGXGXGXGXAXZXNXlXyXAXUXQ.d.h.h.a.l.v.a.+.h.h.h.h.l.h.g.h.h.h.h.h.g.a.a.r.@.r.r.@.r.u.u.r.r.7.K Q.qXH p k x A S S D S i % o + + & & D H & * & % $ o     i p h ",
"D S S S S k A J K 7.K @.y.y.y.y.@.e.u.a.d.a.u.u.u.y.k.d.K K K K D.LX5X*XaXiX&XOXoX@X&X*X6XeXeXeXeXtXeXeX6X*X%X%XoXoXL.L.K.J.J.J.J.K.L.L.J.L.Y.oX#X#XoXoXoXY.Y.Y.Y.Y.+X%XeXrXrXyXkXlXlXlXlXZXSXAXGXGXGXGXGXGXGXGXZXZXlXyXLXLXD.d.g.g.g.l.v.t.+.g.l.h.l.l.h.h.h.g.h.h.h.h.h.g.u.u.a.r.e.e.e.r.e.r.t.r.j.Q.J p k k x S S D k &     + & * * H H & + O o         & h h ",
"S S S v S H J K e.K @.u.d.d.d.y.y.u.a.d.s.y.a.a.y.y.j.j.e.K ! K f.LXtX%XaXeX*X@X#X@X&X*X6XeXeXiXeXeXeXeXeX6X*X%X%XoXoXoXL.L.L.J.J.J.L.L.L.L.L.Y.Y.Y.oXoXoXoXoXoX+X%XtXrXrXyXyXyXkXlXlXlXZXZXAXGXGXGXJXJXJXGXGXGXAXZXNXmXLXCXk.s.g.g.a.k.v.t.e.h.l.h.h.l.l.h.h.h.h.h.h.h.h.g.t.u.a.a.r.r.r.e.r.r.u.u.a.a.e.J A A A S v l %       + e r * H H $               o s s ",
"S D D H J ! K e.e.K K y.d.d.d.d.u.u.d.d.d.d.d.d.y.d.j.j.@.K @.K f.CXyX%XaXiX<X&X@X%X&X*X*X6XeXeXiXiXeXeXeXeX*X*X%X%XoXoXW.W.W.Y.L.L.Y.oXoXoXoX%X%X*X6XeXeX<X<XtXtXtXrXtXrXyXyXkXlXlXlXNXZXAXGXGXGXJXJXJXJXGXGXAXAXZXZXCXIXmXg.s.g.a.a.l.v.e.e.h.z.l.l.l.l.l.h.h.h.h.h.h.h.g.a.a.g.a.t.r.r.r.r.r.r.u.u.u.u.@.K K J D s &         o % $ * E D $                 + % ",
"A H J K K e.u.y.@.@.@.u.y.d.k.k.y.u.y.d.d.d.d.d.d.d.k.j.u.K K ! 7.CXAX%XeXiXeX*X&X&X*X*X6X6XeXeXiXiXtXtXtXtXeX6X*X%X#XoXY.Y.Y.Y.W.Y.Y.oX#X%X*X6XeXtXtXtXrXrXrXrXtXtXtXrXyXyXyXkXlXNXNXZXAXAXGXJXJXJXJXJXJXGXGXAXAXZXZXAXIXqXa.s.g.a.a.l.v.e.r.l.z.l.l.z.z.l.h.l.z.z.z.l.l.g.a.g.h.g.a.a.a.a.u.r.r.@.@.u.u.r.r.u.e.J z $               & E A $                     ",
"A K 7.7.7.u.y.y.@.@.@.e.y.d.k.k.d.u.a.d.k.d.d.d.d.d.k.j.y.K K K 7.mXLX#XeXaXiXeX*X*X*X*XeXeXeXeXtXaXaXaXiXtXeXeX6X*X%X%XoXoXoXoXY.Y.Y.Y.oX%X*XeXtXtXkXaXyXaXrXtXrXrXyXyXyXyXkXlXlXNXAXAXAXGXJXJXGXGXJXJXGXGXGXAXAXZXZXLXLXQ.d.a.g.a.g.v.x.+.t.z.v.z.l.z.z.l.l.z.z.z.z.z.h.g.a.g.z.h.d.d.d.a.a.r.r.@.@.@.@.@.r.u.u.u.y.J 6       . . $ * E h $ . . . . . . . . . . ",
"4.K e.e.@.y.y.y.y.y.y.y.s.k.k.k.d.y.y.d.k.k.d.d.d.d.k.j.g.K J K ! qXUX%X*XaXaXeXeX*X*X<XeXeXtXiXiXaXaXaXaXaXtXtXtXeX*X%X%X#XoXoXoX/.Y./.oXoX%X*XeXtXtXtXtXrXrXrXyXyXyXyXkXkXlXlXNXZXAXAXGXGXGXGXGXGXGXGXGXAXAXAXAXAXAXLXCXj.g.h.g.g.h.v.z.K a.x.v.z.z.z.z.z.z.z.z.z.z.z.h.g.g.z.z.z.g.h.h.a.a.a.a.t.@.r.e.@.@.@.u.u.a.a.u.J 6     . $ * W f $ X . . . . . . . . . ",
"3.5.y.y.y.y.y.y.y.a.d.d.d.k.k.k.k.d.u.y.k.g.d.d.d.d.d.j.j.y.J J K (.UXtX%XdXaXtXeXeXeXeXeXeXtXiXaXaXkXaXaXkXkXtXtXtX6X*X%X%X%X#X#X+XoXoXoXoX#X%X*XeXtXtXtXrXyXyXyXyXyXyXkXlXlXNXZXZXAXGXGXGXGXGXGXGXGXGXGXAXGXGXAXAXGXIXmXk.g.g.g.a.h.v.h.K s.z.x.x.v.z.x.z.z.v.v.z.z.z.h.g.h.z.z.z.h.h.k.a.a.a.a.a.t.r.r.r.r.r.e.u.u.u.y.d.y.J 6 $   * E s . . . . X X . . . . . ",
"3.3.6.d.d.d.d.a.a.a.s.d.g.k.g.k.k.k.u.u.s.k.j.k.d.d.k.j.x.d.J K K R.UXNX%XaXaXaXiXeXeXeXeXeXtXtXaXaXkXkXkXkXkXkXaXtXtX<X*X%X%X#X#X%X#X#X#X%X%X%X%XeXtXtXrXyXyXyXkXkXkXlXlXlXlXZXAXAXGXGXGXGXJXGXGXGXGXGXGXAXAXAXAXGXLXIX(.k.g.g.a.a.h.v.a.K g.x.v.x.v.x.z.z.z.z.z.z.l.h.g.g.h.z.z.z.h.g.g.a.a.a.a.a.u.r.r.u.r.e.e.u.u.@.u.y.d.y.y.J e i E s $ X . . X . . X . . . ",
"3.3.4.y.y.y.a.s.d.d.k.k.k.z.k.k.j.j.g.s.g.j.j.k.g.d.d.j.x.a.K K 7.f.CXIX%XeXdXaXaXeXeXeXeXtXtXtXtXkXkXkXkXkXkXkXkXaXtXtXeX6X%X%X%X%X%X%X%X%X*XeXtXtXrXyXyXyXkXkXlXkXlXlXlXNXZXZXGXGXGXGXGXJXJXJXJXJXJXGXGXAXAXAXAXGXLXCXj.k.h.g.t.a.l.v.a.K d.z.b.b.v.x.z.z.z.z.z.z.h.g.a.g.h.z.z.l.g.g.s.a.a.a.a.s.a.a.a.a.u.r.r.r.r.e.u.y.d.d.d.a.e.J ! i % % % $ X X X X . X X ",
"3.3.3.5.y.y.d.s.g.k.z.z.x.v.v.x.x.x.x.k.k.j.j.d.g.g.g.j.j.a.K K 7.7.qXUXrX%XaXkXdXaXiXeXeXeXtXtXtXkXkXkXlXlXlXlXkXkXaXaXtXeX6X*X6X5X5X5X5XeXtXtXtXrXyXyXyXkXkXlXlXlXlXlXZXAXAXGXGXGXGXGXGXJXJXJXJXPXJXGXGXAXAXAXGXLXIXqXd.g.g.a.t.g.z.v.e.K a.z.b.Q.b.v.z.z.z.z.z.z.k.g.a.g.h.z.x.l.g.s.a.u.a.s.s.g.g.g.s.d.a.r.r.r.r.r.r.y.d.d.d.d.d.y.y.D & & & & & % % $ X . X ",
"3.3.3.3.6.k.k.k.k.z.z.z.v.Q.Q.Q.x.x.x.j.g.k.j.g.g.g.d.k.j.g.@.J K K R.IXIX5XtXkXkXkXaXaXtXtXtXtXaXkXkXlXlXlXlXlXlXkXkXkXtXtXeXeXeXtXtXtXtXtXrXrXyXyXyXkXkXlXlXNXNXNXZXZXAXAXGXGXGXGXGXGXJXJXPXJXJXJXGXGXGXGXAXAXLXLXCXR.a.g.g.r.a.h.v.z.+.e.a.z.v.b.b.v.z.z.z.z.z.l.h.g.a.g.z.z.z.l.g.s.a.u.s.g.k.z.k.g.s.d.a.r.r.u.u.u.u.u.u.y.y.y.u.y.y.@.J p 6 * & & & % % X X ",
"1.3.3.3.3.c.x.z.z.z.x.x.Q.Q.Q.v.x.x.x.k.k.k.j.k.a.d.d.j.x.k.y.K K K y.mXUXyXtXkXkXkXkXaXaXtXaXaXkXkXkXlXlXlXlXlXlXlXkXkXkXtXtXtXtXtXtXtXrXyXyXyXyXkXlXlXlXlXNXZXAXAXAXAXAXAXGXGXGXGXJXIXIXIXPXIXJXGXGXGXGXGXAXAXLXIXqXd.h.g.a.e.g.v.v.h.+.e.g.v.v.v.v.z.z.l.l.z.z.z.h.g.g.l.x.x.z.h.a.a.u.a.g.h.z.z.z.g.g.s.a.a.a.a.a.a.s.s.s.u.u.u.@.#.s.s.u.u.K p * & & & % % # ",
"w 3.3.3.3.4.x.x.x.x.x.v.Q.x.x.x.j.j.x.x.j.k.k.g.u.a.d.k.j.j.g.K K 7.7.Q.IXIXrXyXlXkXkXkXaXaXaXtXaXkXlXlXlXlXlXZXlXlXlXlXlXkXtXtXtXtXrXaXyXkXlXlXlXlXNXNXNXZXZXAXAXAXAXAXAXAXGXGXGXJXJXIXIXPXIXJXJXJXGXGXGXGXGXGXLXCXR.d.g.g.r.e.z.b.b.a.+.t.h.b.b.v.v.z.z.l.l.l.l.l.h.h.h.z.z.z.l.g.r.r.a.a.h.h.z.z.k.g.g.g.g.g.g.g.g.g.g.d.s.u.u.u.@.@.@.s.s.s.a.K J i & & & & 1.",
"O t 3.3.3.3.5.x.v.Q.v.Q.Q.x.x.x.x.j.z.x.x.k.g.s.u.a.g.d.j.x.j.K K e.7.f.mXUXrXtXkXlXlXkXkXaXaXaXaXkXkXkXlXNXSXZXZXNXNXNXlXkXtXtXtXtXaXkXlXlXNXNXZXZXAXAXAXAXAXZXAXZXZXZXAXAXGXGXJXJXPXPXPXPXPXPXJXJXGXGXGXGXGXGXIXqXd.g.g.a.e.r.v.b.v.r.e.a.z.b.b.b.b.x.z.z.z.z.l.l.h.h.l.x.x.z.g.u.e.r.a.a.h.h.h.k.g.s.s.g.g.k.h.g.g.g.g.g.s.a.a.a.u.@.@.u.s.s.y.r.u.u.z & % 1.3.",
"O O y 3.3.3.3.6.Q.x.x.Q.v.x.x.v.x.j.j.j.z.j.g.g.a.a.d.d.k.x.v.y.K 7.e.y.(.UXNXtXkXlXlXlXkXkXkXkXkXkXkXlXlXlXZXZXZXZXZXNXlXlXkXtXtXtXtXyXkXlXlXZXZXAXAXSXAXAXZXZXZXlXNXZXAXAXGXJXJXJXPXIXIXIXJXJXJXJXJXGXGXJXAXLXLXQ.d.g.g.r.+.a.v.b.h.r.t.a.h.v.b.b.v.v.z.z.z.l.h.h.h.k.z.z.z.z.s.@.@.r.a.h.h.h.h.g.s.s.s.g.g.g.h.g.g.g.g.g.a.a.a.a.u.t.u.u.d.d.y.y.y.y.y.J y 3.3.",
"O O O 1.3.3.3.3.6.x.x.x.x.z.v.v.x.x.j.j.z.z.z.h.a.u.a.d.g.z.x.d.K K e.K f.LXIXrXkXlXNXlXlXlXkXkXkXkXkXkXlXNXNXNXAXZXZXZXlXlXlXkXaXtXtXtXtXkXkXlXNXNXNXNXNXNXlXlXlXlXZXAXAXGXJXJXJXPXPXIXIXIXJXJXJXJXJXGXJXAXAXLXmXj.g.g.a.+.e.z.b.v.a.r.r.a.g.z.x.v.x.x.z.z.z.z.l.h.j.h.l.z.z.h.a.@.@.r.a.h.z.z.k.g.d.d.d.g.k.k.k.g.g.g.s.a.a.a.a.a.a.a.a.u.a.u.u.u.u.u.u.6.3.3.3.",
"O O O @ 2.3.3.3.3.c.x.z.z.z.x.v.Q.v.x.j.x.x.z.h.s.a.a.d.g.j.v.x.e.K e.7.y.CXUXrXyXNXNXNXlXlXkXkXlXlXlXlXlXlXNXNXSXAXAXZXNXlXlXlXkXyXtXrXtXtXaXkXkXkXkXlXlXlXlXlXNXZXAXAXGXGXJXJXJXPXJXJXJXPXJXJXJXJXJXJXJXNXAXLX(.k.g.a.e.K g.b.v.l.t.r.r.a.h.z.x.x.x.z.z.z.z.z.z.z.z.h.l.z.x.h.u.e.r.u.a.h.z.z.k.g.g.g.k.k.z.z.k.k.g.g.a.a.a.g.g.h.g.s.s.u.u.u.u.@.@.t.6.3.3.3.3.",
"O O O O w 3.3.3.3.2.c.v.v.v.v.Q.Q.Q.v.v.x.x.j.k.g.a.a.d.d.j.v.v.t.K @.7.7.4XUXAXrXNXNXNXZXNXlXlXlXlXlXlXlXlXlXNXSXAXSXSXNXNXNXlXlXlXkXkXyXyXaXyXyXyXkXkXlXlXNXZXZXAXAXGXGXGXJXJXJXJXJXJXJXJXJXJXGXGXJXJXAXmXLXCXj.k.g.a.K @.v.b.v.h.t.t.r.a.h.v.v.x.z.z.z.z.x.z.z.z.z.l.z.z.z.k.a.u.a.g.g.z.z.z.k.g.k.k.z.z.z.k.k.k.k.g.g.a.a.g.k.h.g.g.s.a.u.u.u.u.u.7.2.3.3.3.3.",
"O O O O O t 3.3.3.3.4.z.v.Q.Q.Q.Q.Q.v.v.z.z.z.k.g.a.a.d.d.j.v.v.h.@.@.K ! R.LXUXyXkXNXZXSXSXZXlXlXlXlXlXlXlXlXZXZXAXSXSXZXZXNXlXlXlXlXlXlXlXkXkXkXlXlXlXlXNXZXAXZXAXAXGXGXJXJXJXPXPXPXJXJXJXGXJXJXJXJXGXmXCXLX(.g.k.d.e.K d.b.v.z.g.a.t.r.g.z.v.v.x.z.x.z.z.x.x.z.x.z.z.z.v.v.j.a.a.a.s.h.x.v.z.k.k.k.k.z.z.z.k.d.g.h.h.g.s.a.g.h.h.h.h.g.a.r.t.a.a.e.4.3.3.3.3.t ",
"O O O O O O y 3.3.3.3.4.v.b.Q.Q.Q.v.x.z.k.z.z.z.j.d.a.g.g.k.v.Q.v.u.K K e.y.qXUXGXyXNXSXAXAXSXZXNXlXlXlXlXlXlXlXZXSXAXAXSXSXZXNXlXlXlXNXNXlXlXlXlXlXlXZXZXZXZXAXAXAXGXAXGXJXJXJXPXPXJXJXJXJXGXGXJXJXGXNXmXLXmXj.s.d.d.K K z.v.v.z.g.a.r.t.h.x.b.b.v.x.x.z.z.z.z.z.z.z.x.x.v.v.h.a.u.u.a.l.x.x.z.l.k.g.k.l.l.h.d.s.h.z.k.g.a.s.g.h.z.z.j.h.u.r.t.a.g.4.3.3.3.3.t O ",
"O O O O O O O y 3.3.3.3.5.v.v.v.x.x.z.k.k.z.z.x.x.d.u.d.d.g.x.v.v.s.K K u.u.R.LXUXNXNXSXGXGXGXSXZXNXNXNXNXNXNXlXZXSXAXGXGXAXZXZXlXlXNXNXNXNXlXlXNXNXZXZXZXZXAXAXAXAXGXGXGXGXJXJXJXJXJXJXJXGXGXGXGXGXNXrXCXCXQ.g.a.a.e.a e.v.v.x.l.g.t.r.u.h.v.b.Q.b.v.x.z.z.x.v.x.v.v.v.x.v.z.s.a.u.a.g.z.z.z.z.k.h.g.k.k.k.g.s.g.k.z.j.g.s.g.h.z.z.x.j.g.a.u.a.g.4.3.3.3.3.y O O "
};
