/* XPM */
static char *south_wall[] = {
/* columns rows colors chars-per-pixel */
"64 64 4 1 ",
"  c #696969",
". c #808080",
"X c #A9A9A9",
"o c #C0C0C0",
/* pixels */
"..XX..XX..XX..XX..XX..XX..XX..XX..XX..XX..XX..XX..XX..XX..XX..XX",
"..XX..XX..XX..XX..XX..XX..XX..XX..XX..XX..XX..XX..XX..XX..XX..XX",
"XX..XX..XX..XX..XX..XX..XX..XX..XX..XX..XX..XX..XX..XX..XX..XX..",
"XX..XX..XX..XX..XX..XX..XX..XX..XX..XX..XX..XX..XX..XX..XX..XX..",
"..XX..XX..XX..XX..XX..XX..XX..XX..XX..XX..XX..XX..XX..XX..XX..XX",
"..XX..XX..XX..XX..XX..XX..XX..XX..XX..XX..XX..XX..XX..XX..XX..XX",
"XX..XX..XX..XX..XX..XX..XX..XX..XX..XX..XX..XX..XX..XX..XX..XX..",
"XX..XX..XX..XX..XX..XX..XX..XX..XX..XX..XX..XX..XX..XX..XX..XX..",
"..XX..XX..XX..XX..XX..XX..XX..XX..XX..XX..XX..XX..XX..XX..XX..XX",
"..XX..XX..XX..XX..XX..XX..XX..XX..XX..XX..XX..XX..XX..XX..XX..XX",
"XX..XX..XX..XX..XX..XX..XX..XX..XX..XX..XX..XX..XX..XX..XX..XX..",
"XX..XX..XX..XX..XX..XX..XX..XX..XX..XX..XX..XX..XX..XX..XX..XX..",
"..XX..XX..XX..XX..XX..XX..XX..XX..XX..XX..XX..XX..XX..XX..XX..XX",
"..XX..XX..XX..XX..XX..XX..XX..XX..XX..XX..XX..XX..XX..XX..XX..XX",
"XX..XX..XX..XX..XX..XX..XX..XX..XX..XX..XX..XX..XX..XX..XX..XX..",
"XX..XX..XX..XX..XX..XX..XX..XX..XX..XX..XX..XX..XX..XX..XX..XX..",
"..XX..XX..XX..XX..XX..XX..XX..XX..XX..XX..XX..XX..XX..XX..XX..XX",
"..XX..XX..XX..XX..XX..XX..XX..XX..XX..XX..XX..XX..XX..XX..XX..XX",
"XX..XX..XX..XX..XX..XX..XX..XX..XX..XX..XX..XX..XX..XX..XX..XX..",
"XX..XX..XX..XX..XX..XX..XX..XX..XX..XX..XX..XX..XX..XX..XX..XX..",
"..XX..XX..XX..XX..XX..XX..XX..XX..XX..XX..XX..XX..XX..XX..XX..XX",
"..XX..XX..XX..XX..XX..XX..XX..XX..XX..XX..XX..XX..XX..XX..XX..XX",
"XX..XX..XX..XX..XX..XX..XX..XX..XX..XX..XX..XX..XX..XX..XX..XX..",
"XX..XX..XX..XX..XX..XX..XX..XX..XX..XX..XX..XX..XX..XX..XX..XX..",
"..XX..XX..XX..XX..XX..XX..XX..XX..XX..XX..XX..XX..XX..XX..XX..XX",
"..XX..XX..XX..XX..XX..XX..XX..XX..XX..XX..XX..XX..XX..XX..XX..XX",
"XX..XX..XX..XX..XX..XX..XX..XX..XX..XX..XX..XX..XX..XX..XX..XX..",
"XX..XX..XX..XX..XX..XX..XX..XX..XX..XX..XX..XX..XX..XX..XX..XX..",
"..XX..XX..XX..XX..XX..XX..XX..XX..XX..XX..XX..XX..XX..XX..XX..XX",
"..XX..XX..XX..XX..XX..XX..XX..XX..XX..XX..XX..XX..XX..XX..XX..XX",
"XX..XX..XX..XX..XX..XX..XX..XX..XX..XX..XX..XX..XX..XX..XX..XX..",
"XX..XX..XX..XX..XX..XX..XX..XX..XX..XX..XX..XX..XX..XX..XX..XX..",
"..XX..XX..XX..XX..XX..XX..XX..XX..XX..XX..XX..XX..XX..XX..XX..XX",
"..XX..XX..XX..XX..XX..XX..XX..XX..XX..XX..XX..XX..XX..XX..XX..XX",
"XX..XX..XX..XX..XX..XX..XX..XX..XX..XX..XX..XX..XX..XX..XX..XX..",
"XX..XX..XX..XX..XX..XX..XX..XX..XX..XX..XX..XX..XX..XX..XX..XX..",
"..XX..XX..XX..XX..XX..XX..XX..XX..XX..XX..XX..XX..XX..XX..XX..XX",
"..XX..XX..XX..XX..XX..XX..XX..XX..XX..XX..XX..XX..XX..XX..XX..XX",
"XX..XX..XX..XX..XX..XX..XX..XX..XX..XX..XX..XX..XX..XX..XX..XX..",
"XX..XX..XX..XX..XX..XX..XX..XX..XX..XX..XX..XX..XX..XX..XX..XX..",
"..XX..XX..XX..XX..XX..XX..XX..XX..XX..XX..XX..XX..XX..XX..XX..XX",
"..XX..XX..XX..XX..XX..XX..XX..XX..XX..XX..XX..XX..XX..XX..XX..XX",
"XX..XX..XX..XX..XX..XX..XX..XX..XX..XX..XX..XX..XX..XX..XX..XX..",
"XX..XX..XX..XX..XX..XX..XX..XX..XX..XX..XX..XX..XX..XX..XX..XX..",
"..XX..XX..XX..XX..XX..XX..XX..XX..XX..XX..XX..XX..XX..XX..XX..XX",
"..XX..XX..XX..XX..XX..XX..XX..XX..XX..XX..XX..XX..XX..XX..XX..XX",
"XX..XX..XX..XX..XX..XX..XX..XX..XX..XX..XX..XX..XX..XX..XX..XX..",
"XX..XX..XX..XX..XX..XX..XX..XX..XX..XX..XX..XX..XX..XX..XX..XX..",
"..XX..XX..XX..XX..XX..XX..XX..XX..XX..XX..XX..XX..XX..XX..XX..XX",
"..XX..XX..XX..XX..XX..XX..XX..XX..XX..XX..XX..XX..XX..XX..XX..XX",
"XX..XX..XX..XX..XX..XX..XX..XX..XX..XX..XX..XX..XX..XX..XX..XX..",
"XX..XX..XX..XX..XX..XX..XX..XX..XX..XX..XX..XX..XX..XX..XX..XX..",
"..XX..XX..XX..XX..XX..XX..XX..XX..XX..XX..XX..XX..XX..XX..XX..XX",
"..XX..XX..XX..XX..XX..XX..XX..XX..XX..XX..XX..XX..XX..XX..XX..XX",
"XX..XX..XX..XX..XX..XX..XX..XX..XX..XX..XX..XX..XX..XX..XX..XX..",
"XX..XX..XX..XX..XX..XX..XX..XX..XX..XX..XX..XX..XX..XX..XX..XX..",
"..XX..XX..XX..XX..XX..XX..XX..XX..XX..XX..XX..XX..XX..XX..XX..XX",
"..XX..XX..XX..XX..XX..XX..XX..XX..XX..XX..XX..XX..XX..XX..XX..XX",
"XX..XX..XX..XX..XX..XX..XX..XX..XX..XX..XX..XX..XX..XX..XX..XX..",
"XX..XX..XX..XX..XX..XX..XX..XX..XX..XX..XX..XX..XX..XX..XX..XX..",
"..XX..XX..XX..XX..XX..XX..XX..XX..XX..XX..XX..XX..XX..XX..XX..XX",
"..XX..XX..XX..XX..XX..XX..XX..XX..XX..XX..XX..XX..XX..XX..XX..XX",
"XX..XX..XX..XX..XX..XX..XX..XX..XX..XX..XX..XX..XX..XX..XX..XX..",
"XX..XX..XX..XX..XX..XX..XX..XX..XX..XX..XX..XX..XX..XX..XX..XX..",
"..XX..XX..XX..XX..XX..XX..XX..XX..XX..XX..XX..XX..XX..XX..XX..XX",
"..XX..XX..XX..XX..XX..XX..XX..XX..XX..XX..XX..XX..XX..XX..XX..XX"
};